; generated by Slic3r 0.9.9 on 2013-07-12 at 23:17:36

; layer_height = 0.3
; perimeters = 2
; top_solid_layers = 3
; bottom_solid_layers = 3
; fill_density = 0.4
; perimeter_speed = 30
; infill_speed = 60
; travel_speed = 130
; nozzle_diameter = 0.5
; filament_diameter = 2.85
; extrusion_multiplier = 1
; perimeters extrusion width = 0.70mm
; infill extrusion width = 0.70mm
; solid infill extrusion width = 0.70mm
; top infill extrusion width = 0.70mm
; first layer extrusion width = 0.60mm

G21 ; set units to millimeters
M107
M104 S0
M83
M140 S80
G28
G1Y98F9000
M190 S80
G1X5Y98Z150F9000
M104 S210
G1X5Y98Z1F9000
G1Z0.05
M109 S210
G1Z5
G1X15
;G1E5F50
G90 ; use absolute coordinates
G92 E0
M82 ; use absolute distances for extrusion
G1 F1800.000 E-1.00000
G92 E0
G1 Z0.300 F7800.000
G1 X4.520 Y24.010
G1 F1800.000 E1.00000
G1 X-29.300 Y12.850 F540.000 E1.96893
G1 X-30.120 Y12.460 E1.99363
G1 X-30.640 Y12.150 E2.01010
G1 X-33.150 Y10.450 E2.09258
G1 X-33.880 Y9.870 E2.11795
G1 X-36.370 Y7.610 E2.20944
G1 X-36.760 Y7.230 E2.22425
G1 X-37.120 Y6.810 E2.23930
G1 X-37.440 Y6.370 E2.25410
G1 X-37.590 Y6.130 E2.26180
G1 X-37.970 Y5.400 E2.28419
G1 X-38.170 Y4.890 E2.29910
G1 X-38.390 Y4.100 E2.32141
G1 X-38.510 Y3.290 E2.34369
G1 X-38.530 Y2.740 E2.35866
G1 X-38.530 Y-2.760 E2.50830
G1 X-38.510 Y-3.310 E2.52327
G1 X-38.440 Y-3.860 E2.53835
G1 X-38.320 Y-4.400 E2.55340
G1 X-38.250 Y-4.660 E2.56073
G1 X-38.070 Y-5.180 E2.57570
G1 X-37.840 Y-5.690 E2.59092
G1 X-37.580 Y-6.170 E2.60577
G1 X-37.270 Y-6.630 E2.62087
G1 X-36.930 Y-7.060 E2.63578
G1 X-36.350 Y-7.650 E2.65829
G1 X-33.860 Y-9.890 E2.74941
G1 X-33.150 Y-10.450 E2.77401
G1 X-30.640 Y-12.150 E2.85649
G1 X-30.120 Y-12.460 E2.87296
G1 X-29.300 Y-12.850 E2.89767
G1 X4.520 Y-24.020 E3.86668
G1 X6.190 Y-24.540 E3.91427
G1 X6.710 Y-24.680 E3.92892
G1 X8.320 Y-25.040 E3.97380
G1 X8.930 Y-25.150 E3.99067
G1 X10.590 Y-25.360 E4.03619
G1 X12.760 Y-25.470 E4.09530
G1 X13.320 Y-25.470 E4.11054
G1 X15.530 Y-25.360 E4.17074
G1 X17.170 Y-25.150 E4.21572
G1 X17.770 Y-25.040 E4.23232
G1 X19.380 Y-24.680 E4.27721
G1 X19.900 Y-24.540 E4.29186
G1 X21.470 Y-24.050 E4.33660
G1 X22.060 Y-23.830 E4.35373
G1 X23.580 Y-23.190 E4.39860
G1 X24.070 Y-22.970 E4.41322
G1 X25.530 Y-22.210 E4.45800
G1 X27.390 Y-21.060 E4.51749
G1 X27.910 Y-20.700 E4.53470
G1 X29.230 Y-19.680 E4.58009
G1 X29.660 Y-19.320 E4.59534
G1 X30.860 Y-18.220 E4.63963
G1 X31.280 Y-17.800 E4.65579
G1 X32.390 Y-16.580 E4.70067
G1 X32.710 Y-16.190 E4.71439
G1 X33.720 Y-14.890 E4.75918
G1 X34.090 Y-14.370 E4.77655
G1 X34.970 Y-12.980 E4.82130
G1 X35.250 Y-12.480 E4.83690
G1 X36.010 Y-11.010 E4.88192
G1 X36.230 Y-10.540 E4.89604
G1 X36.870 Y-9.020 E4.94091
G1 X37.090 Y-8.430 E4.95804
G1 X37.580 Y-6.860 E5.00278
G1 X37.720 Y-6.340 E5.01744
G1 X38.080 Y-4.730 E5.06232
G1 X38.190 Y-4.130 E5.07892
G1 X38.400 Y-2.490 E5.12390
G1 X38.510 Y-0.290 E5.18383
G1 X38.510 Y0.270 E5.19906
G1 X38.400 Y2.480 E5.25927
G1 X38.190 Y4.120 E5.30425
G1 X38.080 Y4.720 E5.32085
G1 X37.720 Y6.330 E5.36573
G1 X37.580 Y6.850 E5.38038
G1 X37.090 Y8.420 E5.42513
G1 X36.870 Y9.010 E5.44226
G1 X36.230 Y10.530 E5.48713
G1 X36.010 Y11.000 E5.50125
G1 X35.250 Y12.470 E5.54627
G1 X34.970 Y12.970 E5.56186
G1 X34.090 Y14.360 E5.60662
G1 X33.720 Y14.880 E5.62398
G1 X32.710 Y16.180 E5.66877
G1 X32.390 Y16.570 E5.68250
G1 X31.280 Y17.790 E5.72737
G1 X30.840 Y18.230 E5.74430
G1 X29.620 Y19.340 E5.78918
G1 X27.930 Y20.670 E5.84769
G1 X27.390 Y21.050 E5.86565
G1 X25.990 Y21.930 E5.91064
G1 X25.530 Y22.200 E5.92515
G1 X24.070 Y22.960 E5.96993
G1 X22.060 Y23.820 E6.02941
G1 X21.470 Y24.040 E6.04654
G1 X19.900 Y24.530 E6.09129
G1 X19.380 Y24.670 E6.10594
G1 X17.770 Y25.030 E6.15083
G1 X17.170 Y25.140 E6.16742
G1 X15.530 Y25.350 E6.21241
G1 X13.320 Y25.460 E6.27261
G1 X12.760 Y25.460 E6.28784
G1 X10.560 Y25.350 E6.34777
G1 X8.920 Y25.140 E6.39276
G1 X8.320 Y25.030 E6.40935
G1 X6.710 Y24.670 E6.45424
G1 X6.190 Y24.530 E6.46889
G1 X4.603 Y24.035 E6.51411
G1 F1800.000 E5.51411
G92 E0
G1 X6.307 Y18.582 F7800.000
G1 F1800.000 E1.00000
G1 X4.713 Y17.924 F540.000 E1.04692
G1 X3.182 Y17.129 E1.09384
G1 X2.396 Y16.630 E1.11917
G1 X2.182 Y16.240 E1.13128
G1 X2.182 Y7.568 E1.36722
G1 X-27.309 Y7.568 E2.16958
G1 X-27.818 Y7.059 E2.18914
G1 X-27.818 Y3.618 E2.28278
G1 X-27.832 Y3.618 E2.28317
G1 X-27.832 Y5.359 E2.33055
G1 X-28.341 Y5.868 E2.35011
G1 X-29.611 Y5.868 E2.38467
G1 X-29.911 Y5.753 E2.39342
G1 X-32.668 Y3.272 E2.49432
G1 X-32.818 Y2.935 E2.50436
G1 X-32.818 Y-2.935 E2.66404
G1 X-32.668 Y-3.272 E2.67408
G1 X-29.911 Y-5.753 E2.77498
G1 X-29.611 Y-5.868 E2.78373
G1 X-28.341 Y-5.868 E2.81829
G1 X-27.832 Y-5.359 E2.83785
G1 X-27.832 Y-3.618 E2.88523
G1 X-27.818 Y-3.618 E2.88562
G1 X-27.818 Y-7.059 E2.97926
G1 X-27.309 Y-7.568 E2.99882
G1 X2.182 Y-7.568 E3.80119
G1 X2.182 Y-16.240 E4.03713
G1 X2.396 Y-16.630 E4.04923
G1 X3.182 Y-17.129 E4.07457
G1 X4.679 Y-17.908 E4.12045
G1 X6.271 Y-18.569 E4.16737
G1 X7.952 Y-19.099 E4.21532
G1 X9.637 Y-19.471 E4.26226
G1 X11.371 Y-19.695 E4.30984
G1 X13.069 Y-19.768 E4.35607
G1 X14.754 Y-19.694 E4.40196
G1 X16.464 Y-19.471 E4.44888
G1 X18.148 Y-19.099 E4.49580
G1 X19.793 Y-18.582 E4.54272
G1 X21.387 Y-17.924 E4.58964
G1 X22.917 Y-17.129 E4.63655
G1 X24.373 Y-16.204 E4.68348
G1 X25.761 Y-15.138 E4.73109
G1 X27.041 Y-13.965 E4.77834
G1 X28.205 Y-12.692 E4.82525
G1 X29.254 Y-11.323 E4.87217
G1 X30.179 Y-9.867 E4.91909
G1 X30.974 Y-8.337 E4.96601
G1 X31.632 Y-6.743 E5.01293
G1 X32.149 Y-5.098 E5.05985
G1 X32.521 Y-3.414 E5.10677
G1 X32.744 Y-1.704 E5.15368
G1 X32.818 Y-0.019 E5.19957
G1 X32.744 Y1.704 E5.24649
G1 X32.521 Y3.414 E5.29341
G1 X32.149 Y5.098 E5.34033
G1 X31.632 Y6.743 E5.38725
G1 X30.974 Y8.337 E5.43417
G1 X30.179 Y9.867 E5.48108
G1 X29.254 Y11.323 E5.52800
G1 X28.205 Y12.692 E5.57492
G1 X27.041 Y13.965 E5.62184
G1 X25.771 Y15.131 E5.66876
G1 X24.373 Y16.204 E5.71671
G1 X22.917 Y17.129 E5.76362
G1 X21.387 Y17.924 E5.81054
G1 X19.793 Y18.582 E5.85746
G1 X18.148 Y19.099 E5.90438
G1 X16.464 Y19.471 E5.95130
G1 X14.754 Y19.694 E5.99822
G1 X13.031 Y19.768 E6.04513
G1 X11.308 Y19.691 E6.09205
G1 X9.599 Y19.464 E6.13897
G1 X7.952 Y19.099 E6.18486
G1 X6.390 Y18.608 E6.22942
G1 X6.493 Y18.034 F7800.000
G1 X4.935 Y17.389 F540.000 E6.27531
G1 X3.450 Y16.615 E6.32085
G1 X2.832 Y16.222 E6.34078
G1 X2.761 Y16.092 E6.34482
G1 X2.761 Y6.989 E6.59246
G1 X-27.070 Y6.989 E7.40405
G1 X-27.239 Y6.820 E7.41057
G1 X-27.239 Y3.039 E7.51343
G1 X-28.411 Y3.039 E7.54530
G1 X-28.411 Y5.120 E7.60190
G1 X-28.580 Y5.289 E7.60842
G1 X-29.504 Y5.289 E7.63354
G1 X-29.604 Y5.251 E7.63646
G1 X-32.189 Y2.924 E7.73110
G1 X-32.239 Y2.812 E7.73445
G1 X-32.239 Y-2.812 E7.88743
G1 X-32.189 Y-2.924 E7.89078
G1 X-29.604 Y-5.251 E7.98541
G1 X-29.504 Y-5.289 E7.98833
G1 X-28.580 Y-5.289 E8.01345
G1 X-28.411 Y-5.120 E8.01997
G1 X-28.411 Y-3.039 E8.07658
G1 X-27.239 Y-3.039 E8.10845
G1 X-27.239 Y-6.820 E8.21131
G1 X-27.070 Y-6.989 E8.21783
G1 X2.761 Y-6.989 E9.02941
G1 X2.761 Y-16.092 E9.27706
G1 X2.832 Y-16.222 E9.28109
G1 X3.450 Y-16.615 E9.30102
G1 X4.946 Y-17.394 E9.34691
G1 X6.493 Y-18.034 E9.39246
G1 X8.090 Y-18.537 E9.43800
G1 X9.724 Y-18.899 E9.48356
G1 X11.409 Y-19.118 E9.52977
G1 X13.056 Y-19.189 E9.57464
G1 X14.716 Y-19.117 E9.61984
G1 X16.376 Y-18.899 E9.66539
G1 X18.010 Y-18.537 E9.71093
G1 X19.607 Y-18.034 E9.75648
G1 X21.154 Y-17.394 E9.80202
G1 X22.639 Y-16.622 E9.84756
G1 X24.051 Y-15.723 E9.89311
G1 X25.398 Y-14.687 E9.93933
G1 X26.623 Y-13.564 E9.98454
G1 X27.746 Y-12.339 E10.02974
G1 X28.765 Y-11.012 E10.07529
G1 X29.665 Y-9.600 E10.12083
G1 X30.439 Y-8.115 E10.16638
G1 X31.084 Y-6.557 E10.21227
G1 X31.587 Y-4.960 E10.25781
G1 X31.949 Y-3.326 E10.30336
G1 X32.167 Y-1.666 E10.34890
G1 X32.239 Y-0.006 E10.39411
G1 X32.167 Y1.666 E10.43965
G1 X31.949 Y3.326 E10.48520
G1 X31.587 Y4.960 E10.53074
G1 X31.084 Y6.557 E10.57629
G1 X30.444 Y8.104 E10.62183
G1 X29.672 Y9.589 E10.66738
G1 X28.773 Y11.001 E10.71292
G1 X27.754 Y12.330 E10.75847
G1 X26.623 Y13.564 E10.80401
G1 X25.389 Y14.696 E10.84956
G1 X24.062 Y15.715 E10.89510
G1 X22.650 Y16.615 E10.94065
G1 X21.154 Y17.394 E10.98654
G1 X19.607 Y18.034 E11.03208
G1 X18.010 Y18.537 E11.07763
G1 X16.376 Y18.899 E11.12317
G1 X14.716 Y19.117 E11.16872
G1 X13.044 Y19.189 E11.21426
G1 X11.371 Y19.116 E11.25981
G1 X9.712 Y18.897 E11.30535
G1 X8.090 Y18.537 E11.35056
G1 X6.576 Y18.060 E11.39374
G1 X6.696 Y17.492 F7800.000
G1 X5.185 Y16.867 F540.000 E11.43824
G1 X3.745 Y16.117 E11.48241
G1 X3.339 Y15.859 E11.49549
G1 X3.339 Y6.411 E11.75254
G1 X-26.661 Y6.411 E12.56874
G1 X-26.661 Y2.461 E12.67621
G1 X-28.989 Y2.461 E12.73956
G1 X-28.989 Y4.711 E12.80077
G1 X-29.339 Y4.711 E12.81029
G1 X-31.661 Y2.621 E12.89527
G1 X-31.661 Y-2.621 E13.03790
G1 X-29.339 Y-4.711 E13.12288
G1 X-28.989 Y-4.711 E13.13239
G1 X-28.989 Y-2.461 E13.19361
G1 X-26.661 Y-2.461 E13.25696
G1 X-26.661 Y-6.411 E13.36443
G1 X3.339 Y-6.411 E14.18063
G1 X3.339 Y-15.859 E14.43768
G1 X3.745 Y-16.117 E14.45076
G1 X5.185 Y-16.867 E14.49493
G1 X6.685 Y-17.488 E14.53910
G1 X8.233 Y-17.976 E14.58327
G1 X9.818 Y-18.328 E14.62744
G1 X11.440 Y-18.540 E14.67194
G1 X13.050 Y-18.610 E14.71578
G1 X14.672 Y-18.540 E14.75995
G1 X16.282 Y-18.328 E14.80413
G1 X17.867 Y-17.976 E14.84830
G1 X19.415 Y-17.488 E14.89247
G1 X20.915 Y-16.867 E14.93664
G1 X22.355 Y-16.117 E14.98081
G1 X23.725 Y-15.245 E15.02498
G1 X25.013 Y-14.256 E15.06916
G1 X26.210 Y-13.160 E15.11333
G1 X27.306 Y-11.963 E15.15750
G1 X28.295 Y-10.675 E15.20167
G1 X29.167 Y-9.305 E15.24584
G1 X29.917 Y-7.865 E15.29001
G1 X30.538 Y-6.365 E15.33418
G1 X31.026 Y-4.817 E15.37836
G1 X31.378 Y-3.232 E15.42253
G1 X31.590 Y-1.622 E15.46670
G1 X31.660 Y-0.000 E15.51087
G1 X31.590 Y1.610 E15.55471
G1 X31.378 Y3.232 E15.59921
G1 X31.026 Y4.817 E15.64338
G1 X30.538 Y6.365 E15.68756
G1 X29.917 Y7.865 E15.73173
G1 X29.167 Y9.305 E15.77590
G1 X28.295 Y10.675 E15.82007
G1 X27.306 Y11.963 E15.86424
G1 X26.210 Y13.160 E15.90841
G1 X25.013 Y14.256 E15.95258
G1 X23.725 Y15.245 E15.99676
G1 X22.355 Y16.117 E16.04093
G1 X20.915 Y16.867 E16.08510
G1 X19.415 Y17.488 E16.12927
G1 X17.867 Y17.976 E16.17344
G1 X16.282 Y18.328 E16.21761
G1 X14.672 Y18.540 E16.26179
G1 X13.050 Y18.610 E16.30596
G1 X11.428 Y18.540 E16.35013
G1 X9.818 Y18.328 E16.39430
G1 X8.233 Y17.976 E16.43847
G1 X6.779 Y17.518 E16.47995
G1 X6.604 Y16.921 F7800.000
G1 F1800.000 E15.47995
G92 E0
G1 X-18.500 Y5.832 F7800.000
G1 F1800.000 E1.00000
G1 X-26.082 Y5.832 F540.000 E1.20629
G1 X-26.082 Y1.882 E1.31375
G1 X-29.568 Y1.882 E1.40859
G1 X-29.568 Y3.726 E1.45876
G1 X-31.082 Y2.364 E1.51419
G1 X-31.082 Y-2.364 E1.64280
G1 X-29.568 Y-3.726 E1.69823
G1 X-29.568 Y-1.882 E1.74841
G1 X-26.082 Y-1.882 E1.84324
G1 X-26.082 Y-5.832 E1.95070
G1 X-18.500 Y-5.832 E2.15699
G1 X-18.446 Y-5.508 E2.16594
G1 X-19.505 Y-5.144 E2.19640
G1 X-20.067 Y-4.840 E2.21379
G1 X-20.572 Y-4.448 E2.23118
G1 X-21.004 Y-3.978 E2.24856
G1 X-21.354 Y-3.442 E2.26596
G1 X-21.610 Y-2.857 E2.28335
G1 X-21.768 Y-2.238 E2.30073
G1 X-21.818 Y-1.636 E2.31716
G1 X-21.818 Y1.636 E2.40618
G1 X-21.768 Y2.238 E2.42261
G1 X-21.610 Y2.857 E2.43999
G1 X-21.354 Y3.442 E2.45737
G1 X-21.004 Y3.978 E2.47477
G1 X-20.572 Y4.448 E2.49215
G1 X-20.067 Y4.840 E2.50954
G1 X-19.505 Y5.144 E2.52694
G1 X-18.446 Y5.508 E2.55740
G1 X-18.486 Y5.747 E2.56398
G1 F1800.000 E1.56398
G92 E0
G1 X17.717 Y17.417 F7800.000
G1 F1800.000 E1.00000
G1 X16.181 Y17.757 F540.000 E1.04280
G1 X14.621 Y17.963 E1.08560
G1 X13.050 Y18.031 E1.12839
G1 X11.479 Y17.963 E1.17119
G1 X9.919 Y17.757 E1.21399
G1 X8.383 Y17.417 E1.25678
G1 X6.883 Y16.944 E1.29958
G1 X5.430 Y16.342 E1.34238
G1 X3.918 Y15.555 E1.38875
G1 X3.918 Y5.832 E1.65327
G1 X-3.400 Y5.832 E1.85237
G1 X-3.454 Y5.508 E1.86131
G1 X-2.395 Y5.144 E1.89177
G1 X-1.833 Y4.840 E1.90917
G1 X-1.328 Y4.448 E1.92656
G1 X-0.896 Y3.978 E1.94394
G1 X-0.546 Y3.442 E1.96133
G1 X-0.290 Y2.857 E1.97872
G1 X-0.132 Y2.238 E1.99610
G1 X-0.082 Y1.636 E2.01253
G1 X-0.082 Y-1.636 E2.10155
G1 X-0.132 Y-2.238 E2.11798
G1 X-0.290 Y-2.857 E2.13536
G1 X-0.546 Y-3.442 E2.15275
G1 X-0.896 Y-3.978 E2.17015
G1 X-1.328 Y-4.448 E2.18753
G1 X-1.833 Y-4.840 E2.20492
G1 X-2.395 Y-5.144 E2.22231
G1 X-3.454 Y-5.508 E2.25277
G1 X-3.400 Y-5.832 E2.26172
G1 X3.918 Y-5.832 E2.46081
G1 X3.918 Y-15.555 E2.72534
G1 X5.430 Y-16.342 E2.77171
G1 X6.883 Y-16.944 E2.81450
G1 X8.383 Y-17.417 E2.85730
G1 X9.919 Y-17.757 E2.90010
G1 X11.478 Y-17.963 E2.94290
G1 X13.050 Y-18.031 E2.98569
G1 X14.621 Y-17.963 E3.02849
G1 X16.181 Y-17.757 E3.07129
G1 X17.717 Y-17.417 E3.11408
G1 X19.217 Y-16.944 E3.15688
G1 X20.670 Y-16.342 E3.19968
G1 X22.066 Y-15.616 E3.24247
G1 X23.392 Y-14.770 E3.28527
G1 X24.640 Y-13.813 E3.32807
G1 X25.800 Y-12.750 E3.37086
G1 X26.863 Y-11.590 E3.41366
G1 X27.820 Y-10.342 E3.45646
G1 X28.666 Y-9.016 E3.49926
G1 X29.392 Y-7.620 E3.54205
G1 X29.994 Y-6.167 E3.58485
G1 X30.467 Y-4.667 E3.62765
G1 X30.807 Y-3.131 E3.67044
G1 X31.013 Y-1.572 E3.71324
G1 X31.081 Y-0.000 E3.75604
G1 X31.013 Y1.572 E3.79883
G1 X30.807 Y3.131 E3.84163
G1 X30.467 Y4.667 E3.88443
G1 X29.994 Y6.167 E3.92723
G1 X29.392 Y7.620 E3.97002
G1 X28.666 Y9.016 E4.01282
G1 X27.820 Y10.342 E4.05562
G1 X26.863 Y11.590 E4.09841
G1 X25.800 Y12.750 E4.14121
G1 X24.640 Y13.813 E4.18401
G1 X23.392 Y14.770 E4.22680
G1 X22.066 Y15.616 E4.26960
G1 X20.670 Y16.342 E4.31240
G1 X19.217 Y16.944 E4.35519
G1 X17.800 Y17.391 E4.39563
G1 F1800.000 E3.39563
G92 E0
G1 X-1.354 Y3.621 F7800.000
G1 F1800.000 E1.00000
G1 X-1.721 Y4.021 F540.000 E1.01477
G1 X-2.150 Y4.354 E1.02955
G1 X-2.628 Y4.613 E1.04434
G1 X-3.143 Y4.789 E1.05913
G1 X-3.678 Y4.879 E1.07389
G1 X-18.222 Y4.879 E1.46960
G1 X-18.757 Y4.789 E1.48436
G1 X-19.272 Y4.613 E1.49915
G1 X-19.750 Y4.354 E1.51394
G1 X-20.179 Y4.021 E1.52872
G1 X-20.546 Y3.621 E1.54349
G1 X-20.843 Y3.166 E1.55828
G1 X-21.061 Y2.668 E1.57307
G1 X-21.195 Y2.142 E1.58784
G1 X-21.239 Y1.612 E1.60231
G1 X-21.239 Y-1.612 E1.69002
G1 X-21.195 Y-2.142 E1.70449
G1 X-21.061 Y-2.668 E1.71927
G1 X-20.843 Y-3.166 E1.73405
G1 X-20.546 Y-3.621 E1.74884
G1 X-20.179 Y-4.021 E1.76361
G1 X-19.750 Y-4.354 E1.77839
G1 X-19.272 Y-4.613 E1.79318
G1 X-18.757 Y-4.789 E1.80797
G1 X-18.222 Y-4.879 E1.82274
G1 X-3.678 Y-4.879 E2.21844
G1 X-3.143 Y-4.789 E2.23321
G1 X-2.628 Y-4.613 E2.24800
G1 X-2.150 Y-4.354 E2.26279
G1 X-1.721 Y-4.021 E2.27757
G1 X-1.354 Y-3.621 E2.29233
G1 X-1.057 Y-3.166 E2.30712
G1 X-0.839 Y-2.668 E2.32191
G1 X-0.705 Y-2.142 E2.33668
G1 X-0.661 Y-1.612 E2.35115
G1 X-0.661 Y1.612 E2.43887
G1 X-0.705 Y2.142 E2.45333
G1 X-0.839 Y2.668 E2.46811
G1 X-1.057 Y3.166 E2.48290
G1 X-1.306 Y3.549 E2.49532
G1 X-1.164 Y4.129 F7800.000
G1 X4.194 Y1.109
G1 X4.013 Y0.544 F540.000 E2.51146
G1 X3.959 Y0.000 E2.52634
G1 X4.013 Y-0.544 E2.54123
G1 X4.172 Y-1.068 E2.55611
G1 X4.430 Y-1.550 E2.57100
G1 X4.777 Y-1.973 E2.58588
G1 X5.200 Y-2.320 E2.60076
G1 X5.682 Y-2.578 E2.61565
G1 X6.206 Y-2.737 E2.63053
G1 X6.750 Y-2.791 E2.64542
G1 X7.294 Y-2.737 E2.66030
G1 X7.818 Y-2.578 E2.67518
G1 X8.300 Y-2.320 E2.69007
G1 X8.701 Y-1.991 E2.70418
G1 X8.838 Y-2.280 E2.71286
G1 X9.114 Y-2.729 E2.72722
G1 X9.438 Y-3.146 E2.74157
G1 X9.806 Y-3.524 E2.75593
G1 X10.213 Y-3.859 E2.77029
G1 X10.655 Y-4.148 E2.78465
G1 X11.126 Y-4.386 E2.79900
G1 X11.620 Y-4.571 E2.81336
G1 X12.132 Y-4.701 E2.82772
G1 X12.654 Y-4.773 E2.84207
G1 X13.182 Y-4.788 E2.85643
G1 X13.708 Y-4.744 E2.87079
G1 X14.226 Y-4.643 E2.88515
G1 X14.729 Y-4.486 E2.89950
G1 X15.213 Y-4.274 E2.91386
G1 X15.670 Y-4.010 E2.92822
G1 X16.095 Y-3.697 E2.94258
G1 X16.483 Y-3.340 E2.95693
G1 X16.830 Y-2.942 E2.97129
G1 X17.130 Y-2.508 E2.98565
G1 X17.382 Y-2.044 E3.00000
G1 X17.590 Y-1.522 E3.01530
G1 X17.724 Y-1.047 E3.02871
G1 X17.811 Y-0.527 E3.04307
G1 X17.840 Y0.000 E3.05743
G1 X17.811 Y0.527 E3.07178
G1 X17.724 Y1.047 E3.08614
G1 X17.590 Y1.522 E3.09956
G1 X17.382 Y2.044 E3.11485
G1 X17.130 Y2.508 E3.12921
G1 X16.830 Y2.942 E3.14356
G1 X16.483 Y3.340 E3.15792
G1 X16.095 Y3.697 E3.17228
G1 X15.670 Y4.010 E3.18664
G1 X15.213 Y4.274 E3.20099
G1 X14.729 Y4.486 E3.21535
G1 X14.226 Y4.643 E3.22971
G1 X13.708 Y4.744 E3.24406
G1 X13.182 Y4.788 E3.25842
