; generated by Slic3r 0.9.9 on 2013-07-13 at 00:09:18

; layer_height = 0.3
; perimeters = 2
; top_solid_layers = 3
; bottom_solid_layers = 3
; fill_density = 0.4
; perimeter_speed = 30
; infill_speed = 60
; travel_speed = 130
; nozzle_diameter = 0.5
; filament_diameter = 2.85
; extrusion_multiplier = 1
; perimeters extrusion width = 0.70mm
; infill extrusion width = 0.70mm
; solid infill extrusion width = 0.70mm
; top infill extrusion width = 0.70mm
; first layer extrusion width = 0.60mm

G21 ; set units to millimeters
M107
M104 S0
M83
M140 S80
G28
G1Y98F9000
M190 S80
G1X5Y98Z150F9000
M104 S210
G1X5Y98Z1F9000
G1Z0.05
M109 S210
G1Z5
G1X15
;G1E5F50
G90 ; use absolute coordinates
G92 E0
M82 ; use absolute distances for extrusion
G1 F1800.000 E-1.00000
G92 E0
G1 Z0.300 F7800.000
G1 X-25.427 Y-30.883
G1 F1800.000 E1.00000
G1 X8.103 Y-41.953 F540.000 E1.96067
G1 X9.773 Y-42.473 E2.00826
G1 X10.293 Y-42.613 E2.02291
G1 X11.903 Y-42.973 E2.06779
G1 X12.513 Y-43.083 E2.08466
G1 X14.173 Y-43.293 E2.13018
G1 X16.343 Y-43.403 E2.18929
G1 X16.903 Y-43.403 E2.20453
G1 X19.113 Y-43.293 E2.26473
G1 X20.753 Y-43.083 E2.30971
G1 X21.353 Y-42.973 E2.32631
G1 X22.963 Y-42.613 E2.37119
G1 X23.483 Y-42.473 E2.38585
G1 X25.053 Y-41.983 E2.43059
G1 X25.643 Y-41.763 E2.44772
G1 X27.653 Y-40.903 E2.50720
G1 X29.113 Y-40.143 E2.55198
G1 X30.973 Y-38.993 E2.61148
G1 X31.493 Y-38.633 E2.62869
G1 X32.813 Y-37.613 E2.67407
G1 X33.243 Y-37.253 E2.68933
G1 X34.443 Y-36.153 E2.73362
G1 X34.863 Y-35.733 E2.74978
G1 X35.973 Y-34.513 E2.79465
G1 X37.303 Y-32.823 E2.85316
G1 X37.673 Y-32.303 E2.87053
G1 X38.553 Y-30.913 E2.91529
G1 X38.833 Y-30.413 E2.93088
G1 X39.593 Y-28.943 E2.97590
G1 X39.813 Y-28.473 E2.99002
G1 X40.453 Y-26.953 E3.03489
G1 X40.673 Y-26.363 E3.05202
G1 X41.163 Y-24.793 E3.09677
G1 X41.303 Y-24.273 E3.11142
G1 X41.663 Y-22.663 E3.15630
G1 X41.773 Y-22.063 E3.17290
G1 X41.983 Y-20.423 E3.21788
G1 X42.023 Y-19.863 E3.23316
G1 X42.093 Y-18.223 E3.27782
G1 X42.093 Y-17.663 E3.29305
G1 X41.993 Y-15.613 E3.34889
G1 X38.473 Y18.047 E4.26966
G1 X38.293 Y18.877 E4.29277
G1 X38.113 Y19.417 E4.30825
G1 X37.893 Y19.937 E4.32361
G1 X37.473 Y20.677 E4.34676
G1 X36.963 Y21.357 E4.36989
G1 X36.573 Y21.777 E4.38548
G1 X33.863 Y24.217 E4.48470
G1 X33.163 Y24.767 E4.50892
G1 X30.473 Y26.597 E4.59743
G1 X30.073 Y26.827 E4.60998
G1 X-1.737 Y41.117 E5.55874
G1 X-2.517 Y41.417 E5.58148
G1 X-6.737 Y42.697 E5.70146
G1 X-7.487 Y42.877 E5.72244
G1 X-7.997 Y42.947 E5.73645
G1 X-12.397 Y43.377 E5.85673
G1 X-13.167 Y43.407 E5.87769
G1 X-13.677 Y43.377 E5.89159
G1 X-18.067 Y42.947 E6.01160
G1 X-18.837 Y42.827 E6.03280
G1 X-19.337 Y42.697 E6.04686
G1 X-23.557 Y41.417 E6.16683
G1 X-24.047 Y41.247 E6.18095
G1 X-24.747 Y40.917 E6.20200
G1 X-28.637 Y38.837 E6.32201
G1 X-29.087 Y38.577 E6.33615
G1 X-29.517 Y38.277 E6.35042
G1 X-33.117 Y35.317 E6.47722
G1 X-33.497 Y34.977 E6.49109
G1 X-33.857 Y34.607 E6.50514
G1 X-37.137 Y30.587 E6.64629
G1 X-37.537 Y29.927 E6.66729
G1 X-39.617 Y26.037 E6.78730
G1 X-39.847 Y25.577 E6.80130
G1 X-40.037 Y25.097 E6.81534
G1 X-41.397 Y20.627 E6.94246
G1 X-41.527 Y20.127 E6.95651
G1 X-41.647 Y19.357 E6.97772
G1 X-42.077 Y14.967 E7.09773
G1 X-42.107 Y14.457 E7.11162
G1 X-42.077 Y13.687 E7.13259
G1 X-41.647 Y9.297 E7.25260
G1 X-41.527 Y8.527 E7.27380
G1 X-34.797 Y-22.103 E8.12702
G1 X-34.727 Y-22.393 E8.13513
G1 X-34.437 Y-23.223 E8.15905
G1 X-34.197 Y-23.743 E8.17464
G1 X-33.897 Y-24.253 E8.19073
G1 X-33.557 Y-24.733 E8.20674
G1 X-33.187 Y-25.173 E8.22238
G1 X-32.767 Y-25.583 E8.23835
G1 X-30.277 Y-27.823 E8.32947
G1 X-29.567 Y-28.383 E8.35407
G1 X-27.057 Y-30.083 E8.43655
G1 X-26.267 Y-30.533 E8.46128
G1 X-25.717 Y-30.783 E8.47772
G1 X-25.509 Y-30.855 E8.48371
G1 F1800.000 E7.48371
G92 E0
G1 X-17.634 Y-8.577 F7800.000
G1 F1800.000 E1.00000
G1 X-13.076 Y-9.034 F540.000 E1.12463
G1 X-8.516 Y-8.594 E1.24926
G1 X-4.130 Y-7.272 E1.37389
G1 X-0.086 Y-5.120 E1.49852
G1 X3.520 Y-2.160 E1.62546
G1 X6.420 Y1.386 E1.75009
G1 X8.539 Y5.351 E1.87242
G1 X8.977 Y6.766 E1.91269
G1 X9.826 Y6.766 E1.93579
G1 X10.334 Y7.274 E1.95535
G1 X10.334 Y21.393 E2.33947
G1 X9.826 Y21.901 E2.35903
G1 X8.977 Y21.901 E2.38213
G1 X8.539 Y23.315 E2.42241
G1 X6.420 Y27.280 E2.54473
G1 X3.460 Y30.887 E2.67167
G1 X-0.015 Y33.739 E2.79399
G1 X-4.051 Y35.906 E2.91862
G1 X-8.433 Y37.244 E3.04325
G1 X-12.991 Y37.701 E3.16788
G1 X-17.550 Y37.260 E3.29251
G1 X-21.936 Y35.939 E3.41714
G1 X-25.980 Y33.787 E3.54177
G1 X-29.527 Y30.887 E3.66641
G1 X-32.439 Y27.351 E3.79104
G1 X-34.606 Y23.315 E3.91567
G1 X-35.944 Y18.934 E4.04030
G1 X-36.401 Y14.376 E4.16493
G1 X-35.960 Y9.816 E4.28956
G1 X-34.639 Y5.430 E4.41419
G1 X-32.487 Y1.386 E4.53882
G1 X-29.587 Y-2.160 E4.66345
G1 X-26.051 Y-5.073 E4.78809
G1 X-22.015 Y-7.239 E4.91272
G1 X-17.717 Y-8.552 E5.03499
G1 F1800.000 E4.03499
G92 E0
G1 X13.599 Y7.274 F7800.000
G1 F1800.000 E1.00000
G1 X14.107 Y6.766 F540.000 E1.01956
G1 X27.326 Y6.766 E1.37920
G1 X27.834 Y7.274 E1.39876
G1 X27.834 Y10.716 E1.49240
G1 X27.849 Y10.716 E1.49279
G1 X27.849 Y8.974 E1.54017
G1 X28.357 Y8.466 E1.55973
G1 X29.627 Y8.466 E1.59429
G1 X29.928 Y8.581 E1.60304
G1 X32.684 Y11.062 E1.70394
G1 X32.834 Y11.399 E1.71398
G1 X32.834 Y17.268 E1.87366
G1 X32.684 Y17.605 E1.88370
G1 X29.928 Y20.086 E1.98460
G1 X29.627 Y20.201 E1.99335
G1 X28.357 Y20.201 E2.02791
G1 X27.849 Y19.693 E2.04747
G1 X27.849 Y17.951 E2.09485
G1 X27.834 Y17.951 E2.09524
G1 X27.834 Y21.393 E2.18888
G1 X27.326 Y21.901 E2.20844
G1 X14.107 Y21.901 E2.56808
G1 X13.599 Y21.393 E2.58764
G1 X13.599 Y7.361 E2.96941
G1 F1800.000 E1.96941
G92 E0
G1 X14.892 Y1.758 F7800.000
G1 F1800.000 E1.00000
G1 X13.182 Y1.531 F540.000 E1.04692
G1 X11.499 Y1.156 E1.09384
G1 X9.890 Y0.649 E1.13973
G1 X8.262 Y-0.026 E1.18768
G1 X6.766 Y-0.804 E1.23356
G1 X5.979 Y-1.303 E1.25890
G1 X5.766 Y-1.693 E1.27100
G1 X5.766 Y-10.366 E1.50694
G1 X-23.726 Y-10.366 E2.30931
G1 X-24.234 Y-10.874 E2.32887
G1 X-24.234 Y-14.316 E2.42251
G1 X-24.249 Y-14.316 E2.42290
G1 X-24.249 Y-12.574 E2.47028
G1 X-24.757 Y-12.066 E2.48984
G1 X-26.027 Y-12.066 E2.52440
G1 X-26.328 Y-12.181 E2.53315
G1 X-29.084 Y-14.662 E2.63405
G1 X-29.234 Y-14.999 E2.64409
G1 X-29.234 Y-20.868 E2.80377
G1 X-29.084 Y-21.205 E2.81381
G1 X-26.328 Y-23.686 E2.91471
G1 X-26.027 Y-23.801 E2.92346
G1 X-24.757 Y-23.801 E2.95802
G1 X-24.249 Y-23.293 E2.97758
G1 X-24.249 Y-21.551 E3.02496
G1 X-24.234 Y-21.551 E3.02535
G1 X-24.234 Y-24.993 E3.11899
G1 X-23.726 Y-25.501 E3.13855
G1 X5.766 Y-25.501 E3.94092
G1 X5.766 Y-34.173 E4.17685
G1 X5.979 Y-34.563 E4.18896
G1 X6.766 Y-35.062 E4.21429
G1 X8.262 Y-35.841 E4.26018
G1 X9.855 Y-36.503 E4.30710
G1 X11.535 Y-37.032 E4.35505
G1 X13.220 Y-37.404 E4.40199
G1 X14.954 Y-37.629 E4.44957
G1 X16.652 Y-37.701 E4.49580
G1 X18.337 Y-37.628 E4.54169
G1 X20.047 Y-37.404 E4.58861
G1 X21.731 Y-37.032 E4.63553
G1 X23.377 Y-36.515 E4.68245
G1 X24.970 Y-35.857 E4.72937
G1 X26.501 Y-35.062 E4.77628
G1 X27.956 Y-34.137 E4.82321
G1 X29.344 Y-33.071 E4.87081
G1 X30.598 Y-31.925 E4.91704
G1 X31.764 Y-30.654 E4.96395
G1 X32.815 Y-29.287 E5.01087
G1 X33.743 Y-27.834 E5.05779
G1 X34.541 Y-26.305 E5.10471
G1 X35.203 Y-24.712 E5.15163
G1 X35.723 Y-23.068 E5.19855
G1 X36.098 Y-21.385 E5.24546
G1 X36.328 Y-19.637 E5.29341
G1 X36.401 Y-17.914 E5.34033
G1 X36.324 Y-16.192 E5.38725
G1 X36.098 Y-14.482 E5.43417
G1 X35.723 Y-12.799 E5.48109
G1 X35.203 Y-11.155 E5.52800
G1 X34.541 Y-9.562 E5.57492
G1 X33.743 Y-8.033 E5.62184
G1 X32.837 Y-6.610 E5.66773
G1 X31.788 Y-5.241 E5.71465
G1 X30.625 Y-3.969 E5.76157
G1 X29.354 Y-2.803 E5.80848
G1 X27.987 Y-1.751 E5.85540
G1 X26.534 Y-0.823 E5.90232
G1 X25.005 Y-0.026 E5.94924
G1 X23.412 Y0.636 E5.99616
G1 X21.768 Y1.156 E6.04308
G1 X20.085 Y1.531 E6.08999
G1 X18.375 Y1.758 E6.13692
G1 X16.652 Y1.834 E6.18383
G1 X14.978 Y1.763 E6.22942
G1 F1800.000 E5.22942
G92 E0
G1 X9.586 Y7.344 F7800.000
G1 F1800.000 E1.00000
G1 X9.756 Y7.514 F540.000 E1.00652
G1 X9.756 Y21.153 E1.37761
G1 X9.586 Y21.323 E1.38413
G1 X8.548 Y21.323 E1.41238
G1 X8.016 Y23.068 E1.46201
G1 X5.923 Y26.983 E1.58279
G1 X3.091 Y30.438 E1.70434
G1 X-0.361 Y33.274 E1.82588
G1 X-4.325 Y35.393 E1.94819
G1 X-8.601 Y36.688 E2.06974
G1 X-13.048 Y37.123 E2.19129
G1 X-17.493 Y36.682 E2.31283
G1 X-21.768 Y35.382 E2.43438
G1 X-25.706 Y33.274 E2.55592
G1 X-29.158 Y30.438 E2.67747
G1 X-31.990 Y26.983 E2.79901
G1 X-34.093 Y23.041 E2.92056
G1 X-35.388 Y18.765 E3.04210
G1 X-35.823 Y14.319 E3.16365
G1 X-35.382 Y9.873 E3.28519
G1 X-34.082 Y5.599 E3.40674
G1 X-31.974 Y1.661 E3.52828
G1 X-29.138 Y-1.791 E3.64983
G1 X-25.683 Y-4.623 E3.77137
G1 X-21.741 Y-6.727 E3.89292
G1 X-17.465 Y-8.021 E4.01446
G1 X-13.019 Y-8.456 E4.13601
G1 X-8.573 Y-8.015 E4.25755
G1 X-4.299 Y-6.716 E4.37910
G1 X-0.361 Y-4.607 E4.50064
G1 X3.091 Y-1.771 E4.62219
G1 X5.923 Y1.684 E4.74374
G1 X8.016 Y5.599 E4.86451
G1 X8.548 Y7.344 E4.91414
G1 X9.500 Y7.344 E4.94004
G1 F1800.000 E3.94004
G92 E0
G1 X14.177 Y7.514 F7800.000
G1 F1800.000 E1.00000
G1 X14.347 Y7.344 F540.000 E1.00652
G1 X27.086 Y7.344 E1.35312
G1 X27.256 Y7.514 E1.35964
G1 X27.256 Y11.294 E1.46250
G1 X28.427 Y11.294 E1.49437
G1 X28.427 Y9.214 E1.55097
G1 X28.597 Y9.044 E1.55749
G1 X29.520 Y9.044 E1.58262
G1 X29.620 Y9.082 E1.58553
G1 X32.206 Y11.409 E1.68017
G1 X32.256 Y11.522 E1.68352
G1 X32.256 Y17.145 E1.83650
G1 X32.206 Y17.257 E1.83985
G1 X29.620 Y19.584 E1.93449
G1 X29.520 Y19.623 E1.93740
G1 X28.597 Y19.623 E1.96253
G1 X28.427 Y19.453 E1.96905
G1 X28.427 Y17.373 E2.02565
G1 X27.256 Y17.373 E2.05752
G1 X27.256 Y21.153 E2.16038
G1 X27.086 Y21.323 E2.16690
G1 X14.347 Y21.323 E2.51350
G1 X14.177 Y21.153 E2.52002
G1 X14.177 Y7.600 E2.88875
G1 F1800.000 E1.88875
G92 E0
G1 X14.955 Y1.182 F7800.000
G1 F1800.000 E1.00000
G1 X13.295 Y0.963 F540.000 E1.04555
G1 X11.661 Y0.600 E1.09109
G1 X10.076 Y0.101 E1.13629
G1 X8.518 Y-0.545 E1.18218
G1 X7.044 Y-1.312 E1.22738
G1 X6.415 Y-1.712 E1.24766
G1 X6.344 Y-1.842 E1.25169
G1 X6.344 Y-10.944 E1.49934
G1 X-23.486 Y-10.944 E2.31093
G1 X-23.656 Y-11.114 E2.31745
G1 X-23.656 Y-14.894 E2.42030
G1 X-24.827 Y-14.894 E2.45217
G1 X-24.827 Y-12.814 E2.50878
G1 X-24.997 Y-12.644 E2.51530
G1 X-25.920 Y-12.644 E2.54042
G1 X-26.020 Y-12.682 E2.54334
G1 X-28.606 Y-15.009 E2.63798
G1 X-28.656 Y-15.122 E2.64132
G1 X-28.656 Y-20.745 E2.79431
G1 X-28.606 Y-20.857 E2.79765
G1 X-26.020 Y-23.184 E2.89229
G1 X-25.920 Y-23.223 E2.89521
G1 X-24.997 Y-23.223 E2.92033
G1 X-24.827 Y-23.053 E2.92685
G1 X-24.827 Y-20.973 E2.98345
G1 X-23.656 Y-20.973 E3.01533
G1 X-23.656 Y-24.753 E3.11818
G1 X-23.486 Y-24.923 E3.12470
G1 X6.344 Y-24.923 E3.93629
G1 X6.344 Y-34.025 E4.18394
G1 X6.415 Y-34.155 E4.18797
G1 X7.044 Y-34.555 E4.20824
G1 X8.518 Y-35.322 E4.25345
G1 X10.064 Y-35.963 E4.29899
G1 X11.661 Y-36.467 E4.34454
G1 X13.308 Y-36.832 E4.39043
G1 X14.980 Y-37.050 E4.43631
G1 X16.627 Y-37.123 E4.48117
G1 X18.312 Y-37.049 E4.52706
G1 X19.972 Y-36.830 E4.57260
G1 X21.606 Y-36.467 E4.61815
G1 X23.191 Y-35.968 E4.66335
G1 X24.749 Y-35.322 E4.70924
G1 X26.233 Y-34.549 E4.75478
G1 X27.635 Y-33.656 E4.79999
G1 X28.982 Y-32.620 E4.84621
G1 X30.207 Y-31.498 E4.89142
G1 X31.329 Y-30.273 E4.93662
G1 X32.349 Y-28.945 E4.98217
G1 X33.249 Y-27.533 E5.02771
G1 X34.022 Y-26.049 E5.07326
G1 X34.663 Y-24.502 E5.11880
G1 X35.167 Y-22.906 E5.16435
G1 X35.530 Y-21.272 E5.20989
G1 X35.749 Y-19.612 E5.25544
G1 X35.823 Y-17.940 E5.30098
G1 X35.750 Y-16.267 E5.34653
G1 X35.532 Y-14.607 E5.39207
G1 X35.170 Y-12.973 E5.43762
G1 X34.668 Y-11.376 E5.48316
G1 X34.027 Y-9.829 E5.52871
G1 X33.255 Y-8.344 E5.57425
G1 X32.356 Y-6.932 E5.61980
G1 X31.337 Y-5.604 E5.66534
G1 X30.207 Y-4.369 E5.71089
G1 X28.973 Y-3.238 E5.75643
G1 X27.645 Y-2.218 E5.80198
G1 X26.233 Y-1.318 E5.84752
G1 X24.749 Y-0.545 E5.89307
G1 X23.202 Y0.097 E5.93861
G1 X21.606 Y0.600 E5.98416
G1 X19.972 Y0.963 E6.02970
G1 X18.312 Y1.182 E6.07525
G1 X16.640 Y1.256 E6.12080
G1 X15.041 Y1.187 E6.16432
G1 F1800.000 E5.16432
G92 E0
G1 X14.756 Y7.923 F7800.000
G1 F1800.000 E1.00000
G1 X26.677 Y7.923 F540.000 E1.32434
G1 X26.677 Y11.873 E1.43181
G1 X29.006 Y11.873 E1.49516
G1 X29.006 Y9.623 E1.55638
G1 X29.356 Y9.623 E1.56589
G1 X31.677 Y11.712 E1.65087
G1 X31.677 Y16.954 E1.79350
G1 X29.356 Y19.044 E1.87848
G1 X29.006 Y19.044 E1.88800
G1 X29.006 Y16.794 E1.94921
G1 X26.677 Y16.794 E2.01256
G1 X26.677 Y20.744 E2.12003
G1 X14.756 Y20.744 E2.44437
G1 X14.756 Y8.009 E2.79084
G1 X15.257 Y8.212 F7800.000
G1 X15.334 Y20.166
G1 X15.334 Y8.501 F540.000 E3.10819
G1 X26.099 Y8.501 E3.40105
G1 X26.099 Y12.451 E3.50852
G1 X29.584 Y12.451 E3.60335
G1 X29.584 Y10.607 E3.65352
G1 X31.099 Y11.970 E3.70896
G1 X31.099 Y16.697 E3.83756
G1 X29.584 Y18.060 E3.89299
G1 X29.584 Y16.216 E3.94317
G1 X26.099 Y16.216 E4.03800
G1 X26.099 Y20.166 E4.14547
G1 X15.421 Y20.166 E4.43597
G1 F1800.000 E3.43597
G92 E0
G1 X9.177 Y20.744 F7800.000
G1 F1800.000 E1.00000
G1 X8.119 Y20.744 F540.000 E1.02880
G1 X7.485 Y22.832 E1.08817
G1 X5.433 Y26.672 E1.20662
G1 X2.671 Y30.038 E1.32508
G1 X-0.695 Y32.800 E1.44353
G1 X-4.534 Y34.852 E1.56198
G1 X-8.701 Y36.116 E1.68043
G1 X-13.033 Y36.543 E1.79889
G1 X-17.366 Y36.116 E1.91734
G1 X-21.532 Y34.852 E2.03579
G1 X-25.372 Y32.800 E2.15424
G1 X-28.738 Y30.038 E2.27269
G1 X-31.500 Y26.672 E2.39115
G1 X-33.552 Y22.832 E2.50960
G1 X-34.816 Y18.666 E2.62805
G1 X-35.243 Y14.333 E2.74650
G1 X-34.816 Y10.001 E2.86495
G1 X-33.552 Y5.834 E2.98341
G1 X-31.500 Y1.995 E3.10186
G1 X-28.738 Y-1.371 E3.22031
G1 X-25.372 Y-4.133 E3.33876
G1 X-21.532 Y-6.185 E3.45721
G1 X-17.366 Y-7.449 E3.57567
G1 X-13.033 Y-7.876 E3.69412
G1 X-8.701 Y-7.449 E3.81257
G1 X-4.534 Y-6.185 E3.93102
G1 X-0.695 Y-4.133 E4.04947
G1 X2.671 Y-1.371 E4.16793
G1 X5.433 Y1.995 E4.28638
G1 X7.485 Y5.834 E4.40483
G1 X8.119 Y7.923 E4.46421
G1 X9.177 Y7.923 E4.49300
G1 X9.177 Y20.657 E4.83947
G1 X8.676 Y20.455 F7800.000
G1 F1800.000 E3.83947
G92 E0
G1 X-34.246 Y18.553 F7800.000
G1 F1800.000 E1.00000
G1 X-34.661 Y14.333 F540.000 E1.11535
G1 X-34.246 Y10.114 E1.23070
G1 X-33.015 Y6.057 E1.34605
G1 X-31.016 Y2.317 E1.46140
G1 X-28.327 Y-0.960 E1.57676
G1 X-25.049 Y-3.650 E1.69211
G1 X-21.310 Y-5.648 E1.80746
G1 X-17.253 Y-6.879 E1.92281
G1 X-13.033 Y-7.295 E2.03816
G1 X-8.814 Y-6.879 E2.15351
G1 X-4.757 Y-5.648 E2.26887
G1 X-1.017 Y-3.650 E2.38422
G1 X2.260 Y-0.960 E2.49957
G1 X4.950 Y2.317 E2.61492
G1 X6.948 Y6.057 E2.73027
G1 X7.690 Y8.501 E2.79977
G1 X8.599 Y8.501 E2.82450
G1 X8.599 Y20.166 E3.14185
G1 X7.690 Y20.166 E3.16658
G1 X6.948 Y22.610 E3.23608
G1 X4.950 Y26.349 E3.35143
G1 X2.260 Y29.627 E3.46678
G1 X-1.018 Y32.316 E3.58214
G1 X-4.757 Y34.315 E3.69749
G1 X-8.814 Y35.546 E3.81284
G1 X-13.033 Y35.961 E3.92819
G1 X-17.253 Y35.546 E4.04354
G1 X-21.310 Y34.315 E4.15889
G1 X-25.049 Y32.316 E4.27424
G1 X-28.327 Y29.627 E4.38960
G1 X-31.016 Y26.349 E4.50495
G1 X-33.015 Y22.610 E4.62030
G1 X-34.221 Y18.636 E4.73329
G1 X-30.482 Y17.804 F7800.000
G1 X-30.824 Y14.333 F540.000 E4.82818
G1 X-30.482 Y10.863 E4.92306
G1 X-29.470 Y7.525 E5.01795
G1 X-27.826 Y4.449 E5.11283
G1 X-25.613 Y1.753 E5.20772
G1 X-22.917 Y-0.459 E5.30260
G1 X-19.842 Y-2.103 E5.39749
G1 X-16.504 Y-3.115 E5.49237
G1 X-13.033 Y-3.457 E5.58726
G1 X-9.563 Y-3.115 E5.68214
G1 X-6.225 Y-2.103 E5.77703
G1 X-3.149 Y-0.459 E5.87191
G1 X-0.453 Y1.753 E5.96680
G1 X1.759 Y4.449 E6.06168
G1 X3.403 Y7.525 E6.15657
G1 X4.415 Y10.863 E6.25146
G1 X4.757 Y14.333 E6.34634
G1 X4.415 Y17.804 E6.44123
G1 X3.403 Y21.142 E6.53611
G1 X1.759 Y24.217 E6.63100
G1 X-0.453 Y26.913 E6.72588
G1 X-3.149 Y29.126 E6.82077
G1 X-6.225 Y30.770 E6.91565
G1 X-9.563 Y31.782 E7.01054
G1 X-13.033 Y32.124 E7.10542
G1 X-16.504 Y31.782 E7.20031
G1 X-19.842 Y30.770 E7.29519
G1 X-22.917 Y29.126 E7.39008
G1 X-25.613 Y26.913 E7.48496
G1 X-27.826 Y24.217 E7.57985
G1 X-29.470 Y21.142 E7.67474
G1 X-30.457 Y17.887 E7.76726
G1 X-31.024 Y17.600 F7800.000
G1 X-31.052 Y17.918
G1 X-31.405 Y14.333 F540.000 E7.86525
G1 X-31.052 Y10.749 E7.96323
G1 X-30.007 Y7.303 E8.06122
G1 X-28.309 Y4.126 E8.15920
G1 X-26.024 Y1.342 E8.25719
G1 X-23.240 Y-0.942 E8.35517
G1 X-20.064 Y-2.640 E8.45316
G1 X-16.618 Y-3.686 E8.55115
