; generated by Slic3r 0.9.9 on 2013-07-19 at 19:14:21

; layer_height = 0.3
; perimeters = 2
; top_solid_layers = 3
; bottom_solid_layers = 3
; fill_density = 0.3
; perimeter_speed = 30
; infill_speed = 60
; travel_speed = 130
; nozzle_diameter = 0.5
; filament_diameter = 2.85
; extrusion_multiplier = 1
; perimeters extrusion width = 0.70mm
; infill extrusion width = 0.70mm
; solid infill extrusion width = 0.70mm
; top infill extrusion width = 0.70mm
; first layer extrusion width = 0.60mm

G21 ; set units to millimeters
M107
M104 S0
M83
M140 S70
G28
G1Y98F9000
M190 S70
G1X5Y98Z150F9000
M104 S210
G1X5Y98Z1F9000
G1Z0.05
M109 S210
G1Z5
G1X15
;G1E5F50
G90 ; use absolute coordinates
G92 E0
M82 ; use absolute distances for extrusion
G1 F1800.000 E-1.00000
G92 E0
G1 Z0.300 F7800.000
G1 X25.540 Y8.030
G1 F1800.000 E1.00000
G1 X25.920 Y9.750 F540.000 E1.04792
G1 X26.010 Y10.280 E1.06255
G1 X26.240 Y11.990 E1.10949
G1 X26.290 Y12.600 E1.12614
G1 X26.360 Y14.320 E1.17298
G1 X26.360 Y14.860 E1.18767
G1 X26.290 Y16.590 E1.23478
G1 X26.240 Y17.200 E1.25143
G1 X26.010 Y18.910 E1.29837
G1 X25.920 Y19.440 E1.31300
G1 X25.550 Y21.130 E1.36006
G1 X25.390 Y21.700 E1.37617
G1 X24.870 Y23.350 E1.42324
G1 X24.680 Y23.890 E1.43881
G1 X24.020 Y25.480 E1.48565
G1 X23.780 Y25.990 E1.50099
G1 X22.980 Y27.530 E1.54820
G1 X22.680 Y28.050 E1.56453
G1 X21.750 Y29.500 E1.61140
G1 X21.430 Y29.950 E1.62642
G1 X20.380 Y31.320 E1.67338
G1 X20.030 Y31.740 E1.68826
G1 X18.870 Y33.020 E1.73525
G1 X18.420 Y33.470 E1.75257
G1 X17.140 Y34.630 E1.79957
G1 X16.720 Y34.980 E1.81444
G1 X15.350 Y36.030 E1.86140
G1 X14.880 Y36.360 E1.87703
G1 X13.420 Y37.290 E1.92412
G1 X12.940 Y37.570 E1.93924
G1 X11.410 Y38.370 E1.98621
G1 X10.880 Y38.620 E2.00216
G1 X9.290 Y39.280 E2.04899
G1 X8.750 Y39.470 E2.06457
G1 X7.100 Y39.990 E2.11164
G1 X6.530 Y40.150 E2.12774
G1 X4.840 Y40.520 E2.17481
G1 X4.280 Y40.610 E2.19024
G1 X2.510 Y40.840 E2.23880
G1 X1.940 Y40.890 E2.25437
G1 X0.270 Y40.960 E2.29985
G1 X-0.280 Y40.960 E2.31481
G1 X-2.000 Y40.890 E2.36164
G1 X-2.610 Y40.840 E2.37830
G1 X-4.320 Y40.610 E2.42524
G1 X-4.850 Y40.520 E2.43986
G1 X-6.540 Y40.150 E2.48693
G1 X-7.110 Y39.990 E2.50304
G1 X-8.760 Y39.470 E2.55011
G1 X-9.300 Y39.280 E2.56568
G1 X-10.890 Y38.620 E2.61252
G1 X-11.400 Y38.380 E2.62785
G1 X-12.940 Y37.580 E2.67507
G1 X-13.460 Y37.280 E2.69140
G1 X-14.910 Y36.350 E2.73827
G1 X-15.360 Y36.030 E2.75329
G1 X-16.730 Y34.980 E2.80025
G1 X-17.150 Y34.630 E2.81513
G1 X-18.430 Y33.470 E2.86212
G1 X-18.880 Y33.020 E2.87944
G1 X-20.040 Y31.740 E2.92643
G1 X-20.390 Y31.320 E2.94131
G1 X-21.440 Y29.950 E2.98827
G1 X-21.770 Y29.480 E3.00389
G1 X-22.700 Y28.020 E3.05099
G1 X-22.980 Y27.540 E3.06611
G1 X-23.780 Y26.010 E3.11308
G1 X-24.030 Y25.480 E3.12903
G1 X-24.690 Y23.890 E3.17586
G1 X-24.880 Y23.350 E3.19144
G1 X-25.400 Y21.700 E3.23850
G1 X-25.560 Y21.130 E3.25461
G1 X-25.930 Y19.440 E3.30168
G1 X-26.020 Y18.910 E3.31631
G1 X-26.250 Y17.200 E3.36325
G1 X-26.300 Y16.590 E3.37990
G1 X-26.370 Y14.860 E3.42701
G1 X-26.370 Y14.320 E3.44170
G1 X-26.300 Y12.600 E3.48853
G1 X-26.250 Y11.990 E3.50518
G1 X-26.020 Y10.280 E3.55213
G1 X-25.930 Y9.750 E3.56675
G1 X-16.420 Y-32.580 E4.74712
G1 X-16.180 Y-33.390 E4.77010
G1 X-15.850 Y-34.160 E4.79289
G1 X-15.570 Y-34.640 E4.80801
G1 X-15.250 Y-35.100 E4.82326
G1 X-14.900 Y-35.530 E4.83834
G1 X-14.510 Y-35.930 E4.85354
G1 X-13.840 Y-36.490 E4.87730
G1 X-13.310 Y-36.870 E4.89504
G1 X-12.060 Y-37.670 E4.93542
G1 X-11.520 Y-37.980 E4.95236
G1 X-10.200 Y-38.660 E4.99275
G1 X-9.720 Y-38.880 E5.00712
G1 X-8.350 Y-39.450 E5.04749
G1 X-7.810 Y-39.650 E5.06316
G1 X-6.390 Y-40.100 E5.10368
G1 X-5.830 Y-40.250 E5.11946
G1 X-4.390 Y-40.570 E5.15959
G1 X-3.800 Y-40.670 E5.17587
G1 X-2.330 Y-40.860 E5.21620
G1 X-1.760 Y-40.910 E5.23176
G1 X-0.280 Y-40.970 E5.27206
G1 X0.250 Y-40.970 E5.28648
G1 X1.740 Y-40.910 E5.32705
G1 X2.320 Y-40.860 E5.34289
G1 X3.790 Y-40.670 E5.38322
G1 X4.380 Y-40.570 E5.39950
G1 X5.820 Y-40.250 E5.43963
G1 X6.380 Y-40.100 E5.45541
G1 X7.800 Y-39.650 E5.49593
G1 X8.340 Y-39.450 E5.51160
G1 X9.710 Y-38.880 E5.55197
G1 X10.210 Y-38.650 E5.56694
G1 X11.520 Y-37.970 E5.60710
G1 X12.020 Y-37.680 E5.62283
G1 X13.280 Y-36.880 E5.66343
G1 X13.730 Y-36.570 E5.67830
G1 X14.210 Y-36.200 E5.69479
G1 X14.830 Y-35.600 E5.71826
G1 X15.200 Y-35.170 E5.73369
G1 X15.540 Y-34.700 E5.74948
G1 X15.690 Y-34.450 E5.75741
G1 X16.070 Y-33.680 E5.78077
G1 X16.270 Y-33.140 E5.79644
G1 X16.420 Y-32.580 E5.81221
G1 X25.521 Y7.945 E6.94223
G1 F1800.000 E5.94223
G92 E0
G1 X19.968 Y9.268 F7800.000
G1 F1800.000 E1.00000
G1 X20.357 Y11.030 F540.000 E1.04907
G1 X20.591 Y12.818 E1.09813
G1 X20.668 Y14.619 E1.14718
G1 X20.588 Y16.420 E1.19624
G1 X20.357 Y18.170 E1.24426
G1 X19.968 Y19.931 E1.29332
G1 X19.428 Y21.651 E1.34237
G1 X18.739 Y23.317 E1.39142
G1 X17.908 Y24.918 E1.44048
G1 X16.941 Y26.439 E1.48953
G1 X15.845 Y27.871 E1.53859
G1 X14.628 Y29.201 E1.58764
G1 X13.300 Y30.420 E1.63670
G1 X11.870 Y31.519 E1.68575
G1 X10.350 Y32.489 E1.73481
G1 X8.752 Y33.323 E1.78386
G1 X7.051 Y34.028 E1.83395
G1 X5.331 Y34.568 E1.88300
G1 X3.568 Y34.957 E1.93211
G1 X1.753 Y35.191 E1.98189
G1 X-0.019 Y35.268 E2.03016
G1 X-1.820 Y35.188 E2.07921
G1 X-3.608 Y34.951 E2.12827
G1 X-5.331 Y34.568 E2.17629
G1 X-7.051 Y34.028 E2.22535
G1 X-8.717 Y33.339 E2.27440
G1 X-10.318 Y32.508 E2.32346
G1 X-11.839 Y31.541 E2.37251
G1 X-13.271 Y30.445 E2.42156
G1 X-14.601 Y29.228 E2.47062
G1 X-15.820 Y27.900 E2.51967
G1 X-16.919 Y26.470 E2.56873
G1 X-17.889 Y24.950 E2.61778
G1 X-18.723 Y23.352 E2.66684
G1 X-19.415 Y21.687 E2.71589
G1 X-19.968 Y19.931 E2.76597
G1 X-20.357 Y18.170 E2.81503
G1 X-20.591 Y16.382 E2.86408
G1 X-20.668 Y14.581 E2.91314
G1 X-20.588 Y12.780 E2.96219
G1 X-20.351 Y10.992 E3.01125
G1 X-19.968 Y9.269 E3.05927
G1 X-19.428 Y7.549 E3.10833
G1 X-18.723 Y5.848 E3.15841
G1 X-17.889 Y4.250 E3.20747
G1 X-16.941 Y2.761 E3.25549
G1 X-15.845 Y1.329 E3.30454
G1 X-14.628 Y-0.001 E3.35360
G1 X-13.271 Y-1.245 E3.40368
G1 X-11.870 Y-2.319 E3.45171
G1 X-10.670 Y-3.086 E3.49045
G1 X-10.868 Y-3.463 E3.50205
G1 X-10.868 Y-31.337 E4.26039
G1 X-10.689 Y-31.700 E4.27140
G1 X-10.264 Y-32.026 E4.28597
G1 X-8.918 Y-32.883 E4.32941
G1 X-7.534 Y-33.602 E4.37182
G1 X-6.093 Y-34.197 E4.41423
G1 X-4.606 Y-34.664 E4.45663
G1 X-3.084 Y-35.000 E4.49904
G1 X-1.538 Y-35.201 E4.54145
G1 X0.019 Y-35.268 E4.58386
G1 X1.538 Y-35.201 E4.62524
G1 X3.084 Y-35.000 E4.66765
G1 X4.606 Y-34.664 E4.71006
G1 X6.093 Y-34.197 E4.75246
G1 X7.534 Y-33.602 E4.79488
G1 X8.917 Y-32.883 E4.83728
G1 X10.233 Y-32.047 E4.87969
G1 X10.689 Y-31.700 E4.89529
G1 X10.868 Y-31.337 E4.90630
G1 X10.868 Y-3.463 E5.66464
G1 X10.670 Y-3.086 E5.67624
G1 X11.870 Y-2.319 E5.71498
G1 X13.271 Y-1.245 E5.76301
G1 X14.601 Y-0.028 E5.81206
G1 X15.820 Y1.300 E5.86112
G1 X16.919 Y2.730 E5.91017
G1 X17.889 Y4.250 E5.95923
G1 X18.723 Y5.848 E6.00828
G1 X19.402 Y7.487 E6.05655
G1 X19.944 Y9.185 E6.10503
G1 X19.403 Y9.394 F7800.000
G1 X19.783 Y11.105 F540.000 E6.15273
G1 X20.012 Y12.843 E6.20041
G1 X20.089 Y14.594 E6.24810
G1 X20.013 Y16.345 E6.29578
G1 X19.785 Y18.082 E6.34346
G1 X19.406 Y19.793 E6.39114
G1 X18.880 Y21.465 E6.43882
G1 X18.210 Y23.084 E6.48650
G1 X17.401 Y24.639 E6.53418
G1 X16.460 Y26.118 E6.58187
G1 X15.393 Y27.508 E6.62955
G1 X14.210 Y28.801 E6.67723
G1 X12.918 Y29.985 E6.72491
G1 X11.528 Y31.053 E6.77259
G1 X10.050 Y31.995 E6.82027
G1 X8.496 Y32.804 E6.86795
G1 X6.865 Y33.480 E6.91598
G1 X5.193 Y34.006 E6.96366
G1 X3.482 Y34.385 E7.01136
G1 X1.692 Y34.615 E7.06045
G1 X-0.006 Y34.689 E7.10670
G1 X-1.757 Y34.612 E7.15438
G1 X-3.482 Y34.385 E7.20172
G1 X-5.193 Y34.006 E7.24940
G1 X-6.865 Y33.480 E7.29708
G1 X-8.484 Y32.810 E7.34476
G1 X-10.039 Y32.001 E7.39244
G1 X-11.518 Y31.060 E7.44012
G1 X-12.908 Y29.993 E7.48780
G1 X-14.201 Y28.810 E7.53549
G1 X-15.385 Y27.518 E7.58317
G1 X-16.453 Y26.128 E7.63085
G1 X-17.395 Y24.650 E7.67853
G1 X-18.210 Y23.084 E7.72656
G1 X-18.880 Y21.465 E7.77424
G1 X-19.406 Y19.793 E7.82192
G1 X-19.785 Y18.082 E7.86960
G1 X-20.013 Y16.345 E7.91728
G1 X-20.089 Y14.594 E7.96496
G1 X-20.012 Y12.843 E8.01264
G1 X-19.783 Y11.105 E8.06032
G1 X-19.406 Y9.407 E8.10766
G1 X-18.876 Y7.723 E8.15569
G1 X-18.210 Y6.116 E8.20302
G1 X-17.401 Y4.561 E8.25071
G1 X-16.460 Y3.082 E8.29839
G1 X-15.385 Y1.682 E8.34641
G1 X-14.201 Y0.390 E8.39409
G1 X-12.918 Y-0.785 E8.44143
G1 X-11.518 Y-1.860 E8.48946
G1 X-10.050 Y-2.795 E8.53679
G1 X-9.595 Y-3.032 E8.55076
G1 X-9.922 Y-3.241 E8.56131
G1 X-10.230 Y-3.477 E8.57187
G1 X-10.289 Y-3.598 E8.57554
G1 X-10.289 Y-31.202 E9.32654
G1 X-10.230 Y-31.323 E9.33021
G1 X-9.922 Y-31.559 E9.34076
G1 X-8.639 Y-32.376 E9.38214
G1 X-7.301 Y-33.072 E9.42318
G1 X-5.907 Y-33.649 E9.46421
G1 X-4.469 Y-34.102 E9.50525
G1 X-2.996 Y-34.428 E9.54628
G1 X-1.501 Y-34.624 E9.58732
G1 X0.006 Y-34.689 E9.62835
G1 X1.501 Y-34.624 E9.66905
G1 X2.996 Y-34.428 E9.71008
G1 X4.469 Y-34.102 E9.75112
G1 X5.907 Y-33.649 E9.79215
G1 X7.301 Y-33.072 E9.83319
G1 X8.639 Y-32.376 E9.87423
G1 X9.912 Y-31.566 E9.91526
G1 X10.230 Y-31.323 E9.92616
G1 X10.289 Y-31.202 E9.92983
G1 X10.289 Y-3.598 E10.68083
G1 X10.230 Y-3.477 E10.68450
G1 X9.922 Y-3.241 E10.69505
G1 X9.595 Y-3.032 E10.70561
G1 X10.050 Y-2.795 E10.71957
G1 X11.518 Y-1.860 E10.76691
G1 X12.908 Y-0.793 E10.81459
G1 X14.210 Y0.399 E10.86262
G1 X15.393 Y1.692 E10.91030
G1 X16.460 Y3.082 E10.95798
G1 X17.401 Y4.561 E11.00566
G1 X18.210 Y6.116 E11.05334
G1 X18.855 Y7.675 E11.09924
G1 X19.377 Y9.311 E11.14597
G1 X18.830 Y9.501 F7800.000
G1 X19.214 Y11.212 F540.000 E11.19370
G1 X19.436 Y12.900 E11.24000
G1 X19.510 Y14.600 E11.28631
G1 X19.436 Y16.300 E11.33262
G1 X19.214 Y17.988 E11.37893
G1 X18.846 Y19.650 E11.42523
G1 X18.334 Y21.273 E11.47154
G1 X17.682 Y22.845 E11.51785
G1 X16.897 Y24.355 E11.56416
G1 X15.982 Y25.791 E11.61046
G1 X14.946 Y27.141 E11.65677
G1 X13.796 Y28.396 E11.70308
G1 X12.541 Y29.546 E11.74939
G1 X11.191 Y30.582 E11.79569
G1 X9.755 Y31.497 E11.84200
G1 X8.245 Y32.282 E11.88831
G1 X6.673 Y32.934 E11.93462
G1 X5.050 Y33.446 E11.98092
G1 X3.388 Y33.814 E12.02723
G1 X1.700 Y34.036 E12.07354
G1 X-0.000 Y34.110 E12.11985
G1 X-1.700 Y34.036 E12.16615
G1 X-3.388 Y33.814 E12.21246
G1 X-5.050 Y33.446 E12.25877
G1 X-6.673 Y32.934 E12.30508
G1 X-8.245 Y32.282 E12.35138
G1 X-9.755 Y31.497 E12.39769
G1 X-11.191 Y30.582 E12.44400
G1 X-12.541 Y29.546 E12.49031
G1 X-13.796 Y28.396 E12.53661
G1 X-14.946 Y27.141 E12.58292
G1 X-15.982 Y25.791 E12.62923
G1 X-16.897 Y24.355 E12.67554
G1 X-17.682 Y22.845 E12.72185
G1 X-18.334 Y21.273 E12.76815
G1 X-18.846 Y19.650 E12.81446
G1 X-19.214 Y17.988 E12.86077
G1 X-19.436 Y16.300 E12.90707
G1 X-19.510 Y14.600 E12.95338
G1 X-19.436 Y12.900 E12.99969
G1 X-19.214 Y11.212 E13.04600
G1 X-18.846 Y9.550 E13.09231
G1 X-18.334 Y7.927 E13.13861
G1 X-17.682 Y6.355 E13.18492
G1 X-16.921 Y4.891 E13.22981
G1 X-15.982 Y3.409 E13.27753
G1 X-14.946 Y2.059 E13.32384
G1 X-13.796 Y0.804 E13.37015
G1 X-12.541 Y-0.346 E13.41645
G1 X-11.191 Y-1.382 E13.46276
G1 X-9.755 Y-2.297 E13.50907
G1 X-8.439 Y-2.982 E13.54944
G1 X-9.711 Y-3.808 E13.59070
G1 X-9.711 Y-30.992 E14.33027
G1 X-9.585 Y-31.088 E14.33459
G1 X-8.355 Y-31.872 E14.37426
G1 X-7.062 Y-32.545 E14.41392
G1 X-5.715 Y-33.103 E14.45358
G1 X-4.325 Y-33.541 E14.49324
G1 X-2.902 Y-33.857 E14.53290
G1 X-1.456 Y-34.047 E14.57257
G1 X-0.000 Y-34.110 E14.61223
G1 X1.456 Y-34.047 E14.65189
G1 X2.902 Y-33.857 E14.69155
G1 X4.325 Y-33.541 E14.73121
G1 X5.715 Y-33.103 E14.77087
G1 X7.062 Y-32.545 E14.81054
G1 X8.355 Y-31.872 E14.85020
G1 X9.711 Y-30.992 E14.89417
G1 X9.711 Y-3.808 E15.63374
G1 X8.439 Y-2.982 E15.67500
G1 X9.755 Y-2.297 E15.71537
G1 X11.191 Y-1.382 E15.76168
G1 X12.541 Y-0.346 E15.80799
G1 X13.796 Y0.804 E15.85429
G1 X14.946 Y2.059 E15.90060
G1 X15.982 Y3.409 E15.94691
G1 X16.897 Y4.845 E15.99322
G1 X17.682 Y6.355 E16.03953
G1 X18.334 Y7.927 E16.08583
G1 X18.804 Y9.418 E16.12836
G1 X18.416 Y9.904 F7800.000
G1 F1800.000 E15.12836
G92 E0
G1 X9.132 Y-30.691 F7800.000
G1 F1800.000 E1.00000
G1 X9.132 Y-4.109 F540.000 E1.72319
G1 X7.283 Y-2.931 E1.78284
G1 X9.466 Y-1.795 E1.84979
G1 X10.859 Y-0.908 E1.89472
G1 X12.169 Y0.098 E1.93966
G1 X13.386 Y1.214 E1.98459
G1 X14.502 Y2.431 E2.02952
G1 X15.508 Y3.741 E2.07445
G1 X16.395 Y5.134 E2.11939
G1 X17.158 Y6.599 E2.16432
G1 X17.790 Y8.125 E2.20925
G1 X18.286 Y9.700 E2.25419
G1 X18.644 Y11.313 E2.29912
G1 X18.859 Y12.950 E2.34405
G1 X18.931 Y14.600 E2.38899
G1 X18.859 Y16.250 E2.43392
G1 X18.644 Y17.887 E2.47885
G1 X18.286 Y19.500 E2.52379
G1 X17.790 Y21.075 E2.56872
G1 X17.158 Y22.601 E2.61365
G1 X16.395 Y24.066 E2.65859
G1 X15.508 Y25.459 E2.70352
G1 X14.502 Y26.769 E2.74845
G1 X13.386 Y27.986 E2.79338
G1 X12.169 Y29.102 E2.83832
G1 X10.859 Y30.108 E2.88325
G1 X9.466 Y30.995 E2.92818
G1 X7.976 Y31.768 E2.97385
G1 X6.475 Y32.390 E3.01805
G1 X4.900 Y32.886 E3.06298
G1 X3.287 Y33.244 E3.10791
G1 X1.650 Y33.459 E3.15285
G1 X-0.000 Y33.531 E3.19778
G1 X-1.650 Y33.459 E3.24271
G1 X-3.287 Y33.244 E3.28764
G1 X-4.900 Y32.886 E3.33258
G1 X-6.475 Y32.390 E3.37751
G1 X-8.001 Y31.758 E3.42245
G1 X-9.466 Y30.995 E3.46738
G1 X-10.859 Y30.108 E3.51231
G1 X-12.169 Y29.102 E3.55724
G1 X-13.386 Y27.986 E3.60218
G1 X-14.502 Y26.769 E3.64711
G1 X-15.508 Y25.459 E3.69204
G1 X-16.395 Y24.066 E3.73698
G1 X-17.158 Y22.601 E3.78191
G1 X-17.790 Y21.075 E3.82684
G1 X-18.286 Y19.500 E3.87178
G1 X-18.644 Y17.887 E3.91671
G1 X-18.859 Y16.250 E3.96164
G1 X-18.931 Y14.600 E4.00658
G1 X-18.859 Y12.950 E4.05151
G1 X-18.644 Y11.313 E4.09644
G1 X-18.286 Y9.700 E4.14137
G1 X-17.790 Y8.125 E4.18631
G1 X-17.158 Y6.599 E4.23124
G1 X-16.395 Y5.134 E4.27617
G1 X-15.508 Y3.741 E4.32111
G1 X-14.502 Y2.431 E4.36604
G1 X-13.386 Y1.214 E4.41097
G1 X-12.169 Y0.098 E4.45591
G1 X-10.859 Y-0.908 E4.50084
G1 X-9.466 Y-1.795 E4.54577
G1 X-7.283 Y-2.931 E4.61272
G1 X-9.132 Y-4.109 E4.67237
G1 X-9.132 Y-30.691 E5.39556
G1 X-8.066 Y-31.370 E5.42996
G1 X-6.817 Y-32.020 E5.46825
G1 X-5.517 Y-32.559 E5.50654
G1 X-4.175 Y-32.982 E5.54483
G1 X-2.801 Y-33.286 E5.58312
G1 X-1.406 Y-33.470 E5.62140
G1 X-0.000 Y-33.531 E5.65969
G1 X1.406 Y-33.470 E5.69798
G1 X2.801 Y-33.286 E5.73626
G1 X4.175 Y-32.982 E5.77455
G1 X5.517 Y-32.559 E5.81284
G1 X6.817 Y-32.020 E5.85113
G1 X8.066 Y-31.370 E5.88941
G1 X9.059 Y-30.737 E5.92146
G1 X3.002 Y-2.427 F7800.000
G1 X4.475 Y-2.100 F540.000 E5.96249
G1 X5.913 Y-1.647 E6.00353
G1 X7.307 Y-1.070 E6.04457
G1 X8.645 Y-0.373 E6.08560
G1 X9.917 Y0.437 E6.12664
G1 X11.114 Y1.355 E6.16767
G1 X12.226 Y2.374 E6.20871
G1 X13.245 Y3.486 E6.24975
G1 X14.163 Y4.683 E6.29078
G1 X14.973 Y5.955 E6.33182
G1 X15.670 Y7.293 E6.37286
G1 X16.247 Y8.687 E6.41389
G1 X16.700 Y10.125 E6.45493
G1 X17.012 Y11.531 E6.49411
G1 X17.224 Y13.093 E6.53699
G1 X17.290 Y14.600 E6.57803
G1 X17.224 Y16.107 E6.61906
G1 X17.027 Y17.602 E6.66010
G1 X16.700 Y19.075 E6.70114
G1 X16.247 Y20.513 E6.74217
G1 X15.670 Y21.907 E6.78321
G1 X14.973 Y23.245 E6.82425
G1 X14.163 Y24.517 E6.86528
G1 X13.245 Y25.714 E6.90632
G1 X12.226 Y26.826 E6.94736
G1 X11.114 Y27.845 E6.98839
G1 X9.917 Y28.763 E7.02943
G1 X8.645 Y29.573 E7.07046
G1 X7.307 Y30.270 E7.11150
G1 X5.913 Y30.847 E7.15254
G1 X4.475 Y31.300 E7.19357
G1 X3.002 Y31.627 E7.23461
G1 X1.507 Y31.824 E7.27565
G1 X-0.000 Y31.890 E7.31668
G1 X-1.507 Y31.824 E7.35772
G1 X-3.002 Y31.627 E7.39876
G1 X-4.475 Y31.300 E7.43979
G1 X-5.913 Y30.847 E7.48083
G1 X-7.307 Y30.270 E7.52186
G1 X-8.645 Y29.573 E7.56290
G1 X-9.917 Y28.763 E7.60394
G1 X-11.114 Y27.845 E7.64497
G1 X-12.226 Y26.826 E7.68601
G1 X-13.245 Y25.714 E7.72705
G1 X-14.163 Y24.517 E7.76808
G1 X-14.973 Y23.245 E7.80912
G1 X-15.670 Y21.907 E7.85015
G1 X-16.247 Y20.513 E7.89119
G1 X-16.700 Y19.075 E7.93223
G1 X-17.027 Y17.602 E7.97326
G1 X-17.224 Y16.107 E8.01430
G1 X-17.290 Y14.600 E8.05534
G1 X-17.224 Y13.093 E8.09637
G1 X-17.027 Y11.598 E8.13741
G1 X-16.700 Y10.125 E8.17844
G1 X-16.247 Y8.687 E8.21948
G1 X-15.670 Y7.293 E8.26052
G1 X-14.973 Y5.955 E8.30155
G1 X-14.199 Y4.741 E8.34073
G1 X-13.245 Y3.486 E8.38362
G1 X-12.226 Y2.374 E8.42465
G1 X-11.114 Y1.355 E8.46569
G1 X-9.917 Y0.437 E8.50673
