; generated by Slic3r 0.9.9 on 2013-07-19 at 20:41:28

; layer_height = 0.3
; perimeters = 2
; top_solid_layers = 3
; bottom_solid_layers = 3
; fill_density = 0.3
; perimeter_speed = 30
; infill_speed = 60
; travel_speed = 130
; nozzle_diameter = 0.5
; filament_diameter = 2.85
; extrusion_multiplier = 1
; perimeters extrusion width = 0.70mm
; infill extrusion width = 0.70mm
; solid infill extrusion width = 0.70mm
; top infill extrusion width = 0.70mm
; first layer extrusion width = 0.60mm

G21 ; set units to millimeters
M107
M104 S0
M83
M140 S70
G28
G1Y98F9000
M190 S70
G1X5Y98Z150F9000
M104 S210
G1X5Y98Z1F9000
G1Z0.05
M109 S210
G1Z5
G1X15
;G1E5F50
G90 ; use absolute coordinates
G92 E0
M82 ; use absolute distances for extrusion
G1 F1800.000 E-1.00000
G92 E0
G1 Z0.300 F7800.000
G1 X-51.055 Y4.588
G1 F1800.000 E1.00000
G1 X-52.285 Y3.258 F540.000 E1.04929
G1 X-52.665 Y2.798 E1.06552
G1 X-53.715 Y1.428 E1.11248
G1 X-54.045 Y0.958 E1.12811
G1 X-54.975 Y-0.502 E1.17520
G1 X-55.255 Y-0.982 E1.19032
G1 X-56.055 Y-2.512 E1.23729
G1 X-56.305 Y-3.052 E1.25348
G1 X-56.965 Y-4.652 E1.30057
G1 X-57.155 Y-5.182 E1.31589
G1 X-57.675 Y-6.832 E1.36296
G1 X-57.825 Y-7.402 E1.37899
G1 X-58.195 Y-9.082 E1.42580
G1 X-58.295 Y-9.622 E1.44074
G1 X-58.525 Y-11.342 E1.48795
G1 X-58.575 Y-11.942 E1.50433
G1 X-58.645 Y-13.662 E1.55116
G1 X-58.645 Y-14.202 E1.56585
G1 X-58.575 Y-15.932 E1.61296
G1 X-58.525 Y-16.542 E1.62961
G1 X-58.295 Y-18.252 E1.67655
G1 X-58.205 Y-18.782 E1.69118
G1 X-57.835 Y-20.472 E1.73825
G1 X-57.675 Y-21.052 E1.75462
G1 X-57.155 Y-22.692 E1.80143
G1 X-56.965 Y-23.212 E1.81649
G1 X-56.305 Y-24.812 E1.86358
G1 X-56.055 Y-25.352 E1.87977
G1 X-55.255 Y-26.882 E1.92674
G1 X-54.975 Y-27.362 E1.94186
G1 X-54.045 Y-28.822 E1.98895
G1 X-53.715 Y-29.292 E2.00458
G1 X-52.665 Y-30.662 E2.05154
G1 X-52.285 Y-31.122 E2.06777
G1 X-51.115 Y-32.392 E2.11475
G1 X-50.735 Y-32.772 E2.12937
G1 X-49.465 Y-33.942 E2.17635
G1 X-49.005 Y-34.322 E2.19259
G1 X-47.635 Y-35.372 E2.23955
G1 X-47.165 Y-35.702 E2.25517
G1 X-10.525 Y-58.902 E3.43505
G1 X-9.775 Y-59.312 E3.45831
G1 X-8.975 Y-59.622 E3.48165
G1 X-8.155 Y-59.822 E3.50461
G1 X-7.585 Y-59.892 E3.52024
G1 X-7.015 Y-59.922 E3.53577
G1 X-6.455 Y-59.902 E3.55101
G1 X-6.165 Y-59.872 E3.55894
G1 X35.435 Y-54.542 E4.69999
G1 X36.325 Y-54.392 E4.72455
G1 X37.775 Y-54.072 E4.76495
G1 X38.355 Y-53.922 E4.78125
G1 X39.765 Y-53.472 E4.82151
G1 X40.295 Y-53.272 E4.83693
G1 X41.665 Y-52.702 E4.87730
G1 X42.145 Y-52.482 E4.89166
G1 X43.465 Y-51.802 E4.93206
G1 X44.005 Y-51.492 E4.94900
G1 X45.255 Y-50.692 E4.98938
G1 X45.715 Y-50.362 E5.00478
G1 X47.305 Y-49.122 E5.05964
G1 X48.405 Y-48.122 E5.10008
G1 X48.845 Y-47.682 E5.11701
G1 X49.845 Y-46.582 E5.15746
G1 X51.085 Y-44.992 E5.21232
G1 X51.415 Y-44.532 E5.22772
G1 X52.215 Y-43.282 E5.26810
G1 X52.515 Y-42.762 E5.28443
G1 X53.175 Y-41.492 E5.32337
G1 X53.415 Y-40.982 E5.33870
G1 X54.005 Y-39.562 E5.38054
G1 X54.195 Y-39.042 E5.39560
G1 X54.645 Y-37.632 E5.43587
G1 X54.795 Y-37.052 E5.45217
G1 X55.115 Y-35.602 E5.49257
G1 X55.215 Y-35.022 E5.50858
G1 X55.295 Y-34.392 E5.52586
G1 X58.625 Y7.748 E6.67592
G1 X58.645 Y8.318 E6.69144
G1 X58.585 Y9.158 E6.71435
G1 X58.485 Y9.708 E6.72956
G1 X58.335 Y10.258 E6.74507
G1 X58.145 Y10.788 E6.76039
G1 X58.025 Y11.048 E6.76818
G1 X57.905 Y11.298 E6.77572
G1 X57.625 Y11.788 E6.79108
G1 X35.365 Y46.958 E7.92349
G1 X34.415 Y48.438 E7.97133
G1 X34.095 Y48.888 E7.98636
G1 X33.045 Y50.258 E8.03332
G1 X32.685 Y50.698 E8.04878
G1 X31.515 Y51.978 E8.09596
G1 X31.095 Y52.398 E8.11212
G1 X29.825 Y53.558 E8.15892
G1 X29.385 Y53.918 E8.17439
G1 X28.015 Y54.968 E8.22135
G1 X27.545 Y55.298 E8.23697
G1 X26.085 Y56.228 E8.28407
G1 X25.605 Y56.508 E8.29919
G1 X24.075 Y57.308 E8.34616
G1 X23.535 Y57.558 E8.36235
G1 X21.935 Y58.218 E8.40944
G1 X21.415 Y58.408 E8.42450
G1 X19.775 Y58.928 E8.47131
G1 X19.195 Y59.088 E8.48768
G1 X17.505 Y59.458 E8.53475
G1 X15.155 Y59.778 E8.59927
G1 X14.635 Y59.828 E8.61349
G1 X12.975 Y59.908 E8.65870
G1 X12.345 Y59.908 E8.67584
G1 X10.625 Y59.828 E8.72269
G1 X10.065 Y59.778 E8.73798
G1 X8.345 Y59.548 E8.78520
G1 X7.805 Y59.448 E8.80014
G1 X6.125 Y59.078 E8.84694
G1 X5.555 Y58.928 E8.86297
G1 X3.905 Y58.408 E8.91004
G1 X3.345 Y58.208 E8.92622
G1 X1.695 Y57.518 E8.97488
G1 X1.195 Y57.288 E8.98985
G1 X-0.285 Y56.518 E9.03524
G1 X-0.775 Y56.228 E9.05073
G1 X-2.235 Y55.298 E9.09783
G1 X-2.705 Y54.968 E9.11345
G1 X-4.075 Y53.918 E9.16041
G1 X-4.515 Y53.558 E9.17588
G1 X-5.785 Y52.398 E9.22268
G1 X-6.125 Y52.058 E9.23576
G1 X-50.995 Y4.651 E11.01166
G1 F1800.000 E10.01166
G92 E0
G1 X28.915 Y-30.407 F7800.000
G1 F1800.000 E1.00000
G1 X28.915 Y-32.037 F540.000 E1.04434
G1 X29.729 Y-33.449 E1.08868
G1 X31.141 Y-34.263 E1.13302
G1 X32.771 Y-34.263 E1.17736
G1 X34.182 Y-33.449 E1.22170
G1 X34.997 Y-32.037 E1.26604
G1 X34.997 Y-30.407 E1.31038
G1 X34.182 Y-28.996 E1.35472
G1 X32.771 Y-28.181 E1.39906
G1 X31.141 Y-28.181 E1.44340
G1 X29.729 Y-28.996 E1.48774
G1 X28.958 Y-30.332 E1.52972
G1 X29.493 Y-30.562 F7800.000
G1 X29.493 Y-31.882 F540.000 E1.56562
G1 X30.153 Y-33.025 E1.60153
G1 X31.296 Y-33.685 E1.63743
G1 X32.616 Y-33.685 E1.67334
G1 X33.758 Y-33.025 E1.70924
G1 X34.418 Y-31.882 E1.74515
G1 X34.418 Y-30.562 E1.78105
G1 X33.758 Y-29.420 E1.81696
G1 X32.616 Y-28.760 E1.85286
G1 X31.296 Y-28.760 E1.88877
G1 X30.153 Y-29.420 E1.92467
G1 X29.536 Y-30.487 E1.95821
G1 X28.949 Y-30.760 F7800.000
G1 X20.814 Y-22.283
G1 X21.963 Y-21.230 F540.000 E2.00062
G1 X23.016 Y-20.081 E2.04304
G1 X23.965 Y-18.844 E2.08545
G1 X24.803 Y-17.529 E2.12786
G1 X25.523 Y-16.147 E2.17027
G1 X26.119 Y-14.706 E2.21268
G1 X26.588 Y-13.220 E2.25509
G1 X26.925 Y-11.698 E2.29750
G1 X27.129 Y-10.152 E2.33991
G1 X27.197 Y-8.595 E2.38232
G1 X27.129 Y-7.038 E2.42473
G1 X26.925 Y-5.492 E2.46714
G1 X26.588 Y-3.970 E2.50955
G1 X26.147 Y-2.573 E2.54942
G1 X25.523 Y-1.043 E2.59437
G1 X24.803 Y0.339 E2.63678
G1 X23.965 Y1.654 E2.67919
G1 X23.016 Y2.891 E2.72160
G1 X21.963 Y4.040 E2.76401
G1 X20.814 Y5.093 E2.80642
G1 X19.498 Y6.092 E2.85136
G1 X18.263 Y6.880 E2.89123
G1 X16.880 Y7.600 E2.93364
G1 X15.440 Y8.196 E2.97605
G1 X13.953 Y8.665 E3.01846
G1 X12.431 Y9.002 E3.06087
G1 X10.886 Y9.206 E3.10328
G1 X9.328 Y9.274 E3.14570
G1 X7.771 Y9.206 E3.18811
G1 X6.225 Y9.002 E3.23052
G1 X4.704 Y8.665 E3.27293
G1 X3.217 Y8.196 E3.31534
G1 X1.777 Y7.600 E3.35775
G1 X0.394 Y6.880 E3.40016
G1 X-0.921 Y6.042 E3.44257
G1 X-2.158 Y5.093 E3.48498
G1 X-3.307 Y4.040 E3.52739
G1 X-4.417 Y2.817 E3.57234
G1 X-5.309 Y1.654 E3.61221
G1 X-6.146 Y0.339 E3.65461
G1 X-6.866 Y-1.043 E3.69703
G1 X-7.463 Y-2.484 E3.73944
G1 X-7.932 Y-3.970 E3.78185
G1 X-8.269 Y-5.492 E3.82426
G1 X-8.472 Y-7.038 E3.86667
G1 X-8.540 Y-8.595 E3.90908
G1 X-8.472 Y-10.152 E3.95149
G1 X-8.269 Y-11.698 E3.99390
G1 X-7.932 Y-13.220 E4.03631
G1 X-7.463 Y-14.706 E4.07872
G1 X-6.866 Y-16.147 E4.12113
G1 X-6.146 Y-17.529 E4.16354
G1 X-5.309 Y-18.844 E4.20595
G1 X-4.865 Y-19.423 E4.22580
G1 X-4.963 Y-19.423 E4.22847
G1 X-3.307 Y-21.230 E4.29516
G1 X-2.158 Y-22.283 E4.33757
G1 X-0.921 Y-23.232 E4.37998
G1 X0.394 Y-24.070 E4.42239
G1 X1.777 Y-24.789 E4.46480
G1 X3.217 Y-25.386 E4.50721
G1 X4.704 Y-25.855 E4.54962
G1 X6.225 Y-26.192 E4.59203
G1 X7.771 Y-26.396 E4.63445
G1 X9.328 Y-26.464 E4.67686
G1 X10.886 Y-26.396 E4.71927
G1 X12.431 Y-26.192 E4.76168
G1 X13.953 Y-25.855 E4.80409
G1 X15.440 Y-25.386 E4.84650
G1 X16.880 Y-24.789 E4.88891
G1 X18.263 Y-24.070 E4.93132
G1 X19.577 Y-23.232 E4.97373
G1 X20.745 Y-22.336 E5.01378
G1 X20.394 Y-21.876 F7800.000
G1 X21.554 Y-20.820 F540.000 E5.05645
G1 X22.573 Y-19.708 E5.09748
G1 X23.491 Y-18.512 E5.13852
G1 X24.301 Y-17.240 E5.17956
G1 X24.998 Y-15.902 E5.22059
G1 X25.575 Y-14.508 E5.26163
G1 X26.029 Y-13.070 E5.30267
G1 X26.355 Y-11.597 E5.34370
G1 X26.552 Y-10.102 E5.38474
G1 X26.618 Y-8.595 E5.42577
G1 X26.552 Y-7.088 E5.46681
G1 X26.355 Y-5.593 E5.50785
G1 X26.029 Y-4.120 E5.54888
G1 X25.596 Y-2.747 E5.58806
G1 X24.998 Y-1.288 E5.63095
G1 X24.301 Y0.050 E5.67199
G1 X23.491 Y1.322 E5.71302
G1 X22.573 Y2.519 E5.75406
G1 X21.554 Y3.631 E5.79509
G1 X20.442 Y4.650 E5.83613
G1 X19.188 Y5.604 E5.87902
G1 X17.973 Y6.378 E5.91820
G1 X16.635 Y7.075 E5.95923
G1 X15.242 Y7.652 E6.00027
G1 X13.803 Y8.105 E6.04130
G1 X12.331 Y8.432 E6.08234
G1 X10.835 Y8.629 E6.12338
G1 X9.328 Y8.695 E6.16441
G1 X7.821 Y8.629 E6.20545
G1 X6.326 Y8.432 E6.24649
G1 X4.853 Y8.105 E6.28752
G1 X3.415 Y7.652 E6.32856
G1 X2.021 Y7.075 E6.36960
G1 X0.683 Y6.378 E6.41063
G1 X-0.589 Y5.568 E6.45167
G1 X-1.785 Y4.650 E6.49270
G1 X-2.897 Y3.631 E6.53374
G1 X-3.958 Y2.464 E6.57663
G1 X-4.835 Y1.322 E6.61581
G1 X-5.645 Y0.050 E6.65684
G1 X-6.341 Y-1.288 E6.69788
G1 X-6.919 Y-2.682 E6.73892
G1 X-7.372 Y-4.120 E6.77995
G1 X-7.699 Y-5.593 E6.82099
G1 X-7.896 Y-7.088 E6.86202
G1 X-7.961 Y-8.595 E6.90306
G1 X-7.896 Y-10.102 E6.94410
G1 X-7.699 Y-11.597 E6.98513
G1 X-7.372 Y-13.070 E7.02617
G1 X-6.919 Y-14.508 E7.06720
G1 X-6.341 Y-15.902 E7.10824
G1 X-5.645 Y-17.240 E7.14928
G1 X-4.834 Y-18.512 E7.19031
G1 X-3.916 Y-19.708 E7.23135
G1 X-2.897 Y-20.820 E7.27239
G1 X-1.785 Y-21.839 E7.31342
G1 X-0.589 Y-22.758 E7.35446
G1 X0.683 Y-23.568 E7.39549
G1 X2.021 Y-24.265 E7.43653
G1 X3.415 Y-24.842 E7.47757
G1 X4.853 Y-25.295 E7.51860
G1 X6.326 Y-25.622 E7.55964
G1 X7.821 Y-25.819 E7.60068
G1 X9.328 Y-25.884 E7.64171
G1 X10.835 Y-25.819 E7.68275
G1 X12.331 Y-25.622 E7.72379
G1 X13.803 Y-25.295 E7.76482
G1 X15.242 Y-24.842 E7.80586
G1 X16.635 Y-24.265 E7.84689
G1 X17.973 Y-23.568 E7.88793
G1 X19.245 Y-22.758 E7.92897
G1 X20.325 Y-21.929 E7.96600
G1 X20.940 Y-22.067 F7800.000
G1 F1800.000 E6.96600
G92 E0
G1 X-1.530 Y-24.103 F7800.000
G1 F1800.000 E1.00000
G1 X-0.137 Y-24.990 F540.000 E1.04493
G1 X1.328 Y-25.753 E1.08987
G1 X2.853 Y-26.385 E1.13480
G1 X4.428 Y-26.881 E1.17973
G1 X6.041 Y-27.239 E1.22467
G1 X7.678 Y-27.454 E1.26960
G1 X9.328 Y-27.526 E1.31453
G1 X10.978 Y-27.454 E1.35947
G1 X12.616 Y-27.239 E1.40440
G1 X14.228 Y-26.881 E1.44933
G1 X16.575 Y-26.141 E1.51628
G1 X16.100 Y-28.282 E1.57593
G1 X34.896 Y-47.078 E2.29912
G1 X36.131 Y-46.804 E2.33353
G1 X37.473 Y-46.381 E2.37181
G1 X38.773 Y-45.842 E2.41010
G1 X40.021 Y-45.192 E2.44839
G1 X41.208 Y-44.436 E2.48668
G1 X42.311 Y-43.590 E2.52448
G1 X43.362 Y-42.629 E2.56325
G1 X44.313 Y-41.591 E2.60154
G1 X45.170 Y-40.475 E2.63982
G1 X45.926 Y-39.288 E2.67811
G1 X46.576 Y-38.040 E2.71640
G1 X47.114 Y-36.740 E2.75468
G1 X47.537 Y-35.397 E2.79297
G1 X47.811 Y-34.163 E2.82738
G1 X29.015 Y-15.367 E3.55057
G1 X26.875 Y-15.842 E3.61022
G1 X27.615 Y-13.495 E3.67716
G1 X27.972 Y-11.882 E3.72210
G1 X28.188 Y-10.245 E3.76703
G1 X28.260 Y-8.595 E3.81196
G1 X28.188 Y-6.945 E3.85690
G1 X27.972 Y-5.308 E3.90183
G1 X27.615 Y-3.695 E3.94676
G1 X27.126 Y-2.146 E3.99097
G1 X26.486 Y-0.594 E4.03663
G1 X25.723 Y0.871 E4.08156
G1 X24.836 Y2.264 E4.12649
G1 X23.831 Y3.574 E4.17143
G1 X22.715 Y4.792 E4.21636
G1 X21.497 Y5.907 E4.26129
G1 X20.187 Y6.913 E4.30622
G1 X18.794 Y7.800 E4.35116
G1 X17.329 Y8.563 E4.39609
G1 X15.803 Y9.195 E4.44102
G1 X14.228 Y9.691 E4.48596
G1 X12.616 Y10.049 E4.53089
G1 X10.978 Y10.264 E4.57582
G1 X9.328 Y10.336 E4.62076
G1 X7.678 Y10.264 E4.66569
G1 X6.041 Y10.049 E4.71062
G1 X4.428 Y9.691 E4.75556
G1 X2.853 Y9.195 E4.80049
G1 X1.304 Y8.550 E4.84615
G1 X-0.137 Y7.800 E4.89035
G1 X-1.530 Y6.913 E4.93529
G1 X-2.841 Y5.907 E4.98022
G1 X-4.058 Y4.792 E5.02515
G1 X-5.174 Y3.574 E5.07009
G1 X-6.179 Y2.264 E5.11502
G1 X-7.067 Y0.871 E5.15995
G1 X-7.829 Y-0.594 E5.20488
G1 X-8.461 Y-2.120 E5.24982
G1 X-8.958 Y-3.695 E5.29475
G1 X-9.316 Y-5.308 E5.33968
G1 X-9.531 Y-6.945 E5.38462
G1 X-9.603 Y-8.595 E5.42955
G1 X-9.531 Y-10.245 E5.47448
G1 X-9.316 Y-11.882 E5.51942
G1 X-8.958 Y-13.495 E5.56435
G1 X-8.461 Y-15.070 E5.60928
G1 X-7.829 Y-16.596 E5.65422
G1 X-7.067 Y-18.061 E5.69915
G1 X-6.179 Y-19.454 E5.74408
G1 X-5.174 Y-20.764 E5.78901
G1 X-4.058 Y-21.981 E5.83395
G1 X-2.841 Y-23.097 E5.87888
G1 X-1.599 Y-24.050 E5.92145
G1 X-1.904 Y-24.545 F7800.000
G1 X-0.427 Y-25.491 F540.000 E5.96917
G1 X1.083 Y-26.277 E6.01548
G1 X2.655 Y-26.929 E6.06179
G1 X4.279 Y-27.441 E6.10810
G1 X5.940 Y-27.809 E6.15440
G1 X7.628 Y-28.031 E6.20071
G1 X9.328 Y-28.105 E6.24702
G1 X11.029 Y-28.031 E6.29333
G1 X12.716 Y-27.809 E6.33963
G1 X14.378 Y-27.441 E6.38594
G1 X15.793 Y-26.994 E6.42631
G1 X15.478 Y-28.478 E6.46758
G1 X34.700 Y-47.700 E7.20715
G1 X36.281 Y-47.363 E7.25111
G1 X37.671 Y-46.925 E7.29078
G1 X39.018 Y-46.367 E7.33044
G1 X40.311 Y-45.694 E7.37010
G1 X41.540 Y-44.911 E7.40976
G1 X42.697 Y-44.023 E7.44942
G1 X43.772 Y-43.038 E7.48909
G1 X44.757 Y-41.964 E7.52875
G1 X45.644 Y-40.807 E7.56841
G1 X46.427 Y-39.578 E7.60807
G1 X47.081 Y-38.323 E7.64656
G1 X47.658 Y-36.938 E7.68739
G1 X48.097 Y-35.547 E7.72705
G1 X48.412 Y-34.124 E7.76671
G1 X48.433 Y-33.967 E7.77103
G1 X29.211 Y-14.745 E8.51061
G1 X27.728 Y-15.060 E8.55187
G1 X28.174 Y-13.645 E8.59224
G1 X28.542 Y-11.983 E8.63855
G1 X28.764 Y-10.295 E8.68486
G1 X28.839 Y-8.595 E8.73116
G1 X28.764 Y-6.894 E8.77747
G1 X28.533 Y-5.133 E8.82581
G1 X28.174 Y-3.545 E8.87009
G1 X27.662 Y-1.922 E8.91640
G1 X27.011 Y-0.349 E8.96271
G1 X26.225 Y1.160 E9.00902
G1 X25.310 Y2.596 E9.05533
G1 X24.274 Y3.946 E9.10163
G1 X23.124 Y5.201 E9.14794
G1 X21.869 Y6.351 E9.19425
G1 X20.519 Y7.387 E9.24055
G1 X19.083 Y8.302 E9.28686
G1 X17.574 Y9.088 E9.33317
G1 X16.001 Y9.739 E9.37948
G1 X14.378 Y10.251 E9.42578
G1 X12.716 Y10.619 E9.47209
G1 X11.029 Y10.841 E9.51840
G1 X9.328 Y10.916 E9.56471
G1 X7.628 Y10.841 E9.61102
G1 X5.940 Y10.619 E9.65732
G1 X4.279 Y10.251 E9.70363
G1 X2.655 Y9.739 E9.74994
G1 X1.037 Y9.063 E9.79766
G1 X-0.427 Y8.302 E9.84255
G1 X-1.863 Y7.387 E9.88886
G1 X-3.213 Y6.351 E9.93516
G1 X-4.468 Y5.201 E9.98147
G1 X-5.618 Y3.946 E10.02778
G1 X-6.654 Y2.596 E10.07408
G1 X-7.568 Y1.160 E10.12039
G1 X-8.354 Y-0.349 E10.16670
G1 X-9.006 Y-1.922 E10.21301
G1 X-9.517 Y-3.545 E10.25932
G1 X-9.886 Y-5.207 E10.30562
G1 X-10.108 Y-6.894 E10.35193
G1 X-10.182 Y-8.595 E10.39824
G1 X-10.108 Y-10.295 E10.44455
G1 X-9.886 Y-11.983 E10.49085
G1 X-9.517 Y-13.645 E10.53716
G1 X-9.006 Y-15.268 E10.58347
G1 X-8.354 Y-16.840 E10.62978
G1 X-7.568 Y-18.350 E10.67608
G1 X-6.654 Y-19.786 E10.72239
G1 X-5.618 Y-21.136 E10.76870
G1 X-4.468 Y-22.391 E10.81501
G1 X-3.213 Y-23.541 E10.86131
G1 X-1.973 Y-24.492 E10.90384
G1 X-1.383 Y-24.294 F7800.000
G1 F1800.000 E9.90384
G92 E0
G1 X17.241 Y-25.074 F7800.000
G1 F1800.000 E1.00000
G1 X17.005 Y-26.139 F1080.000 E1.03005
G1 X19.129 Y-24.015 E1.11282
G1 X24.748 Y-18.396 F7800.000
G1 X26.872 Y-16.272 F1080.000 E1.19558
G1 X25.808 Y-16.508 E1.22563
G1 X27.937 Y-16.036 F7800.000
G1 X16.769 Y-27.203 F1080.000 E1.66074
G1 X16.606 Y-28.195 E1.68842
G1 X28.928 Y-15.873 E2.16849
G1 X29.342 Y-16.287 E2.18463
G1 X17.020 Y-28.609 E2.66470
G1 X17.435 Y-29.023 E2.68084
G1 X29.756 Y-16.701 E3.16091
G1 X30.171 Y-17.116 E3.17705
G1 X17.849 Y-29.437 E3.65713
G1 X18.263 Y-29.852 E3.67327
G1 X30.585 Y-17.530 E4.15334
G1 X30.999 Y-17.944 E4.16948
G1 X18.677 Y-30.266 E4.64955
G1 X19.092 Y-30.680 E4.66569
G1 X31.413 Y-18.358 E5.14576
G1 X31.828 Y-18.773 E5.16190
G1 X19.506 Y-31.094 E5.64198
G1 X19.920 Y-31.509 E5.65812
G1 X32.242 Y-19.187 E6.13819
G1 X32.656 Y-19.601 E6.15433
G1 X20.334 Y-31.923 E6.63440
G1 X20.749 Y-32.337 E6.65054
G1 X33.070 Y-20.015 E7.13062
G1 X33.485 Y-20.430 E7.14676
G1 X21.163 Y-32.751 E7.62683
G1 X21.577 Y-33.166 E7.64297
G1 X33.899 Y-20.844 E8.12304
G1 X34.313 Y-21.258 E8.13918
G1 X21.991 Y-33.580 E8.61925
G1 X22.406 Y-33.994 E8.63539
G1 X34.727 Y-21.672 E9.11547
G1 X35.142 Y-22.087 E9.13161
G1 X22.820 Y-34.408 E9.61168
G1 X23.234 Y-34.823 E9.62782
G1 X35.556 Y-22.501 E10.10789
G1 X35.970 Y-22.915 E10.12403
G1 X31.124 Y-27.762 E10.31287
G1 X31.952 Y-27.762 E10.33569
G1 X36.384 Y-23.329 E10.50839
G1 X36.799 Y-23.744 E10.52452
G1 X32.781 Y-27.762 E10.68108
G1 X33.343 Y-28.028 E10.69822
G1 X37.213 Y-24.158 E10.84899
G1 X37.627 Y-24.572 E10.86513
G1 X33.869 Y-28.331 E11.01158
G1 X34.394 Y-28.634 E11.02829
G1 X38.041 Y-24.986 E11.17041
G1 X38.456 Y-25.401 E11.18655
G1 X34.737 Y-29.119 E11.33143
