; generated by Slic3r 0.9.9 on 2013-07-12 at 22:50:08

; layer_height = 0.3
; perimeters = 2
; top_solid_layers = 3
; bottom_solid_layers = 3
; fill_density = 0.4
; perimeter_speed = 30
; infill_speed = 60
; travel_speed = 130
; nozzle_diameter = 0.5
; filament_diameter = 2.85
; extrusion_multiplier = 1
; perimeters extrusion width = 0.70mm
; infill extrusion width = 0.70mm
; solid infill extrusion width = 0.70mm
; top infill extrusion width = 0.70mm
; first layer extrusion width = 0.60mm

G21 ; set units to millimeters
M107
M104 S0
M83
M140 S80
G28
G1Y98F9000
M190 S80
G1X5Y98Z150F9000
M104 S210
G1X5Y98Z1F9000
G1Z0.05
M109 S210
G1Z5
G1X15
;G1E5F50
G90 ; use absolute coordinates
G92 E0
M82 ; use absolute distances for extrusion
G1 F1800.000 E-1.00000
G92 E0
G1 Z0.300 F7800.000
G1 X2.530 Y24.630
G1 F1800.000 E1.00000
G1 X-29.750 Y12.880 F540.000 E1.93460
G1 X-30.350 Y12.630 E1.95229
G1 X-30.920 Y12.320 E1.96994
G1 X-33.700 Y10.450 E2.06109
G1 X-34.430 Y9.870 E2.08646
G1 X-36.920 Y7.610 E2.17795
G1 X-37.310 Y7.230 E2.19276
G1 X-37.670 Y6.810 E2.20781
G1 X-37.990 Y6.370 E2.22261
G1 X-38.140 Y6.130 E2.23031
G1 X-38.520 Y5.400 E2.25270
G1 X-38.720 Y4.890 E2.26761
G1 X-38.940 Y4.100 E2.28992
G1 X-39.060 Y3.290 E2.31220
G1 X-39.080 Y2.740 E2.32717
G1 X-39.080 Y-2.760 E2.47681
G1 X-39.060 Y-3.310 E2.49178
G1 X-38.990 Y-3.860 E2.50687
G1 X-38.800 Y-4.660 E2.52924
G1 X-38.620 Y-5.180 E2.54421
G1 X-38.390 Y-5.690 E2.55943
G1 X-38.130 Y-6.170 E2.57428
G1 X-37.820 Y-6.630 E2.58937
G1 X-37.480 Y-7.060 E2.60429
G1 X-36.900 Y-7.650 E2.62680
G1 X-34.410 Y-9.890 E2.71792
G1 X-33.700 Y-10.450 E2.74252
G1 X-31.190 Y-12.150 E2.82500
G1 X-30.920 Y-12.320 E2.83368
G1 X-30.350 Y-12.630 E2.85133
G1 X-29.750 Y-12.880 E2.86902
G1 X2.590 Y-24.660 E3.80543
G1 X2.930 Y-24.770 E3.81515
G1 X6.930 Y-25.990 E3.92893
G1 X7.440 Y-26.100 E3.94312
G1 X7.950 Y-26.170 E3.95713
G1 X11.860 Y-26.550 E4.06401
G1 X12.630 Y-26.580 E4.08497
G1 X13.140 Y-26.550 E4.09887
G1 X17.040 Y-26.170 E4.20548
G1 X17.810 Y-26.050 E4.22668
G1 X22.550 Y-24.610 E4.36146
G1 X23.250 Y-24.280 E4.38252
G1 X26.940 Y-22.310 E4.49632
G1 X27.370 Y-22.030 E4.51028
G1 X27.780 Y-21.720 E4.52427
G1 X30.810 Y-19.240 E4.63079
G1 X31.200 Y-18.890 E4.64505
G1 X31.730 Y-18.320 E4.66623
G1 X34.210 Y-15.290 E4.77276
G1 X34.520 Y-14.880 E4.78674
G1 X34.800 Y-14.450 E4.80070
G1 X37.000 Y-10.300 E4.92849
G1 X37.100 Y-10.060 E4.93557
G1 X37.260 Y-9.570 E4.94959
G1 X38.540 Y-5.320 E5.07035
G1 X38.660 Y-4.550 E5.09155
G1 X39.040 Y-0.650 E5.19816
G1 X39.070 Y-0.140 E5.21206
G1 X39.040 Y0.630 E5.23302
G1 X38.660 Y4.540 E5.33990
G1 X38.540 Y5.310 E5.36110
G1 X38.480 Y5.560 E5.36810
G1 X37.100 Y10.050 E5.49590
G1 X36.770 Y10.750 E5.51695
G1 X34.800 Y14.440 E5.63075
G1 X34.520 Y14.870 E5.64472
G1 X34.210 Y15.280 E5.65870
G1 X31.730 Y18.310 E5.76523
G1 X31.380 Y18.700 E5.77948
G1 X30.810 Y19.230 E5.80066
G1 X27.780 Y21.710 E5.90719
G1 X27.370 Y22.020 E5.92117
G1 X26.940 Y22.300 E5.93513
G1 X22.790 Y24.500 E6.06292
G1 X22.550 Y24.600 E6.07000
G1 X22.060 Y24.760 E6.08402
G1 X18.060 Y25.980 E6.19780
G1 X17.810 Y26.040 E6.20479
G1 X17.040 Y26.160 E6.22600
G1 X13.130 Y26.540 E6.33287
G1 X12.620 Y26.570 E6.34677
G1 X11.850 Y26.540 E6.36774
G1 X7.950 Y26.160 E6.47435
G1 X7.440 Y26.090 E6.48835
G1 X6.690 Y25.910 E6.50934
G1 X3.020 Y24.800 E6.61365
G1 X2.611 Y24.660 E6.62540
G1 F1800.000 E5.62540
G92 E0
G1 X4.554 Y19.296 F7800.000
G1 F1800.000 E1.00000
G1 X0.871 Y17.327 F540.000 E1.11360
G1 X-2.286 Y14.726 E1.22490
G1 X-4.875 Y11.558 E1.33620
G1 X-6.763 Y8.025 E1.44519
G1 X-6.911 Y7.568 E1.45826
G1 X-27.859 Y7.568 E2.02821
G1 X-28.368 Y7.059 E2.04777
G1 X-28.368 Y3.618 E2.14141
G1 X-28.382 Y3.618 E2.14180
G1 X-28.382 Y5.359 E2.18918
G1 X-28.891 Y5.868 E2.20874
G1 X-30.161 Y5.868 E2.24330
G1 X-30.461 Y5.753 E2.25205
G1 X-33.218 Y3.272 E2.35295
G1 X-33.368 Y2.935 E2.36299
G1 X-33.368 Y-2.935 E2.52267
G1 X-33.218 Y-3.272 E2.53271
G1 X-30.461 Y-5.753 E2.63361
G1 X-30.161 Y-5.868 E2.64236
G1 X-28.891 Y-5.868 E2.67692
G1 X-28.382 Y-5.359 E2.69648
G1 X-28.382 Y-3.618 E2.74386
G1 X-28.368 Y-3.618 E2.74425
G1 X-28.368 Y-7.059 E2.83789
G1 X-27.859 Y-7.568 E2.85745
G1 X-6.911 Y-7.568 E3.42740
G1 X-6.763 Y-8.025 E3.44047
G1 X-4.875 Y-11.558 E3.54946
G1 X-2.226 Y-14.786 E3.66306
G1 X0.871 Y-17.327 E3.77205
G1 X4.475 Y-19.263 E3.88335
G1 X8.387 Y-20.459 E3.99465
G1 X12.457 Y-20.868 E4.10595
G1 X16.529 Y-20.475 E4.21724
G1 X20.446 Y-19.296 E4.32854
G1 X24.058 Y-17.375 E4.43984
G1 X27.226 Y-14.786 E4.55113
G1 X29.827 Y-11.629 E4.66243
G1 X31.796 Y-7.946 E4.77604
G1 X32.975 Y-4.029 E4.88733
G1 X33.368 Y0.043 E4.99863
G1 X32.959 Y4.113 E5.10993
G1 X31.763 Y8.025 E5.22123
G1 X29.875 Y11.558 E5.33022
G1 X27.286 Y14.726 E5.44151
G1 X24.129 Y17.327 E5.55281
G1 X20.525 Y19.263 E5.66411
G1 X16.613 Y20.459 E5.77540
G1 X12.543 Y20.868 E5.88670
G1 X8.471 Y20.475 E5.99800
G1 X4.637 Y19.321 E6.10694
G1 X4.843 Y18.779 F7800.000
G1 X4.722 Y18.739 F540.000 E6.11038
G1 X1.240 Y16.878 E6.21782
G1 X-1.857 Y14.337 E6.32680
G1 X-4.378 Y11.260 E6.43501
G1 X-6.239 Y7.777 E6.54245
G1 X-6.481 Y6.989 E6.56489
G1 X-27.620 Y6.989 E7.13999
G1 X-27.789 Y6.820 E7.14651
G1 X-27.789 Y3.039 E7.24937
G1 X-28.961 Y3.039 E7.28124
G1 X-28.961 Y5.120 E7.33784
G1 X-29.130 Y5.289 E7.34436
G1 X-30.054 Y5.289 E7.36949
G1 X-30.154 Y5.251 E7.37240
G1 X-32.739 Y2.924 E7.46704
G1 X-32.789 Y2.812 E7.47039
G1 X-32.789 Y-2.812 E7.62337
G1 X-32.739 Y-2.924 E7.62672
G1 X-30.154 Y-5.251 E7.72136
G1 X-30.054 Y-5.289 E7.72427
G1 X-29.130 Y-5.289 E7.74940
G1 X-28.961 Y-5.120 E7.75592
G1 X-28.961 Y-3.039 E7.81252
G1 X-27.789 Y-3.039 E7.84439
G1 X-27.789 Y-6.820 E7.94725
G1 X-27.620 Y-6.989 E7.95377
G1 X-6.481 Y-6.989 E8.52887
G1 X-6.239 Y-7.778 E8.55131
G1 X-4.378 Y-11.260 E8.65875
G1 X-1.837 Y-14.357 E8.76773
G1 X1.216 Y-16.862 E8.87517
G1 X4.722 Y-18.739 E8.98338
G1 X8.528 Y-19.897 E9.09159
G1 X12.486 Y-20.289 E9.19980
G1 X16.444 Y-19.902 E9.30802
G1 X20.251 Y-18.750 E9.41623
G1 X23.760 Y-16.878 E9.52444
G1 X26.837 Y-14.357 E9.63265
G1 X29.362 Y-11.284 E9.74086
G1 X31.250 Y-7.751 E9.84984
G1 X32.402 Y-3.944 E9.95805
G1 X32.789 Y0.014 E10.06627
G1 X32.397 Y3.972 E10.17448
G1 X31.239 Y7.777 E10.28269
G1 X29.362 Y11.284 E10.39090
G1 X26.857 Y14.337 E10.49834
G1 X23.784 Y16.862 E10.60655
G1 X20.278 Y18.739 E10.71476
G1 X16.472 Y19.897 E10.82298
G1 X12.514 Y20.289 E10.93119
G1 X8.556 Y19.902 E11.03940
G1 X4.926 Y18.804 E11.14258
G1 X5.011 Y18.225 F7800.000
G1 X1.550 Y16.388 F540.000 E11.24918
G1 X-1.437 Y13.937 E11.35430
G1 X-3.888 Y10.950 E11.45942
G1 X-5.797 Y7.379 E11.56959
G1 X-5.759 Y7.379 E11.57062
G1 X-6.052 Y6.411 E11.59814
G1 X-27.211 Y6.411 E12.17378
G1 X-27.211 Y2.461 E12.28125
G1 X-29.539 Y2.461 E12.34460
G1 X-29.539 Y4.711 E12.40582
G1 X-29.889 Y4.711 E12.41533
G1 X-32.211 Y2.621 E12.50031
G1 X-32.211 Y-2.621 E12.64294
G1 X-29.889 Y-4.711 E12.72792
G1 X-29.539 Y-4.711 E12.73744
G1 X-29.539 Y-2.461 E12.79865
G1 X-27.211 Y-2.461 E12.86200
G1 X-27.211 Y-6.411 E12.96947
G1 X-6.052 Y-6.411 E13.54512
G1 X-5.709 Y-7.542 E13.57729
G1 X-3.888 Y-10.950 E13.68241
G1 X-1.437 Y-13.937 E13.78753
G1 X1.550 Y-16.388 E13.89265
G1 X4.958 Y-18.209 E13.99777
G1 X8.655 Y-19.331 E14.10289
G1 X12.500 Y-19.709 E14.20800
G1 X16.345 Y-19.331 E14.31312
G1 X20.042 Y-18.209 E14.41824
G1 X23.450 Y-16.388 E14.52336
G1 X26.437 Y-13.937 E14.62848
G1 X28.888 Y-10.950 E14.73360
G1 X30.709 Y-7.542 E14.83871
G1 X31.831 Y-3.845 E14.94383
G1 X32.209 Y-0.000 E15.04895
G1 X31.831 Y3.845 E15.15407
G1 X30.709 Y7.542 E15.25919
G1 X28.888 Y10.950 E15.36431
G1 X26.437 Y13.937 E15.46942
G1 X23.450 Y16.388 E15.57454
G1 X20.042 Y18.209 E15.67966
G1 X16.345 Y19.331 E15.78478
G1 X12.500 Y19.709 E15.88990
G1 X8.655 Y19.331 E15.99502
G1 X5.094 Y18.250 E16.09626
G1 X4.953 Y17.650 F7800.000
G1 F1800.000 E15.09626
G92 E0
G1 X26.025 Y-13.525 F7800.000
G1 F1800.000 E1.00000
G1 X28.404 Y-10.627 F540.000 E1.10202
G1 X30.172 Y-7.320 E1.20404
G1 X31.260 Y-3.732 E1.30605
G1 X31.628 Y-0.000 E1.40807
G1 X31.260 Y3.732 E1.51009
G1 X30.172 Y7.320 E1.61211
G1 X28.404 Y10.627 E1.71412
G1 X26.025 Y13.525 E1.81614
G1 X23.127 Y15.904 E1.91816
G1 X19.820 Y17.672 E2.02018
G1 X16.232 Y18.760 E2.12220
G1 X12.500 Y19.128 E2.22421
G1 X8.768 Y18.760 E2.32623
G1 X5.180 Y17.672 E2.42825
G1 X1.873 Y15.904 E2.53027
G1 X-1.025 Y13.525 E2.63229
G1 X-3.404 Y10.627 E2.73430
G1 X-5.172 Y7.320 E2.83632
G1 X-5.623 Y5.832 E2.87862
G1 X-26.632 Y5.832 E3.45020
G1 X-26.632 Y1.882 E3.55767
G1 X-30.118 Y1.882 E3.65250
G1 X-30.118 Y3.726 E3.70268
G1 X-31.632 Y2.364 E3.75811
G1 X-31.632 Y-2.364 E3.88671
G1 X-30.118 Y-3.726 E3.94214
G1 X-30.118 Y-1.882 E3.99232
G1 X-26.632 Y-1.882 E4.08715
G1 X-26.632 Y-5.832 E4.19462
G1 X-5.623 Y-5.832 E4.76620
G1 X-5.172 Y-7.320 E4.80850
G1 X-3.404 Y-10.627 E4.91052
G1 X-1.026 Y-13.525 E5.01253
G1 X1.873 Y-15.904 E5.11455
G1 X5.180 Y-17.672 E5.21657
G1 X8.768 Y-18.760 E5.31859
G1 X12.500 Y-19.128 E5.42061
G1 X16.232 Y-18.760 E5.52262
G1 X19.820 Y-17.672 E5.62464
G1 X23.127 Y-15.904 E5.72666
G1 X25.958 Y-13.581 E5.82632
G1 X25.080 Y-12.580 F7800.000
G1 X27.292 Y-9.884 F540.000 E5.92120
G1 X28.936 Y-6.808 E6.01609
G1 X29.949 Y-3.471 E6.11097
G1 X30.291 Y0.000 E6.20586
G1 X29.949 Y3.471 E6.30074
G1 X28.936 Y6.808 E6.39563
G1 X27.292 Y9.884 E6.49051
G1 X25.080 Y12.580 E6.58540
G1 X22.384 Y14.792 E6.68028
G1 X19.308 Y16.436 E6.77517
G1 X15.971 Y17.449 E6.87005
G1 X12.500 Y17.791 E6.96494
G1 X9.029 Y17.449 E7.05983
G1 X5.692 Y16.436 E7.15471
G1 X2.616 Y14.792 E7.24960
G1 X-0.080 Y12.580 E7.34448
G1 X-2.292 Y9.884 E7.43937
G1 X-3.936 Y6.808 E7.53425
G1 X-4.949 Y3.471 E7.62914
G1 X-5.291 Y0.000 E7.72402
G1 X-4.949 Y-3.471 E7.81891
G1 X-3.936 Y-6.808 E7.91379
G1 X-2.292 Y-9.884 E8.00868
G1 X-0.080 Y-12.580 E8.10356
G1 X2.616 Y-14.792 E8.19845
G1 X5.692 Y-16.436 E8.29333
G1 X9.029 Y-17.449 E8.38822
G1 X12.500 Y-17.791 E8.48311
G1 X15.971 Y-17.449 E8.57799
G1 X19.308 Y-16.436 E8.67288
G1 X22.384 Y-14.792 E8.76776
G1 X25.013 Y-12.635 E8.86029
G1 X25.643 Y-12.711 F7800.000
G1 X25.872 Y-12.527
G1 X27.776 Y-10.207 F540.000 E8.94195
G1 X29.474 Y-7.031 E9.03993
G1 X30.519 Y-3.584 E9.13792
G1 X30.872 Y0.000 E9.23590
G1 X30.519 Y3.584 E9.33389
G1 X29.474 Y7.031 E9.43187
G1 X27.776 Y10.207 E9.52986
G1 X25.491 Y12.991 E9.62785
G1 X22.707 Y15.276 E9.72583
G1 X19.531 Y16.974 E9.82382
G1 X16.084 Y18.019 E9.92180
G1 X12.500 Y18.372 E10.01979
G1 X8.916 Y18.019 E10.11778
G1 X5.469 Y16.974 E10.21576
G1 X2.293 Y15.276 E10.31375
G1 X-0.491 Y12.991 E10.41173
G1 X-2.776 Y10.207 E10.50972
G1 X-4.474 Y7.031 E10.60771
G1 X-5.519 Y3.584 E10.70569
G1 X-5.872 Y0.000 E10.80368
G1 X-5.519 Y-3.584 E10.90166
G1 X-4.474 Y-7.031 E10.99965
G1 X-2.776 Y-10.207 E11.09764
G1 X-0.491 Y-12.991 E11.19562
G1 X2.293 Y-15.276 E11.29361
G1 X5.469 Y-16.974 E11.39159
G1 X8.916 Y-18.019 E11.48958
G1 X12.500 Y-18.372 E11.58756
G1 X16.084 Y-18.019 E11.68555
G1 X19.531 Y-16.974 E11.78354
G1 X22.707 Y-15.276 E11.88152
G1 X25.491 Y-12.991 E11.97951
G1 X25.817 Y-12.594 E11.99347
G1 F1800.000 E10.99347
G92 E0
G1 X-5.402 Y-5.413 F7800.000
G1 F1800.000 E1.00000
G1 X-6.241 Y-5.413 F1080.000 E1.02336
G1 X-5.598 Y-4.770 E1.04871
G1 X-5.793 Y-4.127 E1.06744
G1 X-7.079 Y-5.413 E1.11813
G1 X-7.917 Y-5.413 E1.14149
G1 X-5.954 Y-3.450 E1.21887
G1 X-6.029 Y-2.687 E1.24023
G1 X-8.755 Y-5.413 E1.34769
G1 X-9.593 Y-5.413 E1.37104
G1 X-6.104 Y-1.924 E1.50856
G1 X-6.179 Y-1.161 E1.52993
G1 X-10.431 Y-5.413 E1.69752
G1 X-11.269 Y-5.413 E1.72088
G1 X-6.254 Y-0.398 E1.91854
G1 X-6.250 Y0.445 E1.94202
G1 X-12.107 Y-5.413 E2.17290
G1 X-12.946 Y-5.413 E2.19625
G1 X-6.158 Y1.375 E2.46377
G1 X-6.066 Y2.304 E2.48980
G1 X-13.784 Y-5.413 E2.79396
G1 X-14.622 Y-5.413 E2.81732
G1 X-5.975 Y3.234 E3.15812
G1 X-5.737 Y4.310 E3.18882
G1 X-15.460 Y-5.413 E3.57202
G1 X-16.298 Y-5.413 E3.59538
G1 X-5.472 Y5.413 E4.02205
G1 X-6.310 Y5.413 E4.04541
G1 X-17.136 Y-5.413 E4.47208
G1 X-17.974 Y-5.413 E4.49544
G1 X-7.148 Y5.413 E4.92211
G1 X-7.986 Y5.413 E4.94547
G1 X-18.812 Y-5.413 E5.37214
G1 X-19.650 Y-5.413 E5.39549
G1 X-8.825 Y5.413 E5.82216
G1 X-9.663 Y5.413 E5.84552
G1 X-20.488 Y-5.413 E6.27219
G1 X-21.326 Y-5.413 E6.29555
G1 X-10.501 Y5.413 E6.72222
G1 X-11.339 Y5.413 E6.74558
G1 X-22.165 Y-5.413 E7.17225
G1 X-23.003 Y-5.413 E7.19561
G1 X-12.177 Y5.413 E7.62228
G1 X-13.015 Y5.413 E7.64563
G1 X-23.841 Y-5.413 E8.07230
G1 X-24.679 Y-5.413 E8.09566
G1 X-13.853 Y5.413 E8.52233
G1 X-14.691 Y5.413 E8.54569
G1 X-25.517 Y-5.413 E8.97236
G1 X-26.213 Y-5.271 E8.99216
G1 X-15.529 Y5.413 E9.41322
G1 X-16.367 Y5.413 E9.43658
G1 X-26.213 Y-4.433 E9.82462
G1 X-26.213 Y-3.594 E9.84797
G1 X-17.206 Y5.413 E10.20298
G1 X-18.044 Y5.413 E10.22633
G1 X-26.213 Y-2.756 E10.54831
G1 X-26.213 Y-1.918 E10.57166
G1 X-18.882 Y5.413 E10.86060
G1 X-19.720 Y5.413 E10.88396
G1 X-26.596 Y-1.463 E11.15495
G1 X-27.434 Y-1.463 E11.17831
G1 X-20.558 Y5.413 E11.44930
G1 X-21.396 Y5.413 E11.47266
G1 X-28.272 Y-1.463 E11.74365
G1 X-29.110 Y-1.463 E11.76700
G1 X-22.234 Y5.413 E12.03800
G1 X-26.213 Y4.786 F7800.000
G1 X-25.586 Y5.413 F1080.000 E12.06268
G1 X-24.748 Y5.413 E12.08604
G1 X-26.213 Y3.948 E12.14376
G1 X-26.213 Y3.110 E12.16712
G1 X-23.910 Y5.413 E12.25787
G1 X-23.072 Y5.413 E12.28122
G1 X-26.213 Y2.272 E12.40501
G1 X-27.022 Y1.463 F7800.000
G1 X-29.948 Y-1.463 F1080.000 E12.52032
G1 X-30.786 Y-1.463 E12.54368
G1 X-27.860 Y1.463 E12.65899
G1 X-28.698 Y1.463 E12.68234
G1 X-31.213 Y-1.052 E12.78145
G1 X-31.213 Y-0.214 E12.80480
G1 X-29.536 Y1.463 E12.87087
G1 X-30.375 Y1.463 E12.89423
G1 X-31.213 Y0.625 E12.92727
G1 X-31.213 Y1.463 E12.95063
G1 X-30.882 Y2.044 F7800.000
G1 X-30.883 Y2.043 F360.000 E12.95071
G1 X-30.883 Y-2.043 F7800.000
G1 X-30.883 Y-2.043 F360.000 E12.95071
M104 S200 ; set temperature
M140 S50 ; set bed temperature
G1 F1800.000 E11.95071
G92 E0
G1 Z0.600 F7800.000
G1 X-5.329 Y0.000
G1 F1800.000 E1.00000
G1 X-4.986 Y-3.478 F1800.000 E1.10757
G1 X-3.972 Y-6.823 E1.21515
G1 X-2.324 Y-9.905 E1.32272
G1 X-0.107 Y-12.607 E1.43029
G1 X2.595 Y-14.824 E1.53787
G1 X5.677 Y-16.472 E1.64544
G1 X9.022 Y-17.486 E1.75301
G1 X12.500 Y-17.829 E1.86059
G1 X15.978 Y-17.486 E1.96816
G1 X19.323 Y-16.472 E2.07574
G1 X22.405 Y-14.824 E2.18331
G1 X25.107 Y-12.607 E2.29088
G1 X27.324 Y-9.905 E2.39845
G1 X28.972 Y-6.823 E2.50603
G1 X29.986 Y-3.478 E2.61360
G1 X30.329 Y0.000 E2.72118
G1 X29.986 Y3.478 E2.82875
G1 X28.972 Y6.823 E2.93632
G1 X27.324 Y9.905 E3.04390
G1 X25.107 Y12.607 E3.15147
G1 X22.405 Y14.824 E3.25904
G1 X19.323 Y16.472 E3.36662
G1 X15.978 Y17.486 E3.47419
G1 X12.500 Y17.829 E3.58176
G1 X9.022 Y17.486 E3.68934
G1 X5.677 Y16.472 E3.79691
G1 X2.595 Y14.824 E3.90448
G1 X-0.107 Y12.607 E4.01206
G1 X-2.324 Y9.905 E4.11963
G1 X-3.972 Y6.823 E4.22720
G1 X-4.986 Y3.478 E4.33478
G1 X-5.319 Y0.098 E4.43933
G1 X-5.885 Y-0.346 F7800.000
G1 X-4.991 Y-5.718
G1 X-5.631 Y-3.607 F1800.000 E4.50725
G1 X-5.987 Y0.000 E4.61879
G1 X-5.631 Y3.607 E4.73033
G1 X-4.991 Y5.718 E4.79825
G1 X-26.518 Y5.718 E5.46084
G1 X-26.518 Y1.768 E5.58242
G1 X-30.232 Y1.768 E5.69672
G1 X-30.232 Y3.471 E5.74911
G1 X-31.518 Y2.313 E5.80238
G1 X-31.518 Y-2.313 E5.94475
G1 X-30.232 Y-3.471 E5.99802
G1 X-30.232 Y-1.768 E6.05042
G1 X-26.518 Y-1.768 E6.16472
G1 X-26.518 Y-5.718 E6.28629
G1 X-5.089 Y-5.718 E6.94586
G1 X-6.024 Y-6.373 F7800.000
G1 X-5.674 Y-7.528 F1800.000 E6.98301
G1 X-3.856 Y-10.929 E7.10170
G1 X-1.410 Y-13.910 E7.22039
G1 X1.571 Y-16.356 E7.33908
G1 X4.972 Y-18.174 E7.45777
G1 X8.662 Y-19.293 E7.57646
G1 X12.500 Y-19.671 E7.69515
G1 X16.338 Y-19.293 E7.81384
G1 X20.028 Y-18.174 E7.93253
G1 X23.429 Y-16.356 E8.05122
G1 X26.410 Y-13.910 E8.16991
G1 X28.856 Y-10.929 E8.28860
G1 X30.674 Y-7.528 E8.40729
G1 X31.793 Y-3.838 E8.52598
G1 X32.171 Y-0.000 E8.64467
G1 X31.793 Y3.838 E8.76336
G1 X30.674 Y7.528 E8.88205
G1 X28.856 Y10.929 E9.00074
G1 X26.410 Y13.910 E9.11943
G1 X23.429 Y16.356 E9.23812
G1 X20.028 Y18.174 E9.35680
G1 X16.338 Y19.293 E9.47549
G1 X12.500 Y19.671 E9.59418
G1 X8.662 Y19.293 E9.71287
G1 X4.972 Y18.174 E9.83156
G1 X1.571 Y16.356 E9.95025
G1 X-1.410 Y13.910 E10.06894
G1 X-3.856 Y10.929 E10.18763
G1 X-5.674 Y7.528 E10.30632
G1 X-6.024 Y6.373 E10.34347
