; generated by Slic3r 0.9.9 on 2013-04-29 at 22:31:50

; layer_height = 0.3
; perimeters = 2
; top_solid_layers = 3
; bottom_solid_layers = 3
; fill_density = 0.1
; perimeter_speed = 30
; infill_speed = 60
; travel_speed = 130
; nozzle_diameter = 0.5
; filament_diameter = 2.85
; extrusion_multiplier = 1
; perimeters extrusion width = 0.70mm
; infill extrusion width = 0.70mm
; solid infill extrusion width = 0.70mm
; top infill extrusion width = 0.70mm
; first layer extrusion width = 0.60mm

G21 ; set units to millimeters
M107
M104 S0
M83
M140 S80
G28
G1Y98F9000
M190 S80
G1X5Y98Z150F9000
M104 S210
G1X5Y98Z1F9000
G1Z0.05
M109 S210
G1Z5
G1X15
;G1E5F50
G90 ; use absolute coordinates
G92 E0
M82 ; use absolute distances for extrusion
G1 F1800.000 E-1.00000
G92 E0
G1 Z0.300 F7800.000
G1 X5.990 Y21.313
G1 F1800.000 E1.00000
G1 X-24.900 Y21.243 F540.000 E1.84042
G1 X-25.430 Y21.223 E1.85485
G1 X-25.960 Y21.153 E1.86939
G1 X-26.730 Y20.983 E1.89084
G1 X-27.480 Y20.713 E1.91253
G1 X-27.960 Y20.483 E1.92701
G1 X-28.410 Y20.223 E1.94115
G1 X-29.060 Y19.753 E1.96297
G1 X-29.450 Y19.403 E1.97723
G1 X-29.820 Y19.023 E1.99166
G1 X-30.310 Y18.393 E2.01337
G1 X-30.590 Y17.943 E2.02779
G1 X-30.840 Y17.483 E2.04204
G1 X-31.130 Y16.743 E2.06366
G1 X-31.280 Y16.233 E2.07813
G1 X-31.340 Y15.973 E2.08538
G1 X-31.450 Y15.193 E2.10682
G1 X-31.470 Y14.663 E2.12125
G1 X-31.470 Y-14.737 E2.92112
G1 X-31.450 Y-15.267 E2.93555
G1 X-31.420 Y-15.527 E2.94267
G1 X-31.340 Y-16.057 E2.95725
G1 X-31.280 Y-16.307 E2.96425
G1 X-31.040 Y-17.067 E2.98593
G1 X-30.720 Y-17.797 E3.00762
G1 X-30.450 Y-18.257 E3.02213
G1 X-29.990 Y-18.897 E3.04357
G1 X-29.630 Y-19.297 E3.05821
G1 X-29.050 Y-19.837 E3.07977
G1 X-28.410 Y-20.297 E3.10122
G1 X-27.950 Y-20.567 E3.11573
G1 X-27.470 Y-20.787 E3.13009
G1 X-26.970 Y-20.977 E3.14465
G1 X-26.210 Y-21.187 E3.16610
G1 X-25.420 Y-21.297 E3.18780
G1 X-24.890 Y-21.317 E3.20223
G1 X-5.990 Y-21.317 E3.71643
G1 X24.890 Y-21.257 E4.55658
G1 X25.420 Y-21.237 E4.57101
G1 X26.210 Y-21.117 E4.59275
G1 X26.720 Y-20.997 E4.60700
G1 X27.470 Y-20.727 E4.62869
G1 X27.950 Y-20.497 E4.64317
G1 X28.400 Y-20.237 E4.65731
G1 X28.620 Y-20.087 E4.66455
G1 X29.250 Y-19.597 E4.68627
G1 X29.810 Y-19.037 E4.70781
G1 X30.300 Y-18.407 E4.72953
G1 X30.580 Y-17.967 E4.74372
G1 X30.820 Y-17.497 E4.75807
G1 X31.030 Y-17.007 E4.77258
G1 X31.200 Y-16.507 E4.78695
G1 X31.330 Y-15.987 E4.80153
G1 X31.440 Y-15.207 E4.82296
G1 X31.460 Y-14.677 E4.83739
G1 X31.460 Y14.733 E5.63754
G1 X31.440 Y15.263 E5.65197
G1 X31.410 Y15.523 E5.65909
G1 X31.330 Y16.053 E5.67367
G1 X31.270 Y16.303 E5.68067
G1 X31.120 Y16.813 E5.69513
G1 X30.930 Y17.313 E5.70968
G1 X30.710 Y17.793 E5.72405
G1 X30.580 Y18.023 E5.73124
G1 X30.140 Y18.683 E5.75282
G1 X29.980 Y18.893 E5.76000
G1 X29.620 Y19.293 E5.77464
G1 X29.040 Y19.833 E5.79620
G1 X28.400 Y20.293 E5.81764
G1 X27.940 Y20.563 E5.83215
G1 X27.460 Y20.783 E5.84652
G1 X26.960 Y20.973 E5.86107
G1 X26.200 Y21.183 E5.88252
G1 X25.670 Y21.263 E5.89711
G1 X25.410 Y21.293 E5.90423
G1 X24.880 Y21.313 E5.91866
G1 X6.077 Y21.313 E6.43023
G1 F1800.000 E5.43023
G92 E0
G1 X5.691 Y16.169 F7800.000
G1 F1800.000 E1.00000
G1 X5.182 Y15.660 F540.000 E1.01956
G1 X5.182 Y15.143 E1.03364
G1 X5.132 Y15.093 E1.03556
G1 X5.132 Y14.835 E1.04259
G1 X4.634 Y14.336 E1.06177
G1 X4.634 Y13.877 E1.07426
G1 X4.609 Y13.901 E1.07519
G1 X3.339 Y13.901 E1.10975
G1 X3.039 Y13.786 E1.11850
G1 X0.282 Y11.305 E1.21940
G1 X0.132 Y10.968 E1.22944
G1 X0.132 Y5.099 E1.38912
G1 X0.282 Y4.762 E1.39916
G1 X3.039 Y2.281 E1.50006
G1 X3.339 Y2.166 E1.50881
G1 X4.609 Y2.166 E1.54337
G1 X5.118 Y2.674 E1.56293
G1 X5.118 Y4.416 E1.61031
G1 X5.132 Y4.416 E1.61070
G1 X5.132 Y0.974 E1.70434
G1 X5.182 Y0.924 E1.70626
G1 X5.182 Y0.406 E1.72034
G1 X5.555 Y0.033 E1.73469
G1 X5.182 Y-0.340 E1.74905
G1 X5.182 Y-0.857 E1.76313
G1 X5.132 Y-0.907 E1.76505
G1 X5.132 Y-1.165 E1.77208
G1 X4.634 Y-1.664 E1.79126
G1 X4.634 Y-2.123 E1.80375
G1 X4.609 Y-2.099 E1.80468
G1 X3.339 Y-2.099 E1.83924
G1 X3.039 Y-2.214 E1.84799
G1 X0.282 Y-4.695 E1.94889
G1 X0.132 Y-5.032 E1.95893
G1 X0.132 Y-10.901 E2.11860
G1 X0.282 Y-11.238 E2.12864
G1 X3.039 Y-13.719 E2.22954
G1 X3.339 Y-13.834 E2.23829
G1 X4.609 Y-13.834 E2.27285
G1 X5.118 Y-13.326 E2.29241
G1 X5.118 Y-11.584 E2.33980
G1 X5.132 Y-11.584 E2.34019
G1 X5.132 Y-15.026 E2.43382
G1 X5.182 Y-15.076 E2.43575
G1 X5.182 Y-15.594 E2.44983
G1 X5.691 Y-16.102 E2.46939
G1 X7.009 Y-16.102 E2.50527
G1 X7.518 Y-15.594 E2.52483
G1 X7.518 Y-15.412 E2.52978
G1 X7.641 Y-15.534 E2.53450
G1 X25.249 Y-15.534 E3.01356
G1 X25.757 Y-15.026 E3.03311
G1 X25.757 Y-12.907 E3.09076
G1 X25.672 Y-12.822 E3.09404
G1 X25.672 Y-3.111 E3.35824
G1 X25.757 Y-3.026 E3.36152
G1 X25.757 Y-0.907 E3.41917
G1 X25.249 Y-0.399 E3.43872
G1 X7.650 Y-0.399 E3.91753
G1 X7.181 Y0.070 E3.93556
G1 X7.518 Y0.406 E3.94851
G1 X7.518 Y0.588 E3.95346
G1 X7.641 Y0.466 E3.95818
G1 X25.249 Y0.466 E4.43724
G1 X25.757 Y0.974 E4.45680
G1 X25.757 Y3.093 E4.51445
G1 X25.672 Y3.178 E4.51773
G1 X25.672 Y12.889 E4.78192
G1 X25.757 Y12.974 E4.78520
G1 X25.757 Y15.093 E4.84285
G1 X25.249 Y15.601 E4.86241
G1 X7.650 Y15.601 E5.34121
G1 X7.134 Y16.117 E5.36107
G1 X7.061 Y16.117 E5.36305
G1 X7.009 Y16.169 E5.36503
G1 X5.777 Y16.169 E5.39855
G1 F1800.000 E4.39855
G92 E0
G1 X-3.111 Y-2.667 F7800.000
G1 X-0.282 Y11.238
G1 F1800.000 E1.00000
G1 X-3.039 Y13.719 F540.000 E1.10090
G1 X-3.339 Y13.834 E1.10965
G1 X-4.609 Y13.834 E1.14421
G1 X-5.118 Y13.326 E1.16377
G1 X-5.118 Y11.584 E1.21115
G1 X-5.132 Y11.584 E1.21154
G1 X-5.132 Y15.026 E1.30518
G1 X-5.182 Y15.076 E1.30710
G1 X-5.182 Y15.594 E1.32118
G1 X-5.691 Y16.102 E1.34074
G1 X-7.009 Y16.102 E1.37663
G1 X-7.518 Y15.594 E1.39619
G1 X-7.518 Y15.412 E1.40113
G1 X-7.641 Y15.534 E1.40586
G1 X-25.249 Y15.534 E1.88491
G1 X-25.757 Y15.026 E1.90447
G1 X-25.757 Y12.907 E1.96212
G1 X-25.672 Y12.822 E1.96540
G1 X-25.672 Y3.111 E2.22959
G1 X-25.757 Y3.026 E2.23287
G1 X-25.757 Y0.907 E2.29052
G1 X-25.249 Y0.399 E2.31008
G1 X-7.641 Y0.399 E2.78914
G1 X-7.518 Y0.522 E2.79386
G1 X-7.518 Y0.340 E2.79881
G1 X-7.145 Y-0.033 E2.81316
G1 X-7.518 Y-0.406 E2.82751
G1 X-7.518 Y-0.588 E2.83246
G1 X-7.641 Y-0.466 E2.83718
G1 X-25.249 Y-0.466 E3.31624
G1 X-25.757 Y-0.974 E3.33580
G1 X-25.757 Y-3.093 E3.39345
G1 X-25.672 Y-3.178 E3.39673
G1 X-25.672 Y-12.889 E3.66092
G1 X-25.757 Y-12.974 E3.66420
G1 X-25.757 Y-15.093 E3.72185
G1 X-25.249 Y-15.601 E3.74141
G1 X-7.641 Y-15.601 E4.22046
G1 X-7.518 Y-15.478 E4.22519
G1 X-7.518 Y-15.660 E4.23014
G1 X-7.009 Y-16.169 E4.24969
G1 X-5.691 Y-16.169 E4.28558
G1 X-5.182 Y-15.660 E4.30514
G1 X-5.182 Y-15.143 E4.31922
G1 X-5.132 Y-15.093 E4.32114
G1 X-5.132 Y-12.734 E4.38533
G1 X-5.118 Y-12.734 E4.38572
G1 X-5.118 Y-13.393 E4.40365
G1 X-4.609 Y-13.901 E4.42321
G1 X-3.339 Y-13.901 E4.45777
G1 X-3.039 Y-13.786 E4.46652
G1 X-0.282 Y-11.305 E4.56742
G1 X-0.132 Y-10.968 E4.57746
G1 X-0.132 Y-5.099 E4.73713
G1 X-0.282 Y-4.762 E4.74717
G1 X-3.039 Y-2.281 E4.84808
G1 X-3.339 Y-2.166 E4.85682
G1 X-4.609 Y-2.166 E4.89138
G1 X-5.118 Y-2.674 E4.91094
G1 X-5.118 Y-4.416 E4.95833
G1 X-5.132 Y-4.416 E4.95872
G1 X-5.132 Y-0.974 E5.05235
G1 X-5.182 Y-0.924 E5.05428
G1 X-5.182 Y-0.406 E5.06836
G1 X-5.555 Y-0.033 E5.08271
G1 X-5.182 Y0.340 E5.09706
G1 X-5.182 Y0.857 E5.11114
G1 X-5.132 Y0.907 E5.11307
G1 X-5.132 Y3.266 E5.17725
G1 X-5.118 Y3.266 E5.17764
G1 X-5.118 Y2.607 E5.19558
G1 X-4.609 Y2.099 E5.21514
G1 X-3.339 Y2.099 E5.24969
G1 X-3.039 Y2.214 E5.25844
G1 X-0.282 Y4.695 E5.35935
G1 X-0.132 Y5.032 E5.36938
G1 X-0.132 Y10.901 E5.52906
G1 X-0.247 Y11.159 E5.53674
G1 F1800.000 E4.53674
G92 E0
G1 X-3.111 Y-2.667 F7800.000
G1 X5.118 Y11.651
G1 F1800.000 E1.00000
G1 X5.132 Y11.651 F540.000 E1.00039
G1 X5.132 Y13.119 E1.04032
G1 X5.118 Y13.133 E1.04087
G1 X5.118 Y11.738 E1.07882
G1 F1800.000 E0.07882
G92 E0
G1 X-3.111 Y-2.667 F7800.000
G1 X6.878 Y9.798
G1 F1800.000 E1.00000
G1 X6.878 Y6.269 F540.000 E1.09602
G1 X7.009 Y6.269 E1.09960
G1 X7.132 Y6.146 E1.10433
G1 X7.132 Y9.921 E1.20703
G1 X7.009 Y9.798 E1.21175
G1 X6.965 Y9.798 E1.21297
G1 F1800.000 E0.21297
G92 E0
G1 X-3.111 Y-2.667 F7800.000
G1 X-6.878 Y9.731
G1 F1800.000 E1.00000
G1 X-7.009 Y9.731 F540.000 E1.00358
G1 X-7.132 Y9.854 E1.00830
G1 X-7.132 Y6.079 E1.11100
G1 X-7.009 Y6.202 E1.11573
G1 X-6.878 Y6.202 E1.11931
G1 X-6.878 Y9.645 E1.21297
G1 F1800.000 E0.21297
G92 E0
G1 X-3.111 Y-2.667 F7800.000
G1 X5.118 Y-2.867
G1 F1800.000 E1.00000
G1 X5.118 Y-4.349 F540.000 E1.04032
G1 X5.132 Y-4.349 E1.04071
G1 X5.132 Y-2.948 E1.07882
G1 F1800.000 E0.07882
G92 E0
G1 X-3.111 Y-2.667 F7800.000
G1 X6.878 Y-6.202
G1 F1800.000 E1.00000
G1 X6.878 Y-9.731 F540.000 E1.09602
G1 X7.009 Y-9.731 E1.09960
G1 X7.132 Y-9.854 E1.10433
G1 X7.132 Y-6.079 E1.20703
G1 X7.009 Y-6.202 E1.21175
G1 X6.965 Y-6.202 E1.21297
G1 F1800.000 E0.21297
G92 E0
G1 X-3.111 Y-2.667 F7800.000
G1 X-6.878 Y-6.269
G1 F1800.000 E1.00000
G1 X-7.009 Y-6.269 F540.000 E1.00358
G1 X-7.132 Y-6.146 E1.00830
G1 X-7.132 Y-9.921 E1.11100
G1 X-7.009 Y-9.798 E1.11573
G1 X-6.878 Y-9.798 E1.11931
G1 X-6.878 Y-6.355 E1.21297
G1 F1800.000 E0.21297
G92 E0
G1 X-5.611 Y-5.167 F7800.000
G1 X3.346 Y2.782
G1 F1800.000 E1.00000
G1 X3.446 Y2.744 F540.000 E1.00292
G1 X4.370 Y2.744 E1.02804
G1 X4.539 Y2.914 E1.03456
G1 X4.539 Y4.994 E1.09116
G1 X5.752 Y4.994 E1.12415
G1 X5.711 Y4.953 E1.12572
G1 X5.711 Y1.214 E1.22747
G1 X5.761 Y1.164 E1.22939
G1 X5.761 Y0.646 E1.24347
G1 X5.930 Y0.477 E1.24999
G1 X6.770 Y0.477 E1.27283
G1 X6.939 Y0.646 E1.27935
G1 X6.939 Y1.164 E1.29343
G1 X6.989 Y1.214 E1.29536
G1 X6.989 Y4.953 E1.39710
G1 X6.939 Y5.003 E1.39902
G1 X6.939 Y5.521 E1.41310
G1 X6.770 Y5.690 E1.41962
G1 X6.299 Y5.690 E1.43242
G1 X6.299 Y10.377 E1.55993
G1 X6.770 Y10.377 E1.57273
G1 X6.939 Y10.546 E1.57925
G1 X6.939 Y11.064 E1.59333
G1 X6.989 Y11.114 E1.59525
G1 X6.989 Y14.207 E1.67941
G1 X7.488 Y14.705 E1.69859
G1 X7.488 Y14.945 E1.70511
G1 X6.894 Y15.539 E1.72795
G1 X6.821 Y15.539 E1.72993
G1 X6.770 Y15.590 E1.73191
G1 X5.930 Y15.590 E1.75476
G1 X5.761 Y15.421 E1.76128
G1 X5.761 Y14.903 E1.77536
G1 X5.711 Y14.853 E1.77728
G1 X5.711 Y14.595 E1.78431
G1 X5.212 Y14.096 E1.80349
G1 X5.212 Y13.857 E1.81001
G1 X5.711 Y13.358 E1.82919
G1 X5.711 Y11.114 E1.89026
G1 X5.752 Y11.073 E1.89183
G1 X4.539 Y11.073 E1.92482
G1 X4.539 Y13.153 E1.98142
G1 X4.370 Y13.323 E1.98794
G1 X3.446 Y13.323 E2.01307
G1 X3.346 Y13.284 E2.01598
G1 X0.761 Y10.957 E2.11062
G1 X0.711 Y10.845 E2.11397
G1 X0.711 Y5.222 E2.26695
G1 X0.761 Y5.109 E2.27030
G1 X3.282 Y2.841 E2.36257
G1 F1800.000 E1.36257
G92 E0
G1 X-3.111 Y-2.667 F7800.000
G1 X-0.761 Y5.043
G1 F1800.000 E1.00000
G1 X-0.711 Y5.155 F540.000 E1.00335
G1 X-0.711 Y10.778 E1.15633
G1 X-0.761 Y10.891 E1.15968
G1 X-3.346 Y13.218 E1.25431
G1 X-3.446 Y13.256 E1.25723
G1 X-4.370 Y13.256 E1.28235
G1 X-4.539 Y13.086 E1.28887
G1 X-4.539 Y11.006 E1.34548
G1 X-5.752 Y11.006 E1.37846
G1 X-5.711 Y11.047 E1.38004
G1 X-5.711 Y14.786 E1.48178
G1 X-5.761 Y14.836 E1.48370
G1 X-5.761 Y15.354 E1.49778
G1 X-5.930 Y15.523 E1.50430
G1 X-6.770 Y15.523 E1.52715
G1 X-6.939 Y15.354 E1.53367
G1 X-6.939 Y14.836 E1.54775
G1 X-6.989 Y14.786 E1.54967
G1 X-6.989 Y11.047 E1.65141
G1 X-6.939 Y10.997 E1.65334
G1 X-6.939 Y10.479 E1.66742
G1 X-6.770 Y10.310 E1.67394
G1 X-6.299 Y10.310 E1.68674
G1 X-6.299 Y5.623 E1.81424
G1 X-6.770 Y5.623 E1.82704
G1 X-6.939 Y5.454 E1.83356
G1 X-6.939 Y5.023 E1.84528
G1 X-7.370 Y5.023 E1.85699
G1 X-7.539 Y4.854 E1.86351
G1 X-7.539 Y4.014 E1.88635
G1 X-7.370 Y3.845 E1.89287
G1 X-6.989 Y3.845 E1.90323
G1 X-6.989 Y1.147 E1.97663
G1 X-6.939 Y1.097 E1.97856
G1 X-6.939 Y0.579 E1.99264
G1 X-6.770 Y0.410 E1.99916
G1 X-5.930 Y0.410 E2.02200
G1 X-5.761 Y0.579 E2.02852
G1 X-5.761 Y1.097 E2.04260
G1 X-5.711 Y1.147 E2.04452
G1 X-5.711 Y3.845 E2.11793
G1 X-5.330 Y3.845 E2.12828
G1 X-5.161 Y4.014 E2.13480
G1 X-5.161 Y4.854 E2.15764
G1 X-5.234 Y4.927 E2.16047
G1 X-4.539 Y4.927 E2.17937
G1 X-4.539 Y2.847 E2.23598
G1 X-4.370 Y2.677 E2.24250
G1 X-3.446 Y2.677 E2.26762
G1 X-3.346 Y2.716 E2.27054
G1 X-0.825 Y4.985 E2.36281
G1 F1800.000 E1.36281
G92 E0
G1 X-3.111 Y-2.667 F7800.000
G1 X7.711 Y1.214
G1 F1800.000 E1.00000
G1 X7.880 Y1.044 F540.000 E1.00652
G1 X25.009 Y1.044 E1.47254
G1 X25.178 Y1.214 E1.47906
G1 X25.178 Y2.853 E1.52366
G1 X25.093 Y2.938 E1.52695
G1 X25.093 Y13.128 E1.80418
G1 X25.178 Y13.214 E1.80746
G1 X25.178 Y14.853 E1.85207
G1 X25.009 Y15.023 E1.85859
G1 X7.880 Y15.023 E2.32460
G1 X7.711 Y14.853 E2.33112
G1 X7.711 Y1.300 E2.69985
G1 F1800.000 E1.69985
G92 E0
G1 X-3.111 Y-2.667 F7800.000
G1 X-7.711 Y1.147
G1 F1800.000 E1.00000
G1 X-7.711 Y14.786 F540.000 E1.37109
G1 X-7.880 Y14.956 E1.37761
G1 X-25.009 Y14.956 E1.84362
G1 X-25.178 Y14.786 E1.85014
G1 X-25.178 Y13.147 E1.89475
G1 X-25.093 Y13.062 E1.89803
G1 X-25.093 Y2.872 E2.17527
G1 X-25.178 Y2.786 E2.17855
G1 X-25.178 Y1.147 E2.22316
G1 X-25.009 Y0.977 E2.22968
G1 X-7.880 Y0.977 E2.69569
G1 X-7.772 Y1.085 E2.69985
G1 F1800.000 E1.69985
G92 E0
G1 X-3.111 Y-2.667 F7800.000
G1 X0.761 Y-5.043
G1 F1800.000 E1.00000
G1 X0.711 Y-5.155 F540.000 E1.00335
G1 X0.711 Y-10.778 E1.15633
G1 X0.761 Y-10.891 E1.15968
G1 X3.346 Y-13.218 E1.25431
G1 X3.446 Y-13.256 E1.25723
G1 X4.370 Y-13.256 E1.28235
G1 X4.539 Y-13.086 E1.28887
G1 X4.539 Y-11.006 E1.34548
G1 X5.752 Y-11.006 E1.37846
G1 X5.711 Y-11.047 E1.38004
G1 X5.711 Y-14.786 E1.48178
G1 X5.761 Y-14.836 E1.48370
G1 X5.761 Y-15.354 E1.49778
G1 X5.930 Y-15.523 E1.50430
G1 X6.770 Y-15.523 E1.52715
G1 X6.939 Y-15.354 E1.53367
G1 X6.939 Y-14.836 E1.54775
G1 X6.989 Y-14.786 E1.54967
G1 X6.989 Y-11.047 E1.65141
G1 X6.939 Y-10.997 E1.65334
G1 X6.939 Y-10.479 E1.66742
G1 X6.770 Y-10.310 E1.67394
G1 X6.299 Y-10.310 E1.68674
G1 X6.299 Y-5.623 E1.81424
G1 X6.770 Y-5.623 E1.82704
G1 X6.939 Y-5.454 E1.83356
G1 X6.939 Y-4.936 E1.84764
G1 X6.989 Y-4.886 E1.84957
G1 X6.989 Y-1.793 E1.93372
G1 X7.488 Y-1.295 E1.95290
G1 X7.488 Y-1.055 E1.95942
G1 X6.894 Y-0.461 E1.98227
G1 X6.821 Y-0.461 E1.98425
G1 X6.770 Y-0.410 E1.98623
G1 X5.930 Y-0.410 E2.00907
G1 X5.761 Y-0.579 E2.01559
G1 X5.761 Y-1.097 E2.02967
G1 X5.711 Y-1.147 E2.03160
G1 X5.711 Y-1.405 E2.03862
G1 X5.212 Y-1.904 E2.05780
G1 X5.212 Y-2.143 E2.06432
G1 X5.711 Y-2.642 E2.08350
G1 X5.711 Y-4.886 E2.14457
G1 X5.752 Y-4.927 E2.14615
G1 X4.539 Y-4.927 E2.17913
G1 X4.539 Y-2.847 E2.23574
G1 X4.370 Y-2.677 E2.24226
G1 X3.446 Y-2.677 E2.26738
G1 X3.346 Y-2.716 E2.27030
G1 X0.825 Y-4.985 E2.36257
G1 X-0.711 Y-5.222 F7800.000
G1 X-0.761 Y-5.109 F540.000 E2.36592
G1 X-3.346 Y-2.782 E2.46056
G1 X-3.446 Y-2.744 E2.46348
G1 X-4.370 Y-2.744 E2.48860
G1 X-4.539 Y-2.914 E2.49512
G1 X-4.539 Y-4.994 E2.55172
G1 X-5.752 Y-4.994 E2.58471
G1 X-5.711 Y-4.953 E2.58628
G1 X-5.711 Y-1.214 E2.68802
G1 X-5.761 Y-1.164 E2.68995
G1 X-5.761 Y-0.646 E2.70403
G1 X-5.930 Y-0.477 E2.71055
G1 X-6.770 Y-0.477 E2.73339
G1 X-6.939 Y-0.646 E2.73991
G1 X-6.939 Y-1.164 E2.75399
G1 X-6.989 Y-1.214 E2.75591
G1 X-6.989 Y-4.953 E2.85766
G1 X-6.939 Y-5.003 E2.85958
G1 X-6.939 Y-5.521 E2.87366
G1 X-6.770 Y-5.690 E2.88018
G1 X-6.299 Y-5.690 E2.89298
G1 X-6.299 Y-10.377 E3.02049
G1 X-6.770 Y-10.377 E3.03329
G1 X-6.939 Y-10.546 E3.03981
G1 X-6.939 Y-10.977 E3.05152
G1 X-7.370 Y-10.977 E3.06323
G1 X-7.539 Y-11.146 E3.06975
G1 X-7.539 Y-11.986 E3.09260
G1 X-7.370 Y-12.155 E3.09912
G1 X-6.989 Y-12.155 E3.10947
G1 X-6.989 Y-14.853 E3.18288
G1 X-6.939 Y-14.903 E3.18480
G1 X-6.939 Y-15.421 E3.19888
G1 X-6.770 Y-15.590 E3.20540
G1 X-5.930 Y-15.590 E3.22824
G1 X-5.761 Y-15.421 E3.23476
G1 X-5.761 Y-14.903 E3.24884
G1 X-5.711 Y-14.853 E3.25077
G1 X-5.711 Y-12.155 E3.32417
G1 X-5.330 Y-12.155 E3.33452
G1 X-5.161 Y-11.986 E3.34104
G1 X-5.161 Y-11.146 E3.36389
G1 X-5.234 Y-11.073 E3.36671
G1 X-4.539 Y-11.073 E3.38562
G1 X-4.539 Y-13.153 E3.44222
G1 X-4.370 Y-13.323 E3.44874
G1 X-3.446 Y-13.323 E3.47387
G1 X-3.346 Y-13.284 E3.47678
G1 X-0.761 Y-10.957 E3.57142
G1 X-0.711 Y-10.845 E3.57477
G1 X-0.711 Y-5.309 E3.72539
G1 F1800.000 E2.72539
G92 E0
G1 X-3.111 Y-2.667 F7800.000
G1 X7.711 Y-1.147
G1 F1800.000 E1.00000
G1 X7.711 Y-14.786 F540.000 E1.37109
G1 X7.880 Y-14.956 E1.37761
G1 X25.009 Y-14.956 E1.84362
