; generated by Slic3r 0.9.9 on 2013-07-19 at 15:30:31

; layer_height = 0.3
; perimeters = 2
; top_solid_layers = 3
; bottom_solid_layers = 3
; fill_density = 0.3
; perimeter_speed = 30
; infill_speed = 60
; travel_speed = 130
; nozzle_diameter = 0.5
; filament_diameter = 2.85
; extrusion_multiplier = 1
; perimeters extrusion width = 0.70mm
; infill extrusion width = 0.70mm
; solid infill extrusion width = 0.70mm
; top infill extrusion width = 0.70mm
; first layer extrusion width = 0.60mm

G21 ; set units to millimeters
M107
M104 S0
M83
M140 S80
G28
G1Y98F9000
M190 S80
G1X5Y98Z150F9000
M104 S210
G1X5Y98Z1F9000
G1Z0.05
M109 S210
G1Z5
G1X15
;G1E5F50
G90 ; use absolute coordinates
G92 E0
M82 ; use absolute distances for extrusion
G1 F1800.000 E-1.00000
G92 E0
G1 Z0.300 F7800.000
G1 X-18.410 Y5.381
G1 F1800.000 E1.00000
G1 X-18.620 Y4.911 F540.000 E1.01401
G1 X-18.860 Y4.191 E1.03465
G1 X-21.530 Y-5.809 E1.31625
G1 X-21.670 Y-6.479 E1.33487
G1 X-21.740 Y-7.169 E1.35374
G1 X-21.750 Y-17.509 E1.63506
G1 X-21.730 Y-18.039 E1.64949
G1 X-21.700 Y-18.309 E1.65688
G1 X-21.560 Y-19.089 E1.67844
G1 X-21.490 Y-19.349 E1.68577
G1 X-21.320 Y-19.849 E1.70013
G1 X-21.110 Y-20.339 E1.71464
G1 X-20.860 Y-20.809 E1.72912
G1 X-20.420 Y-21.479 E1.75093
G1 X-19.900 Y-22.089 E1.77274
G1 X-19.510 Y-22.449 E1.78718
G1 X-19.100 Y-22.789 E1.80167
G1 X-18.660 Y-23.089 E1.81616
G1 X-17.960 Y-23.469 E1.83783
G1 X-17.460 Y-23.679 E1.85258
G1 X-16.960 Y-23.839 E1.86686
G1 X-5.040 Y-26.699 E2.20037
G1 X-4.430 Y-26.809 E2.21723
G1 X-3.820 Y-26.869 E2.23391
G1 X-1.180 Y-26.869 E2.30574
G1 X-0.850 Y-26.849 E2.31473
G1 X-0.200 Y-26.749 E2.33262
G1 X0.440 Y-26.579 E2.35064
G1 X9.710 Y-23.709 E2.61466
G1 X10.220 Y-23.499 E2.62966
G1 X10.940 Y-23.119 E2.65181
G1 X11.620 Y-22.639 E2.67446
G1 X12.230 Y-22.089 E2.69680
G1 X12.590 Y-21.679 E2.71165
G1 X13.070 Y-21.009 E2.73407
G1 X13.470 Y-20.279 E2.75672
G1 X13.770 Y-19.509 E2.77920
G1 X21.770 Y5.491 E3.49334
G1 X21.910 Y6.001 E3.50773
G1 X23.910 Y14.601 E3.74795
G1 X24.020 Y15.191 E3.76428
G1 X24.080 Y16.091 E3.78882
G1 X24.080 Y17.491 E3.82691
G1 X24.060 Y18.031 E3.84161
G1 X23.940 Y18.831 E3.86362
G1 X23.730 Y19.611 E3.88560
G1 X23.640 Y19.861 E3.89283
G1 X23.420 Y20.351 E3.90744
G1 X23.030 Y21.061 E3.92948
G1 X22.720 Y21.501 E3.94412
G1 X22.190 Y22.111 E3.96611
G1 X21.790 Y22.481 E3.98093
G1 X21.370 Y22.811 E3.99546
G1 X20.920 Y23.111 E4.01018
G1 X20.210 Y23.491 E4.03209
G1 X19.710 Y23.691 E4.04674
G1 X10.440 Y26.571 E4.31084
G1 X9.800 Y26.741 E4.32885
G1 X9.150 Y26.841 E4.34674
G1 X8.490 Y26.871 E4.36472
G1 X6.500 Y26.871 E4.41886
G1 X5.880 Y26.841 E4.43575
G1 X5.270 Y26.751 E4.45252
G1 X-6.700 Y23.891 E4.78735
G1 X-7.240 Y23.741 E4.80260
G1 X-7.750 Y23.541 E4.81751
G1 X-8.250 Y23.301 E4.83260
G1 X-8.730 Y23.021 E4.84771
G1 X-9.180 Y22.711 E4.86258
G1 X-9.600 Y22.351 E4.87763
G1 X-10.180 Y21.761 E4.90014
G1 X-10.520 Y21.321 E4.91527
G1 X-10.820 Y20.861 E4.93021
G1 X-11.080 Y20.381 E4.94506
G1 X-18.372 Y5.459 E5.39692
G1 F1800.000 E4.39692
G92 E0
G1 X2.132 Y9.632 F7800.000
G1 F1800.000 E1.00000
G1 X12.868 Y9.632 F540.000 E1.29208
G1 X12.868 Y13.368 E1.39371
G1 X2.132 Y13.368 E1.68579
G1 X2.132 Y9.719 E1.78507
G1 X2.711 Y10.211 F7800.000
G1 X12.289 Y10.211 F540.000 E2.04567
G1 X12.289 Y12.789 E2.11582
G1 X2.711 Y12.789 E2.37642
G1 X2.711 Y10.298 E2.44421
G1 X2.711 Y9.632 F7800.000
G1 F1800.000 E1.44421
G92 E0
G1 X-1.632 Y-1.632 F7800.000
G1 F1800.000 E1.00000
G1 X-0.568 Y-1.632 F540.000 E1.02896
G1 X-0.568 Y8.368 E1.30102
G1 X14.632 Y8.368 E1.71457
G1 X14.632 Y16.632 E1.93941
G1 X9.902 Y16.632 E2.06812
G1 X8.036 Y19.431 E2.15964
G1 X6.964 Y19.431 E2.18878
G1 X5.098 Y16.632 E2.28030
G1 X-1.632 Y16.632 E2.46342
G1 X-1.632 Y-1.545 E2.95797
G1 X-2.211 Y-2.211 F7800.000
G1 X0.011 Y-2.211 F540.000 E3.01841
G1 X0.011 Y7.789 E3.29048
G1 X15.211 Y7.789 E3.70402
G1 X15.211 Y16.389 E3.93800
G1 X17.211 Y16.389 E3.99241
G1 X17.211 Y17.211 E4.01476
G1 X10.211 Y17.211 E4.20519
G1 X8.345 Y20.010 E4.29671
G1 X6.655 Y20.010 E4.34270
G1 X4.789 Y17.211 E4.43423
G1 X-2.211 Y17.211 E4.62466
G1 X-2.211 Y-2.124 E5.15069
G1 X-1.710 Y-1.921 F7800.000
G1 F1800.000 E4.15069
G92 E0
G1 X2.868 Y-9.632 F7800.000
G1 F1800.000 E1.00000
G1 X-7.868 Y-9.632 F540.000 E1.29208
G1 X-7.868 Y-13.368 E1.39371
G1 X2.868 Y-13.368 E1.68579
G1 X2.868 Y-9.719 E1.78507
G1 X2.289 Y-10.211 F7800.000
G1 X-7.289 Y-10.211 F540.000 E2.04567
G1 X-7.289 Y-12.789 E2.11582
G1 X2.289 Y-12.789 E2.37642
G1 X2.289 Y-10.298 E2.44421
G1 X2.289 Y-9.632 F7800.000
G1 F1800.000 E1.44421
G92 E0
G1 X-11.632 Y-16.632 F7800.000
G1 F1800.000 E1.00000
G1 X-4.902 Y-16.632 F540.000 E1.18312
G1 X-3.036 Y-19.431 E1.27464
G1 X-1.964 Y-19.431 E1.30378
G1 X-0.098 Y-16.632 E1.39530
G1 X4.632 Y-16.632 E1.52401
G1 X4.632 Y-8.368 E1.74886
G1 X-10.568 Y-8.368 E2.16240
G1 X-10.568 Y1.632 E2.43446
G1 X-11.632 Y1.632 E2.46342
G1 X-11.632 Y-16.545 E2.95797
G1 X-12.211 Y-17.211 F7800.000
G1 X-5.211 Y-17.211 F540.000 E3.14841
G1 X-3.345 Y-20.010 E3.23993
G1 X-1.655 Y-20.010 E3.28592
G1 X0.211 Y-17.211 E3.37744
G1 X7.211 Y-17.211 E3.56787
G1 X7.211 Y-16.389 E3.59022
G1 X5.211 Y-16.389 E3.64464
G1 X5.211 Y-7.789 E3.87861
G1 X-9.989 Y-7.789 E4.29216
G1 X-9.989 Y2.211 E4.56422
G1 X-12.211 Y2.211 E4.62466
G1 X-12.211 Y-17.124 E5.15069
G1 X-11.710 Y-16.921 F7800.000
G1 F1800.000 E4.15069
G92 E0
G1 X-4.708 Y12.353 F7800.000
G1 F1800.000 E1.00000
G1 X-4.708 Y7.973 F540.000 E1.11917
G1 X-4.823 Y7.826 E1.12424
G1 X-4.708 Y7.973 F7800.000
G1 X-4.668 Y7.941 F540.000 E1.12564
G1 X-4.668 Y7.941 F7800.000
G1 X-4.594 Y7.826 F540.000 E1.12937
G1 X-4.708 Y12.353 F7800.000
G1 X-4.708 Y16.765 F540.000 E1.24940
G1 X-4.708 Y16.765 F7800.000
G1 X-4.749 Y17.059 F540.000 E1.25748
G1 X-4.749 Y17.059 F7800.000
G1 X-4.823 Y17.174 F540.000 E1.26122
G1 X-4.708 Y17.027 F7800.000
G1 X-4.594 Y17.174 F540.000 E1.26629
G1 F1800.000 E0.26629
G92 E0
G1 X-14.594 Y-7.826 F7800.000
G1 F1800.000 E1.00000
G1 X-14.708 Y-7.973 F540.000 E1.00507
G1 X-14.823 Y-7.826 F7800.000
G1 X-14.708 Y-7.973 F540.000 E1.01014
G1 X-14.708 Y-12.647 E1.13732
G1 X-14.708 Y-12.647 F7800.000
G1 X-14.708 Y-17.027 F540.000 E1.25649
G1 X-14.823 Y-17.174 E1.26156
G1 X-14.708 Y-17.027 F7800.000
G1 X-14.668 Y-17.059 F540.000 E1.26296
G1 X-14.668 Y-17.059 F7800.000
G1 X-14.594 Y-17.174 F540.000 E1.26669
G1 F1800.000 E0.26669
G92 E0
G1 X-1.213 Y9.442 F7800.000
G1 F1800.000 E1.00000
G1 X1.713 Y12.368 F1080.000 E1.11645
G1 X1.713 Y11.521 E1.14026
G1 X-1.021 Y8.787 E1.24909
G1 X-0.175 Y8.787 E1.27291
G1 X1.713 Y10.675 E1.34804
G1 X1.713 Y9.829 E1.37186
G1 X0.671 Y8.787 E1.41332
G1 X1.518 Y8.787 E1.43714
G1 X1.713 Y8.982 E1.44491
G1 X1.713 Y13.214 F7800.000
G1 X-1.213 Y10.288 F1080.000 E1.56135
G1 X-1.213 Y11.135 E1.58517
G1 X3.865 Y16.213 E1.78728
G1 X3.019 Y16.213 E1.81110
G1 X-1.213 Y11.981 E1.97953
G1 X-1.213 Y12.827 E2.00335
G1 X2.173 Y16.213 E2.13810
G1 X1.326 Y16.213 E2.16191
G1 X-1.213 Y13.674 E2.26298
G1 X-1.213 Y14.520 E2.28679
G1 X0.480 Y16.213 E2.35417
G1 X-0.366 Y16.213 E2.37799
G1 X-1.213 Y15.366 E2.41168
G1 X-1.213 Y16.213 E2.43551
G1 X2.286 Y13.787 F7800.000
G1 X4.712 Y16.213 F1080.000 E2.53205
G1 X4.825 Y13.787 F7800.000
G1 X8.707 Y17.669 F1080.000 E2.68654
G1 X8.368 Y18.177 E2.70372
G1 X3.979 Y13.787 E2.87841
G1 X3.132 Y13.787 E2.90223
G1 X8.029 Y18.684 E3.09714
G1 X7.511 Y19.012 E3.11441
G1 X6.545 Y18.046 E3.15284
G1 X9.045 Y17.161 F7800.000
G1 X5.671 Y13.787 F1080.000 E3.28712
G1 X6.518 Y13.787 E3.31093
G1 X9.384 Y16.653 E3.42500
G1 X9.790 Y16.213 E3.44186
G1 X7.364 Y13.787 E3.53840
G1 X8.210 Y13.787 E3.56222
G1 X10.636 Y16.213 E3.65877
G1 X11.482 Y16.213 E3.68258
G1 X9.057 Y13.787 E3.77913
G1 X9.903 Y13.787 E3.80295
G1 X12.329 Y16.213 E3.89949
G1 X13.175 Y16.213 E3.92331
G1 X10.749 Y13.787 E4.01986
G1 X11.596 Y13.787 E4.04367
G1 X14.021 Y16.213 E4.14022
G1 X14.213 Y15.558 E4.15942
G1 X12.442 Y13.787 E4.22990
G1 X13.287 Y13.786 E4.25369
G1 X14.213 Y14.712 E4.29053
G1 X14.213 Y13.865 E4.31435
G1 X13.287 Y12.940 E4.35119
G1 X13.287 Y12.093 E4.37501
G1 X14.213 Y13.019 E4.41186
G1 X14.213 Y12.173 E4.43568
G1 X13.287 Y11.247 E4.47252
G1 X13.287 Y10.401 E4.49634
G1 X14.213 Y11.326 E4.53318
G1 X14.213 Y10.480 E4.55700
G1 X13.287 Y9.554 E4.59385
G1 X13.366 Y8.787 E4.61555
G1 X14.213 Y9.634 E4.64924
G1 X14.213 Y8.787 E4.67306
G1 X-1.223 Y8.537 F7800.000
G1 X-0.977 Y8.348 F360.000 E4.67755
G1 X-1.223 Y8.102 E4.68259
G1 X-0.977 Y7.913 E4.68707
G1 X-1.223 Y7.667 E4.69211
G1 X-0.977 Y7.478 E4.69660
G1 X-1.223 Y7.232 E4.70163
G1 X-0.977 Y7.043 E4.70612
G1 X-1.223 Y6.797 E4.71115
G1 X-0.977 Y6.608 E4.71564
G1 X-1.223 Y6.362 E4.72067
G1 X-0.977 Y6.173 E4.72516
G1 X-1.223 Y5.927 E4.73020
G1 X-0.977 Y5.738 E4.73468
G1 X-1.223 Y5.492 E4.73972
G1 X-0.977 Y5.303 E4.74421
G1 X-1.223 Y5.057 E4.74924
G1 X-0.977 Y4.868 E4.75373
G1 X-1.223 Y4.622 E4.75876
G1 X-0.977 Y4.433 E4.76325
G1 X-1.223 Y4.187 E4.76828
G1 X-0.977 Y3.998 E4.77277
G1 X-1.223 Y3.752 E4.77780
G1 X-0.977 Y3.563 E4.78229
G1 X-1.223 Y3.317 E4.78733
G1 X-0.977 Y3.128 E4.79181
G1 X-1.223 Y2.881 E4.79685
G1 X-0.977 Y2.692 E4.80134
G1 X-1.223 Y2.446 E4.80637
G1 X-0.977 Y2.257 E4.81086
G1 X-1.223 Y2.011 E4.81589
G1 X-0.977 Y1.822 E4.82038
G1 X-1.223 Y1.576 E4.82541
G1 X-0.977 Y1.387 E4.82990
G1 X-1.223 Y1.141 E4.83494
G1 X-0.977 Y0.952 E4.83942
G1 X-1.223 Y0.706 E4.84446
G1 X-0.977 Y0.517 E4.84895
G1 X-1.223 Y0.271 E4.85398
G1 X-0.977 Y0.082 E4.85847
G1 X-1.223 Y-0.164 E4.86350
G1 X-0.977 Y-0.353 E4.86799
G1 X-1.223 Y-0.599 E4.87302
G1 X-0.977 Y-0.788 E4.87751
G1 X-1.223 Y-1.034 E4.88254
G1 X-0.977 Y-1.223 E4.88703
G1 F1800.000 E3.88703
G92 E0
G1 X2.143 Y9.043 F7800.000
G1 F1800.000 E1.00000
G1 X2.888 Y8.957 F360.000 E1.02071
G1 X2.974 Y9.043 E1.02407
G1 X3.719 Y8.957 E1.04478
G1 X3.805 Y9.043 E1.04814
G1 X4.549 Y8.957 E1.06885
G1 X4.635 Y9.043 E1.07222
G1 X5.380 Y8.957 E1.09293
G1 X5.466 Y9.043 E1.09629
G1 X6.211 Y8.957 E1.11700
G1 X6.297 Y9.043 E1.12036
G1 X7.042 Y8.957 E1.14107
G1 X7.128 Y9.043 E1.14443
G1 X7.872 Y8.957 E1.16514
G1 X7.958 Y9.043 E1.16850
G1 X8.703 Y8.957 E1.18921
G1 X8.789 Y9.043 E1.19257
G1 X9.534 Y8.957 E1.21328
G1 X9.620 Y9.043 E1.21665
G1 X10.365 Y8.957 E1.23736
G1 X10.451 Y9.043 E1.24072
G1 X11.195 Y8.957 E1.26143
G1 X11.281 Y9.043 E1.26479
G1 X12.026 Y8.957 E1.28550
G1 X12.112 Y9.043 E1.28886
G1 X12.857 Y8.957 E1.30958
G1 X15.042 Y16.802 F7800.000
G1 X16.802 Y16.799 F360.000 E1.33537
G1 F1800.000 E0.33537
G92 E0
G1 X-11.223 Y1.223 F7800.000
G1 F1800.000 E1.00000
G1 X-10.977 Y1.034 F360.000 E1.00449
G1 X-11.223 Y0.788 E1.00952
G1 X-10.977 Y0.599 E1.01401
G1 X-11.223 Y0.353 E1.01904
G1 X-10.977 Y0.164 E1.02353
G1 X-11.223 Y-0.082 E1.02856
G1 X-10.977 Y-0.271 E1.03305
G1 X-11.223 Y-0.517 E1.03809
G1 X-10.977 Y-0.706 E1.04257
G1 X-11.223 Y-0.952 E1.04761
G1 X-10.977 Y-1.141 E1.05210
G1 X-11.223 Y-1.387 E1.05713
G1 X-10.977 Y-1.576 E1.06162
G1 X-11.223 Y-1.822 E1.06665
G1 X-10.977 Y-2.011 E1.07114
G1 X-11.223 Y-2.257 E1.07617
G1 X-10.977 Y-2.446 E1.08066
G1 X-11.223 Y-2.693 E1.08570
G1 X-10.977 Y-2.882 E1.09018
G1 X-11.223 Y-3.128 E1.09522
G1 X-10.977 Y-3.317 E1.09971
G1 X-11.223 Y-3.563 E1.10474
G1 X-10.977 Y-3.752 E1.10923
G1 X-11.223 Y-3.998 E1.11426
G1 X-10.977 Y-4.187 E1.11875
G1 X-11.223 Y-4.433 E1.12378
G1 X-10.977 Y-4.622 E1.12827
G1 X-11.223 Y-4.868 E1.13330
G1 X-10.977 Y-5.057 E1.13779
G1 X-11.223 Y-5.303 E1.14283
G1 X-10.977 Y-5.492 E1.14731
G1 X-11.223 Y-5.738 E1.15235
G1 X-10.977 Y-5.927 E1.15684
G1 X-11.223 Y-6.173 E1.16187
G1 X-10.977 Y-6.362 E1.16636
G1 X-11.223 Y-6.608 E1.17139
G1 X-10.977 Y-6.797 E1.17588
G1 X-11.223 Y-7.043 E1.18091
G1 X-10.977 Y-7.232 E1.18540
G1 X-11.223 Y-7.478 E1.19044
G1 X-10.977 Y-7.667 E1.19492
G1 X-11.223 Y-7.913 E1.19996
G1 X-10.977 Y-8.102 E1.20445
G1 X-11.223 Y-8.348 E1.20948
G1 X-10.977 Y-8.537 E1.21397
G1 X-11.213 Y-8.787 F7800.000
G1 X-11.213 Y-9.634 F1080.000 E1.23779
G1 X-10.366 Y-8.787 E1.27148
G1 X-9.520 Y-8.787 E1.29530
G1 X-11.213 Y-10.480 E1.36268
G1 X-11.213 Y-11.326 E1.38650
G1 X-8.674 Y-8.787 E1.48756
G1 X-8.287 Y-9.247 E1.50446
G1 X-11.213 Y-12.173 E1.62091
G1 X-11.213 Y-13.019 E1.64473
G1 X-8.287 Y-10.093 E1.76117
G1 X-8.287 Y-10.940 E1.78499
G1 X-11.213 Y-13.865 E1.90144
G1 X-11.213 Y-14.712 E1.92525
G1 X-8.287 Y-11.786 E2.04170
G1 X-8.287 Y-12.632 E2.06552
G1 X-11.213 Y-15.558 E2.18196
G1 X-11.021 Y-16.213 E2.20116
G1 X-8.287 Y-13.479 E2.30999
G1 X-7.749 Y-13.787 E2.32744
G1 X-10.175 Y-16.213 E2.42398
G1 X-9.329 Y-16.213 E2.44780
G1 X-6.903 Y-13.787 E2.54435
G1 X-6.057 Y-13.787 E2.56816
G1 X-8.482 Y-16.213 E2.66471
G1 X-7.636 Y-16.213 E2.68853
G1 X-5.210 Y-13.787 E2.78507
G1 X-4.364 Y-13.787 E2.80889
G1 X-6.790 Y-16.213 E2.90544
G1 X-5.943 Y-16.213 E2.92925
G1 X-3.518 Y-13.787 E3.02580
G1 X-2.671 Y-13.787 E3.04962
G1 X-5.097 Y-16.213 E3.14616
G1 X-4.507 Y-16.469 E3.16427
G1 X-1.825 Y-13.787 E3.27100
G1 X-0.979 Y-13.787 E3.29482
G1 X-4.168 Y-16.977 E3.42176
G1 X-3.829 Y-17.484 E3.43894
G1 X-0.132 Y-13.787 E3.58609
G1 X0.714 Y-13.787 E3.60990
G1 X-3.491 Y-17.992 E3.77727
G1 X-3.152 Y-18.500 E3.79444
G1 X1.560 Y-13.787 E3.98201
G1 X2.407 Y-13.787 E4.00583
G1 X-0.019 Y-16.213 E4.10238
G1 X0.827 Y-16.213 E4.12620
G1 X3.253 Y-13.787 E4.22274
G1 X3.287 Y-13.753 F7800.000
G1 X4.213 Y-12.827 F1080.000 E4.25958
G1 X4.213 Y-11.981 E4.28340
G1 X3.287 Y-12.907 E4.32025
G1 X3.287 Y-12.060 E4.34407
G1 X4.213 Y-11.135 E4.38091
G1 X4.213 Y-10.288 E4.40473
G1 X3.287 Y-11.214 E4.44157
G1 X3.287 Y-10.368 E4.46539
G1 X4.213 Y-9.442 E4.50224
G1 X4.021 Y-8.787 E4.52144
G1 X3.287 Y-9.521 E4.55066
G1 X4.213 Y-13.674 F7800.000
G1 X1.674 Y-16.213 F1080.000 E4.65172
G1 X2.520 Y-16.213 E4.67554
G1 X4.213 Y-14.520 E4.74292
G1 X4.213 Y-15.366 E4.76674
G1 X3.366 Y-16.213 E4.80043
G1 X4.213 Y-16.213 E4.82425
G1 X-0.931 Y-17.124 F7800.000
G1 X-2.814 Y-19.008 F1080.000 E4.89921
G1 F1800.000 E3.89921
G92 E0
G1 X-7.857 Y-8.957 F7800.000
G1 F1800.000 E1.00000
G1 X-7.112 Y-9.043 F360.000 E1.02071
G1 X-7.026 Y-8.957 E1.02407
G1 X-6.281 Y-9.043 E1.04478
G1 X-6.195 Y-8.957 E1.04814
G1 X-5.451 Y-9.043 E1.06885
G1 X-5.365 Y-8.957 E1.07222
G1 X-4.620 Y-9.043 E1.09293
G1 X-4.534 Y-8.957 E1.09629
G1 X-3.789 Y-9.043 E1.11700
G1 X-3.703 Y-8.957 E1.12036
G1 X-2.958 Y-9.043 E1.14107
G1 X-2.872 Y-8.957 E1.14443
G1 X-2.128 Y-9.043 E1.16514
G1 X-2.042 Y-8.957 E1.16850
G1 X-1.297 Y-9.043 E1.18921
G1 X-1.211 Y-8.957 E1.19257
G1 X-0.466 Y-9.043 E1.21328
G1 X-0.380 Y-8.957 E1.21665
G1 X0.365 Y-9.043 E1.23736
G1 X0.451 Y-8.957 E1.24072
G1 X1.195 Y-9.043 E1.26143
G1 X1.281 Y-8.957 E1.26479
G1 X2.026 Y-9.043 E1.28550
G1 X2.112 Y-8.957 E1.28886
G1 X2.857 Y-9.043 E1.30958
G1 X5.042 Y-16.798 F7800.000
G1 X6.802 Y-16.801 F360.000 E1.33537
M104 S200 ; set temperature
M140 S50 ; set bed temperature
G1 F1800.000 E0.33537
G92 E0
G1 Z0.600 F7800.000
G1 X2.018 Y9.518
G1 F1800.000 E1.00000
G1 X12.982 Y9.518 F1800.000 E1.33744
G1 X12.982 Y13.482 E1.45943
G1 X2.018 Y13.482 E1.79688
G1 X2.018 Y9.616 E1.91585
G1 X2.673 Y10.173 F7800.000
G1 X12.327 Y10.173 F1800.000 E2.21300
G1 X12.327 Y12.827 E2.29470
G1 X2.673 Y12.827 E2.59185
G1 X2.673 Y10.271 E2.67053
G1 X2.673 Y9.518 F7800.000
G1 F1800.000 E1.67053
G92 E0
G1 X-0.682 Y-1.518 F7800.000
G1 F1800.000 E1.00000
G1 X-0.682 Y8.482 F1800.000 E1.30779
G1 X14.518 Y8.482 E1.77562
G1 X14.518 Y16.518 E2.02298
G1 X9.841 Y16.518 E2.16695
G1 X7.975 Y19.317 E2.27049
G1 X7.025 Y19.317 E2.29970
G1 X5.159 Y16.518 E2.40324
G1 X-1.518 Y16.518 E2.60877
G1 X-1.518 Y-1.518 E3.16391
G1 X-0.780 Y-1.518 E3.18664
G1 X-0.027 Y-2.173 F7800.000
G1 X-0.027 Y7.827 F1800.000 E3.49442
G1 X15.173 Y7.827 E3.96226
G1 X15.173 Y16.427 E4.22696
G1 X17.173 Y16.427 E4.28851
G1 X17.173 Y17.173 E4.31146
G1 X10.191 Y17.173 E4.52635
G1 X8.325 Y19.972 E4.62989
G1 X6.675 Y19.972 E4.68067
G1 X4.809 Y17.173 E4.78421
G1 X-2.173 Y17.173 E4.99910
G1 X-2.173 Y-2.173 E5.59453
G1 X-0.125 Y-2.173 E5.65754
G1 X-0.354 Y-1.606 F7800.000
G1 F1800.000 E4.65754
G92 E0
G1 X2.982 Y-9.518 F7800.000
G1 F1800.000 E1.00000
G1 X-7.982 Y-9.518 F1800.000 E1.33744
G1 X-7.982 Y-13.482 E1.45943
G1 X2.982 Y-13.482 E1.79688
G1 X2.982 Y-9.616 E1.91585
G1 X2.327 Y-10.173 F7800.000
