; generated by Slic3r 0.9.9 on 2013-07-19 at 19:44:47

; layer_height = 0.3
; perimeters = 2
; top_solid_layers = 3
; bottom_solid_layers = 3
; fill_density = 0.3
; perimeter_speed = 30
; infill_speed = 60
; travel_speed = 130
; nozzle_diameter = 0.5
; filament_diameter = 2.85
; extrusion_multiplier = 1
; perimeters extrusion width = 0.70mm
; infill extrusion width = 0.70mm
; solid infill extrusion width = 0.70mm
; top infill extrusion width = 0.70mm
; first layer extrusion width = 0.60mm

G21 ; set units to millimeters
M107
M104 S0
M83
M140 S70
G28
G1Y98F9000
M190 S70
G1X5Y98Z150F9000
M104 S210
G1X5Y98Z1F9000
G1Z0.05
M109 S210
G1Z5
G1X15
;G1E5F50
G90 ; use absolute coordinates
G92 E0
M82 ; use absolute distances for extrusion
G1 F1800.000 E-1.00000
G92 E0
G1 Z0.300 F7800.000
G1 X34.530 Y13.700
G1 F1800.000 E1.00000
G1 X-4.710 Y37.370 F540.000 E2.24678
G1 X-6.590 Y38.370 E2.30471
G1 X-7.120 Y38.620 E2.32066
G1 X-8.710 Y39.280 E2.36749
G1 X-9.250 Y39.470 E2.38307
G1 X-10.900 Y39.990 E2.43014
G1 X-11.470 Y40.150 E2.44624
G1 X-13.160 Y40.520 E2.49331
G1 X-13.720 Y40.610 E2.50874
G1 X-15.490 Y40.840 E2.55730
G1 X-16.060 Y40.890 E2.57287
G1 X-17.730 Y40.960 E2.61834
G1 X-18.280 Y40.960 E2.63331
G1 X-20.000 Y40.890 E2.68014
G1 X-20.610 Y40.840 E2.69679
G1 X-22.320 Y40.610 E2.74374
G1 X-22.850 Y40.520 E2.75836
G1 X-24.540 Y40.150 E2.80543
G1 X-25.110 Y39.990 E2.82154
G1 X-26.760 Y39.470 E2.86861
G1 X-27.300 Y39.280 E2.88418
G1 X-28.890 Y38.620 E2.93102
G1 X-29.400 Y38.380 E2.94635
G1 X-30.940 Y37.580 E2.99357
G1 X-31.460 Y37.280 E3.00990
G1 X-32.910 Y36.350 E3.05677
G1 X-33.360 Y36.030 E3.07179
G1 X-34.730 Y34.980 E3.11875
G1 X-35.150 Y34.630 E3.13362
G1 X-36.430 Y33.470 E3.18062
G1 X-36.880 Y33.020 E3.19794
G1 X-38.040 Y31.740 E3.24493
G1 X-38.390 Y31.320 E3.25981
G1 X-39.440 Y29.950 E3.30677
G1 X-39.770 Y29.480 E3.32239
G1 X-40.700 Y28.020 E3.36949
G1 X-40.980 Y27.540 E3.38461
G1 X-41.780 Y26.010 E3.43158
G1 X-42.030 Y25.480 E3.44752
G1 X-42.690 Y23.890 E3.49436
G1 X-42.880 Y23.350 E3.50994
G1 X-43.400 Y21.700 E3.55700
G1 X-43.560 Y21.130 E3.57311
G1 X-43.930 Y19.440 E3.62018
G1 X-44.020 Y18.910 E3.63480
G1 X-44.250 Y17.200 E3.68175
G1 X-44.300 Y16.590 E3.69840
G1 X-44.370 Y14.860 E3.74550
G1 X-44.370 Y14.320 E3.76020
G1 X-44.300 Y12.600 E3.80703
G1 X-44.250 Y11.990 E3.82368
G1 X-44.020 Y10.280 E3.87062
G1 X-43.930 Y9.750 E3.88525
G1 X-43.560 Y8.060 E3.93232
G1 X-34.420 Y-32.580 E5.06561
G1 X-34.270 Y-33.120 E5.08086
G1 X-34.080 Y-33.650 E5.09618
G1 X-33.850 Y-34.160 E5.11140
G1 X-33.420 Y-34.870 E5.13398
G1 X-32.900 Y-35.530 E5.15684
G1 X-32.510 Y-35.930 E5.17204
G1 X-31.840 Y-36.490 E5.19580
G1 X-31.310 Y-36.870 E5.21354
G1 X-30.060 Y-37.670 E5.25392
G1 X-29.520 Y-37.980 E5.27086
G1 X-28.200 Y-38.660 E5.31126
G1 X-27.720 Y-38.880 E5.32562
G1 X-26.350 Y-39.450 E5.36600
G1 X-25.810 Y-39.650 E5.38166
G1 X-24.390 Y-40.100 E5.42219
G1 X-23.830 Y-40.250 E5.43796
G1 X-22.390 Y-40.570 E5.47810
G1 X-21.800 Y-40.670 E5.49438
G1 X-20.330 Y-40.860 E5.53470
G1 X-19.760 Y-40.910 E5.55027
G1 X-18.010 Y-40.980 E5.59792
G1 X25.640 Y-40.980 E6.78549
G1 X26.240 Y-40.950 E6.80183
G1 X27.220 Y-40.860 E6.82861
G1 X27.760 Y-40.790 E6.84342
G1 X28.030 Y-40.740 E6.85089
G1 X28.560 Y-40.600 E6.86581
G1 X29.500 Y-40.310 E6.89257
G1 X29.980 Y-40.140 E6.90643
G1 X30.440 Y-39.940 E6.92007
G1 X31.740 Y-39.240 E6.96024
G1 X32.170 Y-38.960 E6.97420
G1 X32.580 Y-38.660 E6.98802
G1 X33.340 Y-38.040 E7.01471
G1 X33.740 Y-37.680 E7.02935
G1 X34.110 Y-37.300 E7.04378
G1 X34.900 Y-36.340 E7.07761
G1 X35.200 Y-35.930 E7.09143
G1 X35.480 Y-35.500 E7.10539
G1 X36.180 Y-34.200 E7.14556
G1 X36.470 Y-33.500 E7.16617
G1 X36.840 Y-32.320 E7.19982
G1 X43.880 Y-8.980 E7.86308
G1 X43.990 Y-8.470 E7.87727
G1 X44.060 Y-7.960 E7.89128
G1 X44.360 Y-4.790 E7.97791
G1 X44.370 Y-4.290 E7.99151
G1 X44.340 Y-3.780 E8.00541
G1 X44.060 Y-0.850 E8.08549
G1 X43.940 Y-0.070 E8.10696
G1 X43.800 Y0.440 E8.12135
G1 X42.940 Y3.260 E8.20156
G1 X42.780 Y3.740 E8.21533
G1 X42.460 Y4.430 E8.23602
G1 X41.080 Y7.020 E8.31586
G1 X40.810 Y7.480 E8.33038
G1 X40.350 Y8.110 E8.35160
G1 X38.310 Y10.580 E8.43876
G1 X37.960 Y10.940 E8.45242
G1 X37.580 Y11.280 E8.46629
G1 X35.310 Y13.150 E8.54631
G1 X34.601 Y13.650 E8.56991
G1 F1800.000 E7.56991
G92 E0
G1 X2.668 Y14.581 F7800.000
G1 F1800.000 E1.00000
G1 X2.591 Y16.382 F540.000 E1.04905
G1 X2.357 Y18.170 E1.09811
G1 X1.968 Y19.931 E1.14716
G1 X1.428 Y21.651 E1.19622
G1 X0.739 Y23.317 E1.24527
G1 X-0.092 Y24.918 E1.29433
G1 X-1.081 Y26.470 E1.34441
G1 X-2.155 Y27.871 E1.39244
G1 X-3.372 Y29.201 E1.44149
G1 X-4.700 Y30.420 E1.49054
G1 X-6.130 Y31.519 E1.53960
G1 X-7.650 Y32.489 E1.58865
G1 X-9.248 Y33.323 E1.63771
G1 X-10.949 Y34.028 E1.68779
G1 X-12.669 Y34.568 E1.73685
G1 X-14.393 Y34.951 E1.78489
G1 X-16.247 Y35.191 E1.83574
G1 X-17.981 Y35.268 E1.88297
G1 X-19.782 Y35.191 E1.93203
G1 X-21.570 Y34.957 E1.98108
G1 X-23.331 Y34.568 E2.03014
G1 X-25.051 Y34.028 E2.07919
G1 X-26.717 Y33.339 E2.12825
G1 X-28.318 Y32.508 E2.17730
G1 X-29.839 Y31.541 E2.22636
G1 X-31.271 Y30.445 E2.27541
G1 X-32.601 Y29.228 E2.32447
G1 X-33.820 Y27.900 E2.37352
G1 X-34.941 Y26.439 E2.42360
G1 X-35.908 Y24.918 E2.47266
G1 X-36.739 Y23.317 E2.52171
G1 X-37.428 Y21.651 E2.57077
G1 X-37.968 Y19.931 E2.61982
G1 X-38.357 Y18.170 E2.66888
G1 X-38.591 Y16.382 E2.71793
G1 X-38.668 Y14.581 E2.76698
G1 X-38.588 Y12.780 E2.81604
G1 X-38.351 Y10.992 E2.86509
G1 X-37.968 Y9.269 E2.91312
G1 X-37.428 Y7.549 E2.96217
G1 X-36.723 Y5.848 E3.01226
G1 X-35.889 Y4.250 E3.06131
G1 X-34.941 Y2.761 E3.10934
G1 X-33.845 Y1.329 E3.15839
G1 X-32.628 Y-0.001 E3.20745
G1 X-31.271 Y-1.245 E3.25753
G1 X-29.870 Y-2.319 E3.30556
G1 X-28.670 Y-3.086 E3.34430
G1 X-28.868 Y-3.463 E3.35590
G1 X-28.868 Y-31.337 E4.11424
G1 X-28.689 Y-31.700 E4.12525
G1 X-28.233 Y-32.047 E4.14085
G1 X-26.918 Y-32.883 E4.18325
G1 X-25.534 Y-33.602 E4.22566
G1 X-24.129 Y-34.184 E4.26704
G1 X-22.643 Y-34.654 E4.30945
G1 X-21.121 Y-34.993 E4.35186
G1 X-19.576 Y-35.198 E4.39427
G1 X-17.981 Y-35.268 E4.43771
G1 X-16.462 Y-35.201 E4.47909
G1 X-14.916 Y-35.000 E4.52150
G1 X-13.394 Y-34.664 E4.56390
G1 X-11.907 Y-34.197 E4.60631
G1 X-10.466 Y-33.602 E4.64872
G1 X-9.083 Y-32.883 E4.69113
G1 X-7.767 Y-32.047 E4.73354
G1 X-7.311 Y-31.700 E4.74913
G1 X-7.132 Y-31.337 E4.76014
G1 X-7.132 Y-3.463 E5.51849
G1 X-7.330 Y-3.086 E5.53008
G1 X-6.130 Y-2.319 E5.56883
G1 X-4.729 Y-1.245 E5.61685
G1 X-3.372 Y-0.001 E5.66694
G1 X-2.155 Y1.329 E5.71599
G1 X-1.081 Y2.730 E5.76402
G1 X-0.092 Y4.282 E5.81410
G1 X0.739 Y5.883 E5.86316
G1 X1.402 Y7.487 E5.91039
G1 X1.958 Y9.231 E5.96017
G1 X2.357 Y11.030 E6.01031
G1 X2.588 Y12.780 E6.05834
G1 X2.664 Y14.494 E6.10503
G1 F1800.000 E5.10503
G92 E0
G1 X11.550 Y6.790 F7800.000
G1 F1800.000 E1.00000
G1 X9.583 Y4.380 F540.000 E1.08463
G1 X8.124 Y1.633 E1.16926
G1 X7.229 Y-1.346 E1.25389
G1 X6.932 Y-4.443 E1.33852
G1 X7.245 Y-7.538 E1.42315
G1 X8.156 Y-10.512 E1.50778
G1 X9.583 Y-13.180 E1.59011
G1 X11.610 Y-15.650 E1.67704
G1 X13.949 Y-17.570 E1.75936
G1 X14.082 Y-17.651 E1.76360
G1 X14.082 Y-29.421 E2.08384
G1 X14.187 Y-30.503 E2.11340
G1 X14.513 Y-31.606 E2.14470
G1 X15.095 Y-32.695 E2.17830
G1 X15.831 Y-33.580 E2.20961
G1 X16.726 Y-34.302 E2.24090
G1 X17.666 Y-34.804 E2.26989
G1 X18.764 Y-35.147 E2.30118
G1 X19.929 Y-35.268 E2.33305
G1 X25.671 Y-35.268 E2.48929
G1 X26.753 Y-35.163 E2.51884
G1 X27.856 Y-34.837 E2.55015
G1 X28.945 Y-34.255 E2.58374
G1 X29.830 Y-33.519 E2.61506
G1 X30.552 Y-32.624 E2.64635
G1 X31.087 Y-31.606 E2.67764
G1 X31.397 Y-30.586 E2.70663
G1 X31.518 Y-29.421 E2.73850
G1 X31.518 Y-17.651 E3.05874
G1 X31.651 Y-17.570 E3.06298
G1 X33.990 Y-15.650 E3.14530
G1 X35.970 Y-13.251 E3.22993
G1 X37.444 Y-10.512 E3.31456
G1 X38.355 Y-7.538 E3.39919
G1 X38.668 Y-4.357 E3.48613
G1 X38.371 Y-1.346 E3.56845
G1 X37.476 Y1.633 E3.65309
G1 X35.970 Y4.451 E3.74002
G1 X33.990 Y6.850 E3.82465
G1 X31.651 Y8.770 E3.90697
G1 X28.912 Y10.244 E3.99160
G1 X25.937 Y11.155 E4.07623
G1 X22.843 Y11.468 E4.16086
G1 X19.663 Y11.155 E4.24780
G1 X16.688 Y10.244 E4.33243
G1 X14.020 Y8.817 E4.41476
G1 X11.611 Y6.851 E4.49934
G1 F1800.000 E3.49934
G92 E0
G1 X1.406 Y9.406 F7800.000
G1 F1800.000 E1.00000
G1 X1.783 Y11.105 F540.000 E1.04735
G1 X2.012 Y12.843 E1.09503
G1 X2.089 Y14.594 E1.14271
G1 X2.013 Y16.345 E1.19039
G1 X1.785 Y18.082 E1.23807
G1 X1.406 Y19.793 E1.28575
G1 X0.880 Y21.465 E1.33343
G1 X0.210 Y23.084 E1.38111
G1 X-0.599 Y24.639 E1.42880
G1 X-1.540 Y26.118 E1.47648
G1 X-2.607 Y27.508 E1.52416
G1 X-3.790 Y28.801 E1.57184
G1 X-5.082 Y29.985 E1.61952
G1 X-6.472 Y31.053 E1.66720
G1 X-7.950 Y31.995 E1.71488
G1 X-9.504 Y32.804 E1.76256
G1 X-11.135 Y33.480 E1.81059
G1 X-12.807 Y34.006 E1.85827
G1 X-14.518 Y34.385 E1.90597
G1 X-16.308 Y34.615 E1.95506
G1 X-18.006 Y34.689 E2.00131
G1 X-19.757 Y34.612 E2.04899
G1 X-21.482 Y34.385 E2.09633
G1 X-23.193 Y34.006 E2.14401
G1 X-24.865 Y33.480 E2.19169
G1 X-26.484 Y32.810 E2.23937
G1 X-28.039 Y32.001 E2.28705
G1 X-29.518 Y31.060 E2.33473
G1 X-30.908 Y29.993 E2.38242
G1 X-32.201 Y28.810 E2.43010
G1 X-33.385 Y27.518 E2.47778
G1 X-34.453 Y26.128 E2.52546
G1 X-35.395 Y24.650 E2.57314
G1 X-36.210 Y23.084 E2.62117
G1 X-36.880 Y21.465 E2.66885
G1 X-37.406 Y19.793 E2.71653
G1 X-37.785 Y18.082 E2.76421
G1 X-38.013 Y16.345 E2.81189
G1 X-38.089 Y14.594 E2.85957
G1 X-38.012 Y12.843 E2.90725
G1 X-37.783 Y11.105 E2.95493
G1 X-37.406 Y9.407 E3.00227
G1 X-36.876 Y7.723 E3.05030
G1 X-36.210 Y6.116 E3.09764
G1 X-35.401 Y4.561 E3.14532
G1 X-34.460 Y3.082 E3.19300
G1 X-33.385 Y1.682 E3.24102
G1 X-32.201 Y0.390 E3.28870
G1 X-30.918 Y-0.785 E3.33604
G1 X-29.518 Y-1.860 E3.38407
G1 X-28.050 Y-2.795 E3.43141
G1 X-27.595 Y-3.032 E3.44537
G1 X-27.922 Y-3.241 E3.45592
G1 X-28.230 Y-3.477 E3.46648
G1 X-28.289 Y-3.598 E3.47015
G1 X-28.289 Y-31.202 E4.22115
G1 X-28.230 Y-31.323 E4.22482
G1 X-27.922 Y-31.559 E4.23537
G1 X-26.639 Y-32.376 E4.27675
G1 X-25.301 Y-33.072 E4.31779
G1 X-23.907 Y-33.649 E4.35882
G1 X-22.469 Y-34.102 E4.39986
G1 X-20.996 Y-34.428 E4.44089
G1 X-19.501 Y-34.624 E4.48193
G1 X-17.994 Y-34.689 E4.52297
G1 X-16.499 Y-34.624 E4.56366
G1 X-15.004 Y-34.428 E4.60469
G1 X-13.531 Y-34.102 E4.64573
G1 X-12.093 Y-33.649 E4.68676
G1 X-10.699 Y-33.072 E4.72780
G1 X-9.361 Y-32.376 E4.76884
G1 X-8.088 Y-31.566 E4.80987
G1 X-7.770 Y-31.323 E4.82077
G1 X-7.711 Y-31.202 E4.82444
G1 X-7.711 Y-3.598 E5.57544
G1 X-7.770 Y-3.477 E5.57911
G1 X-8.078 Y-3.241 E5.58966
G1 X-8.405 Y-3.032 E5.60022
G1 X-7.950 Y-2.795 E5.61418
G1 X-6.482 Y-1.860 E5.66152
G1 X-5.092 Y-0.793 E5.70920
G1 X-3.790 Y0.399 E5.75723
G1 X-2.607 Y1.692 E5.80491
G1 X-1.540 Y3.082 E5.85259
G1 X-0.599 Y4.561 E5.90027
G1 X0.210 Y6.116 E5.94795
G1 X0.855 Y7.675 E5.99385
G1 X1.381 Y9.324 E6.04094
G1 F1800.000 E5.04094
G92 E0
G1 X10.080 Y4.082 F7800.000
G1 F1800.000 E1.00000
G1 X8.669 Y1.438 F540.000 E1.08154
G1 X7.807 Y-1.403 E1.16232
G1 X7.511 Y-4.386 E1.24387
G1 X7.802 Y-7.369 E1.32541
G1 X8.669 Y-10.238 E1.40696
G1 X10.095 Y-12.906 E1.48927
G1 X11.999 Y-15.221 E1.57081
G1 X14.294 Y-17.105 E1.65159
G1 X14.661 Y-17.304 E1.66294
G1 X14.661 Y-29.407 E1.99223
G1 X14.765 Y-30.445 E2.02062
G1 X15.069 Y-31.437 E2.04884
G1 X15.560 Y-32.350 E2.07705
G1 X16.220 Y-33.151 E2.10527
G1 X17.023 Y-33.805 E2.13347
G1 X17.913 Y-34.281 E2.16092
G1 X18.905 Y-34.585 E2.18913
G1 X19.943 Y-34.689 E2.21752
G1 X25.657 Y-34.689 E2.37299
G1 X26.695 Y-34.585 E2.40138
G1 X27.687 Y-34.281 E2.42959
G1 X28.577 Y-33.805 E2.45704
G1 X29.380 Y-33.151 E2.48524
G1 X30.040 Y-32.350 E2.51346
G1 X30.542 Y-31.411 E2.54244
G1 X30.840 Y-30.418 E2.57066
G1 X30.939 Y-29.407 E2.59828
G1 X30.939 Y-17.304 E2.92757
G1 X31.306 Y-17.105 E2.93892
G1 X33.601 Y-15.221 E3.01970
G1 X35.505 Y-12.906 E3.10124
G1 X36.920 Y-10.264 E3.18278
G1 X37.793 Y-7.397 E3.26433
G1 X38.089 Y-4.414 E3.34588
G1 X37.798 Y-1.431 E3.42742
G1 X36.920 Y1.464 E3.50973
G1 X35.505 Y4.106 E3.59128
G1 X33.621 Y6.401 E3.67205
G1 X31.306 Y8.305 E3.75360
G1 X28.638 Y9.731 E3.83591
G1 X25.769 Y10.598 E3.91746
G1 X22.814 Y10.889 E3.99823
G1 X19.831 Y10.598 E4.07977
G1 X16.962 Y9.731 E4.16132
G1 X14.294 Y8.305 E4.24363
G1 X11.999 Y6.421 E4.32441
G1 X10.132 Y4.151 E4.40436
G1 X10.570 Y3.772 F7800.000
G1 X9.210 Y1.229 F540.000 E4.48281
G1 X8.373 Y-1.530 E4.56127
G1 X8.091 Y-4.400 E4.63972
G1 X8.373 Y-7.270 E4.71817
G1 X9.210 Y-10.029 E4.79662
G1 X10.570 Y-12.572 E4.87507
G1 X12.399 Y-14.801 E4.95352
G1 X14.628 Y-16.630 E5.03197
G1 X15.239 Y-16.957 E5.05083
G1 X15.239 Y-29.386 E5.38898
G1 X15.331 Y-30.318 E5.41447
G1 X15.600 Y-31.202 E5.43959
G1 X16.035 Y-32.017 E5.46472
G1 X16.620 Y-32.730 E5.48983
G1 X17.333 Y-33.315 E5.51493
G1 X18.148 Y-33.750 E5.54007
G1 X19.032 Y-34.019 E5.56519
G1 X19.964 Y-34.111 E5.59068
G1 X25.636 Y-34.111 E5.74499
G1 X26.568 Y-34.019 E5.77048
G1 X27.452 Y-33.750 E5.79560
G1 X28.267 Y-33.315 E5.82074
G1 X28.980 Y-32.730 E5.84584
G1 X29.565 Y-32.017 E5.87095
G1 X30.000 Y-31.202 E5.89608
G1 X30.269 Y-30.318 E5.92120
G1 X30.361 Y-29.386 E5.94670
G1 X30.361 Y-16.957 E6.28484
G1 X30.972 Y-16.630 E6.30370
G1 X33.201 Y-14.801 E6.38215
G1 X35.030 Y-12.572 E6.46060
G1 X36.390 Y-10.029 E6.53905
G1 X37.227 Y-7.270 E6.61750
G1 X37.509 Y-4.400 E6.69595
G1 X37.227 Y-1.530 E6.77441
G1 X36.390 Y1.229 E6.85286
G1 X35.030 Y3.772 E6.93131
G1 X33.201 Y6.001 E7.00976
G1 X30.972 Y7.830 E7.08821
G1 X28.429 Y9.190 E7.16666
G1 X25.670 Y10.027 E7.24511
G1 X22.800 Y10.309 E7.32356
G1 X19.930 Y10.027 E7.40201
G1 X17.171 Y9.190 E7.48047
G1 X14.628 Y7.830 E7.55892
G1 X12.399 Y6.001 E7.63737
G1 X10.625 Y3.839 E7.71346
G1 X10.842 Y3.262 F7800.000
G1 F1800.000 E6.71346
G92 E0
G1 X29.082 Y-31.694 F7800.000
G1 F1800.000 E1.00000
G1 X29.463 Y-30.979 F540.000 E1.02204
G1 X29.699 Y-30.205 E1.04407
G1 X29.782 Y-29.357 E1.06723
G1 X29.782 Y-16.610 E1.41404
G1 X30.649 Y-16.147 E1.44078
G1 X32.790 Y-14.390 E1.51613
G1 X34.547 Y-12.249 E1.59148
G1 X35.853 Y-9.807 E1.66683
G1 X36.657 Y-7.156 E1.74218
G1 X36.928 Y-4.400 E1.81753
G1 X36.657 Y-1.644 E1.89289
G1 X35.853 Y1.007 E1.96824
G1 X34.547 Y3.449 E2.04359
G1 X32.790 Y5.590 E2.11894
G1 X30.649 Y7.347 E2.19429
G1 X28.207 Y8.653 E2.26964
G1 X25.556 Y9.457 E2.34499
G1 X22.800 Y9.728 E2.42034
G1 X20.044 Y9.457 E2.49569
G1 X17.393 Y8.653 E2.57104
G1 X14.951 Y7.347 E2.64639
G1 X12.810 Y5.590 E2.72174
G1 X11.053 Y3.449 E2.79709
G1 X9.747 Y1.007 E2.87244
G1 X8.943 Y-1.644 E2.94779
G1 X8.672 Y-4.400 E3.02315
G1 X8.943 Y-7.156 E3.09850
G1 X9.747 Y-9.807 E3.17385
G1 X11.053 Y-12.249 E3.24920
G1 X12.810 Y-14.390 E3.32455
G1 X14.951 Y-16.147 E3.39990
G1 X15.818 Y-16.610 E3.42664
G1 X15.818 Y-29.357 E3.77345
G1 X15.901 Y-30.205 E3.79661
G1 X16.137 Y-30.979 E3.81863
G1 X16.518 Y-31.694 E3.84068
G1 X17.031 Y-32.319 E3.86267
G1 X17.656 Y-32.832 E3.88467
G1 X18.371 Y-33.213 E3.90671
G1 X19.145 Y-33.449 E3.92874
G1 X19.993 Y-33.532 E3.95190
G1 X25.607 Y-33.532 E4.10466
G1 X26.455 Y-33.449 E4.12783
G1 X27.229 Y-33.213 E4.14985
G1 X27.944 Y-32.832 E4.17189
G1 X28.569 Y-32.319 E4.19389
G1 X29.027 Y-31.761 E4.21352
G1 X24.666 Y-13.782 F7800.000
G1 X26.461 Y-13.238 F540.000 E4.26454
G1 X28.114 Y-12.354 E4.31556
G1 X29.564 Y-11.164 E4.36658
G1 X30.754 Y-9.714 E4.41759
G1 X31.638 Y-8.061 E4.46861
G1 X32.182 Y-6.266 E4.51963
G1 X32.366 Y-4.400 E4.57065
G1 X32.182 Y-2.534 E4.62167
G1 X31.638 Y-0.739 E4.67268
G1 X30.754 Y0.914 E4.72370
G1 X29.564 Y2.364 E4.77472
G1 X28.114 Y3.554 E4.82574
G1 X26.461 Y4.438 E4.87675
G1 X24.666 Y4.982 E4.92777
G1 X22.800 Y5.166 E4.97879
G1 X20.934 Y4.982 E5.02981
G1 X19.139 Y4.438 E5.08083
G1 X17.486 Y3.554 E5.13184
G1 X16.036 Y2.364 E5.18286
G1 X14.846 Y0.914 E5.23388
G1 X13.962 Y-0.739 E5.28490
G1 X13.418 Y-2.534 E5.33591
G1 X13.234 Y-4.400 E5.38693
G1 X13.418 Y-6.266 E5.43795
G1 X13.962 Y-8.061 E5.48897
G1 X14.846 Y-9.714 E5.53999
G1 X16.036 Y-11.164 E5.59100
G1 X17.486 Y-12.354 E5.64202
G1 X19.139 Y-13.238 E5.69304
G1 X20.934 Y-13.782 E5.74406
G1 X22.800 Y-13.966 E5.79507
G1 X24.580 Y-13.790 E5.84373
G1 X25.062 Y-14.204 F7800.000
G1 X24.780 Y-14.352
G1 X26.683 Y-13.775 F540.000 E5.89785
G1 X28.437 Y-12.837 E5.95197
G1 X29.975 Y-11.575 E6.00609
G1 X31.237 Y-10.037 E6.06020
