; generated by Slic3r 0.9.9 on 2013-07-20 at 00:00:32

; layer_height = 0.3
; perimeters = 2
; top_solid_layers = 3
; bottom_solid_layers = 3
; fill_density = 0.3
; perimeter_speed = 30
; infill_speed = 60
; travel_speed = 130
; nozzle_diameter = 0.5
; filament_diameter = 2.85
; extrusion_multiplier = 1
; perimeters extrusion width = 0.70mm
; infill extrusion width = 0.70mm
; solid infill extrusion width = 0.70mm
; top infill extrusion width = 0.70mm
; first layer extrusion width = 0.60mm

G21 ; set units to millimeters
M107
M104 S0
M83
M140 S70
G28
G1Y98F9000
M190 S70
G1X5Y98Z150F9000
M104 S210
G1X5Y98Z1F9000
G1Z0.05
M109 S210
G1Z5
G1X15
;G1E5F50
G90 ; use absolute coordinates
G92 E0
M82 ; use absolute distances for extrusion
G1 F1800.000 E-1.00000
G92 E0
G1 Z0.300 F7800.000
G1 X0.143 Y-47.053
G1 F1800.000 E1.00000
G1 X33.583 Y-47.453 F540.000 E1.90986
G1 X34.313 Y-47.423 E1.92973
G1 X37.233 Y-47.133 E2.00957
G1 X37.743 Y-47.063 E2.02357
G1 X38.233 Y-46.953 E2.03724
G1 X41.553 Y-45.953 E2.13157
G1 X42.043 Y-45.763 E2.14587
G1 X42.513 Y-45.533 E2.16010
G1 X45.103 Y-44.143 E2.24008
G1 X45.763 Y-43.733 E2.26122
G1 X46.173 Y-43.423 E2.27520
G1 X48.643 Y-41.383 E2.36236
G1 X49.003 Y-41.033 E2.37602
G1 X49.343 Y-40.653 E2.38989
G1 X51.213 Y-38.383 E2.46991
G1 X51.663 Y-37.763 E2.49075
G1 X51.933 Y-37.313 E2.50503
G1 X53.443 Y-34.493 E2.59206
G1 X53.653 Y-34.013 E2.60631
G1 X53.823 Y-33.513 E2.62068
G1 X54.673 Y-30.693 E2.70081
G1 X54.853 Y-29.953 E2.72153
G1 X54.923 Y-29.443 E2.73554
G1 X55.233 Y-26.263 E2.82246
G1 X55.243 Y-25.743 E2.83661
G1 X55.213 Y-25.223 E2.85078
G1 X54.923 Y-22.293 E2.93089
G1 X54.853 Y-21.783 E2.94489
G1 X54.743 Y-21.283 E2.95882
G1 X53.823 Y-18.233 E3.04550
G1 X36.223 Y39.037 E4.67554
G1 X36.063 Y39.507 E4.68905
G1 X35.863 Y39.957 E4.70244
G1 X35.293 Y41.047 E4.73591
G1 X35.003 Y41.537 E4.75140
G1 X34.853 Y41.767 E4.75887
G1 X34.513 Y42.207 E4.77400
G1 X33.883 Y42.957 E4.80065
G1 X33.413 Y43.457 E4.81932
G1 X33.073 Y43.767 E4.83183
G1 X32.323 Y44.397 E4.85848
G1 X31.883 Y44.737 E4.87361
G1 X31.413 Y45.037 E4.88878
G1 X30.293 Y45.637 E4.92335
G1 X29.833 Y45.857 E4.93722
G1 X29.593 Y45.957 E4.94430
G1 X29.103 Y46.117 E4.95832
G1 X27.893 Y46.477 E4.99267
G1 X27.393 Y46.587 E5.00660
G1 X26.883 Y46.657 E5.02060
G1 X25.503 Y46.777 E5.05829
G1 X1.793 Y47.437 E5.70361
G1 X-22.867 Y46.777 E6.37476
G1 X-23.357 Y46.737 E6.38814
G1 X-24.587 Y46.607 E6.42179
G1 X-25.077 Y46.527 E6.43530
G1 X-25.567 Y46.397 E6.44909
G1 X-26.737 Y46.037 E6.48239
G1 X-27.217 Y45.857 E6.49634
G1 X-28.537 Y45.177 E6.53674
G1 X-29.007 Y44.897 E6.55162
G1 X-29.457 Y44.587 E6.56649
G1 X-30.797 Y43.467 E6.61400
G1 X-31.137 Y43.107 E6.62748
G1 X-32.087 Y41.957 E6.66806
G1 X-32.397 Y41.517 E6.68270
G1 X-32.667 Y41.047 E6.69745
G1 X-33.127 Y40.177 E6.72422
G1 X-33.497 Y39.347 E6.74895
G1 X-53.707 Y-16.553 E8.36614
G1 X-53.807 Y-16.873 E8.37526
G1 X-54.667 Y-19.693 E8.45548
G1 X-54.857 Y-20.453 E8.47679
G1 X-54.927 Y-20.963 E8.49079
G1 X-55.217 Y-23.893 E8.57090
G1 X-55.247 Y-24.673 E8.59214
G1 X-55.217 Y-25.193 E8.60631
G1 X-54.927 Y-28.113 E8.68614
G1 X-54.897 Y-28.373 E8.69326
G1 X-54.797 Y-28.883 E8.70740
G1 X-54.667 Y-29.383 E8.72146
G1 X-53.647 Y-32.683 E8.81543
G1 X-53.327 Y-33.373 E8.83612
G1 X-51.947 Y-35.963 E8.91597
G1 X-51.537 Y-36.633 E8.93734
G1 X-51.227 Y-37.043 E8.95132
G1 X-49.367 Y-39.313 E9.03117
G1 X-48.847 Y-39.883 E9.05216
G1 X-48.657 Y-40.053 E9.05909
G1 X-46.187 Y-42.093 E9.14625
G1 X-45.557 Y-42.553 E9.16747
G1 X-45.097 Y-42.823 E9.18198
G1 X-42.507 Y-44.203 E9.26183
G1 X-41.817 Y-44.523 E9.28252
G1 X-38.517 Y-45.543 E9.37649
G1 X-38.007 Y-45.683 E9.39088
G1 X-37.487 Y-45.773 E9.40524
G1 X-34.307 Y-46.083 E9.49217
G1 X-33.857 Y-46.113 E9.50444
G1 X0.057 Y-47.051 E10.42746
G1 F1800.000 E9.42746
G92 E0
G1 X1.983 Y27.718 F7800.000
G1 F1800.000 E1.00000
G1 X3.558 Y28.140 F540.000 E1.04434
G1 X4.710 Y29.292 E1.08868
G1 X5.132 Y30.867 E1.13302
G1 X4.710 Y32.441 E1.17736
G1 X3.558 Y33.593 E1.22170
G1 X1.983 Y34.015 E1.26604
G1 X0.409 Y33.593 E1.31038
G1 X-0.743 Y32.441 E1.35472
G1 X-1.165 Y30.867 E1.39906
G1 X-0.743 Y29.292 E1.44340
G1 X0.409 Y28.140 E1.48774
G1 X1.900 Y27.741 E1.52972
G1 X1.983 Y28.317 F7800.000
G1 X3.258 Y28.659 F540.000 E1.56562
G1 X4.191 Y29.592 E1.60153
G1 X4.533 Y30.867 E1.63743
G1 X4.191 Y32.141 E1.67334
G1 X3.258 Y33.075 E1.70924
G1 X1.983 Y33.416 E1.74515
G1 X0.709 Y33.075 E1.78105
G1 X-0.225 Y32.141 E1.81696
G1 X-0.566 Y30.867 E1.85286
G1 X-0.225 Y29.592 E1.88876
G1 X0.709 Y28.659 E1.92467
G1 X1.900 Y28.340 E1.95821
G1 X2.315 Y27.843 F7800.000
G1 F1800.000 E0.95821
G92 E0
G1 X-4.471 Y-5.382 F7800.000
G1 F1800.000 E1.00000
G1 X-3.624 Y-5.466 F540.000 E1.02316
G1 X0.116 Y-5.466 E1.12491
G1 X0.116 Y2.363 E1.33788
G1 X-1.354 Y2.809 E1.37968
G1 X-2.862 Y3.615 E1.42620
G1 X-4.184 Y4.699 E1.47271
G1 X-5.269 Y6.021 E1.51923
G1 X-6.075 Y7.529 E1.56575
G1 X-6.571 Y9.165 E1.61227
G1 X-6.739 Y10.867 E1.65879
G1 X-6.571 Y12.568 E1.70531
G1 X-6.075 Y14.204 E1.75182
G1 X-5.269 Y15.712 E1.79834
G1 X-4.184 Y17.034 E1.84486
G1 X-2.862 Y18.119 E1.89138
G1 X-1.354 Y18.925 E1.93789
G1 X0.282 Y19.421 E1.98441
G1 X1.983 Y19.589 E2.03093
G1 X3.685 Y19.421 E2.07745
G1 X5.321 Y18.925 E2.12397
G1 X6.829 Y18.119 E2.17049
G1 X8.151 Y17.034 E2.21700
G1 X9.235 Y15.712 E2.26352
G1 X10.041 Y14.204 E2.31004
G1 X10.538 Y12.568 E2.35656
G1 X10.705 Y10.867 E2.40308
G1 X10.538 Y9.165 E2.44960
G1 X10.041 Y7.529 E2.49612
G1 X9.235 Y6.021 E2.54263
G1 X8.151 Y4.699 E2.58915
G1 X6.829 Y3.615 E2.63567
G1 X5.321 Y2.809 E2.68219
G1 X3.851 Y2.363 E2.72398
G1 X3.851 Y-5.466 E2.93696
G1 X7.591 Y-5.466 E3.03870
G1 X8.438 Y-5.382 E3.06186
G1 X9.213 Y-5.147 E3.08389
G1 X9.927 Y-4.765 E3.10593
G1 X10.553 Y-4.253 E3.12793
G1 X11.065 Y-3.627 E3.14992
G1 X11.447 Y-2.913 E3.17197
G1 X11.682 Y-2.138 E3.19399
G1 X11.766 Y-1.291 E3.21716
G1 X11.766 Y17.124 E3.71816
G1 X11.682 Y17.971 E3.74132
G1 X11.447 Y18.746 E3.76335
G1 X11.065 Y19.461 E3.78539
G1 X10.553 Y20.086 E3.80739
G1 X9.927 Y20.598 E3.82938
G1 X9.213 Y20.980 E3.85143
G1 X8.438 Y21.215 E3.87345
G1 X7.591 Y21.299 E3.89662
G1 X6.116 Y21.299 E3.93675
G1 X6.116 Y35.824 E4.33193
G1 X6.032 Y36.671 E4.35510
G1 X5.797 Y37.446 E4.37712
G1 X5.415 Y38.161 E4.39917
G1 X4.903 Y38.786 E4.42116
G1 X4.277 Y39.298 E4.44316
G1 X3.563 Y39.680 E4.46520
G1 X2.788 Y39.915 E4.48723
G1 X1.983 Y39.995 E4.50922
G1 X1.179 Y39.915 E4.53122
G1 X0.404 Y39.680 E4.55325
G1 X-0.311 Y39.298 E4.57529
G1 X-0.936 Y38.786 E4.59729
G1 X-1.448 Y38.161 E4.61928
G1 X-1.830 Y37.446 E4.64133
G1 X-2.065 Y36.671 E4.66335
G1 X-2.149 Y35.824 E4.68652
G1 X-2.149 Y21.299 E5.08170
G1 X-3.624 Y21.299 E5.12183
G1 X-4.471 Y21.215 E5.14500
G1 X-5.246 Y20.980 E5.16702
G1 X-5.961 Y20.598 E5.18907
G1 X-6.586 Y20.086 E5.21106
G1 X-7.098 Y19.461 E5.23306
G1 X-7.480 Y18.746 E5.25510
G1 X-7.715 Y17.971 E5.27713
G1 X-7.799 Y17.124 E5.30029
G1 X-7.799 Y-1.291 E5.80129
G1 X-7.715 Y-2.138 E5.82446
G1 X-7.480 Y-2.913 E5.84648
G1 X-7.098 Y-3.627 E5.86853
G1 X-6.586 Y-4.253 E5.89052
G1 X-5.961 Y-4.765 E5.91252
G1 X-5.246 Y-5.147 E5.93456
G1 X-4.554 Y-5.357 E5.95422
G1 X-4.585 Y-5.952 F7800.000
G1 X-3.652 Y-6.044 F540.000 E5.97972
G1 X0.694 Y-6.044 E6.09797
G1 X0.694 Y2.853 E6.34003
G1 X0.395 Y2.882 E6.34820
G1 X-1.132 Y3.346 E6.39162
G1 X-2.539 Y4.098 E6.43504
G1 X-3.773 Y5.110 E6.47845
G1 X-4.785 Y6.344 E6.52187
G1 X-5.538 Y7.751 E6.56529
G1 X-6.001 Y9.278 E6.60871
G1 X-6.157 Y10.867 E6.65212
G1 X-6.001 Y12.455 E6.69554
G1 X-5.538 Y13.982 E6.73896
G1 X-4.785 Y15.389 E6.78238
G1 X-3.806 Y16.583 E6.82439
G1 X-2.539 Y17.635 E6.86919
G1 X-1.132 Y18.388 E6.91261
G1 X0.395 Y18.851 E6.95602
G1 X1.983 Y19.007 E6.99944
G1 X3.571 Y18.851 E7.04286
G1 X5.099 Y18.388 E7.08628
G1 X6.506 Y17.635 E7.12969
G1 X7.740 Y16.623 E7.17311
G1 X8.752 Y15.389 E7.21653
G1 X9.504 Y13.982 E7.25995
G1 X9.968 Y12.455 E7.30336
G1 X10.124 Y10.867 E7.34678
G1 X9.968 Y9.278 E7.39020
G1 X9.504 Y7.751 E7.43362
G1 X8.752 Y6.344 E7.47704
G1 X7.740 Y5.110 E7.52045
G1 X6.506 Y4.098 E7.56387
G1 X5.099 Y3.346 E7.60729
G1 X3.571 Y2.882 E7.65071
G1 X3.273 Y2.853 E7.65888
G1 X3.273 Y-6.044 E7.90094
G1 X7.619 Y-6.044 E8.01919
G1 X8.552 Y-5.952 E8.04468
G1 X9.435 Y-5.684 E8.06980
G1 X10.250 Y-5.249 E8.09494
G1 X10.964 Y-4.664 E8.12004
G1 X11.549 Y-3.950 E8.14515
G1 X11.984 Y-3.135 E8.17028
G1 X12.252 Y-2.252 E8.19541
G1 X12.344 Y-1.319 E8.22090
G1 X12.344 Y17.152 E8.72345
G1 X12.252 Y18.085 E8.74894
G1 X11.984 Y18.968 E8.77406
G1 X11.549 Y19.783 E8.79920
G1 X10.964 Y20.497 E8.82430
G1 X10.250 Y21.082 E8.84941
G1 X9.435 Y21.517 E8.87454
G1 X8.552 Y21.786 E8.89966
G1 X7.619 Y21.877 E8.92516
G1 X6.694 Y21.877 E8.95032
G1 X6.694 Y35.852 E9.33054
G1 X6.602 Y36.785 E9.35603
G1 X6.334 Y37.668 E9.38115
G1 X5.899 Y38.483 E9.40629
G1 X5.314 Y39.197 E9.43139
G1 X4.600 Y39.782 E9.45650
G1 X3.785 Y40.217 E9.48163
G1 X2.902 Y40.486 E9.50675
G1 X1.983 Y40.576 E9.53186
G1 X1.065 Y40.486 E9.55696
G1 X0.182 Y40.217 E9.58208
G1 X-0.633 Y39.782 E9.60722
G1 X-1.347 Y39.197 E9.63232
G1 X-1.932 Y38.483 E9.65743
G1 X-2.367 Y37.668 E9.68256
G1 X-2.636 Y36.785 E9.70768
G1 X-2.727 Y35.852 E9.73318
G1 X-2.727 Y21.877 E10.11339
G1 X-3.652 Y21.877 E10.13856
G1 X-4.585 Y21.786 E10.16405
G1 X-5.468 Y21.517 E10.18917
G1 X-6.283 Y21.082 E10.21431
G1 X-6.997 Y20.497 E10.23941
G1 X-7.582 Y19.783 E10.26452
G1 X-8.017 Y18.968 E10.28965
G1 X-8.286 Y18.085 E10.31477
G1 X-8.377 Y17.152 E10.34027
G1 X-8.377 Y-1.319 E10.84282
G1 X-8.286 Y-2.252 E10.86831
G1 X-8.017 Y-3.135 E10.89343
G1 X-7.582 Y-3.950 E10.91856
G1 X-6.997 Y-4.664 E10.94367
G1 X-6.283 Y-5.249 E10.96877
G1 X-5.468 Y-5.684 E10.99391
G1 X-4.668 Y-5.927 E11.01667
G1 X-4.218 Y-5.505 F7800.000
G1 F1800.000 E10.01667
G92 E0
G1 X-1.730 Y32.287 F7800.000
G1 F1800.000 E1.00000
G1 X4.532 Y38.548 F1080.000 E1.25075
G1 X4.064 Y38.931 E1.26789
G1 X-1.730 Y33.138 E1.49989
G1 X-1.730 Y33.990 E1.52401
G1 X3.512 Y39.232 E1.73393
G1 X2.879 Y39.450 E1.75290
G1 X-1.730 Y34.842 E1.93745
G1 X-1.730 Y35.693 E1.96156
G1 X2.136 Y39.558 E2.11635
G1 X1.213 Y39.488 E2.14255
G1 X-1.638 Y36.637 E2.25673
G1 X-0.637 Y38.489 E2.31634
G1 X1.029 Y34.193 F7800.000
G1 X4.928 Y38.093 F1080.000 E2.47251
G1 X5.256 Y37.569 E2.49002
G1 X2.104 Y34.417 E2.61624
G1 X2.776 Y34.237 E2.63593
G1 X5.504 Y36.966 E2.74522
G1 X5.651 Y36.261 E2.76561
G1 X3.447 Y34.057 E2.85388
G1 X3.993 Y33.751 E2.87159
G1 X5.696 Y35.454 E2.93981
G1 X5.696 Y34.603 E2.96392
G1 X4.419 Y33.325 E3.01509
G1 X4.844 Y32.899 E3.03214
G1 X5.696 Y33.751 E3.06625
G1 X5.696 Y32.900 E3.09037
G1 X5.270 Y32.474 E3.10743
G1 X5.696 Y32.048 E3.12448
G1 F1800.000 E2.12448
G92 E0
G1 X-1.234 Y32.189 F7800.000
G1 F1800.000 E1.00000
G1 X-1.740 Y31.684 F360.000 E1.01047
G1 X-1.396 Y31.587 E1.01571
G1 X-1.740 Y31.243 E1.02284
G1 X-1.557 Y30.985 E1.02748
G1 X-1.740 Y30.802 E1.03127
G1 X-1.514 Y30.587 E1.03584
G1 X-1.740 Y30.361 E1.04052
G1 X-1.421 Y30.240 E1.04552
G1 X-1.675 Y29.985 E1.05080
G1 X-1.455 Y29.765 E1.05537
G1 X-1.328 Y29.892 E1.05801
G1 X-1.234 Y29.544 E1.06329
G1 X-1.729 Y29.686 F7800.000
G1 X-1.316 Y29.272 F1080.000 E1.07937
G1 X-1.730 Y28.858 E1.09546
G1 X-1.730 Y28.031 E1.11821
G1 X-0.902 Y28.858 E1.15038
G1 X-0.489 Y28.445 E1.16647
G1 X-1.730 Y27.204 E1.21473
G1 X-1.730 Y26.377 E1.23747
G1 X-0.075 Y28.031 E1.30182
G1 X0.423 Y27.702 E1.31823
G1 X-1.730 Y25.550 E1.40195
G1 X-1.730 Y24.723 E1.42469
G1 X1.075 Y27.527 E1.53378
G1 X1.727 Y27.353 E1.55235
G1 X-1.730 Y23.896 E1.68680
G1 X-1.730 Y23.069 E1.70955
G1 X2.670 Y27.468 E1.88066
G1 X5.696 Y27.186 F7800.000
G1 X-2.934 Y18.556 F1080.000 E2.21633
G1 X-1.276 Y19.387 E2.26734
G1 X5.696 Y26.359 E2.53853
G1 X5.696 Y25.532 E2.56127
G1 X-0.089 Y19.747 E2.78628
G1 X0.894 Y19.903 E2.81365
G1 X5.696 Y24.705 E3.00043
G1 X5.696 Y23.878 E3.02318
G1 X1.811 Y19.993 E3.17428
G1 X2.595 Y19.950 E3.19586
G1 X5.696 Y23.051 E3.31648
G1 X5.696 Y22.224 E3.33922
G1 X3.348 Y19.876 E3.43055
G1 X4.049 Y19.749 E3.45013
G1 X5.696 Y21.397 E3.51421
G1 X6.006 Y20.880 E3.53079
G1 X4.683 Y19.556 E3.58225
G1 X5.318 Y19.364 E3.60049
G1 X6.833 Y20.880 E3.65943
G1 X7.652 Y20.871 E3.68196
G1 X5.882 Y19.101 E3.75083
G1 X6.420 Y18.813 E3.76764
G1 X8.397 Y20.790 E3.84453
G1 X9.032 Y20.597 E3.86276
G1 X6.959 Y18.524 E3.94336
G1 X7.430 Y18.168 E3.95960
G1 X9.574 Y20.312 E4.04298
G1 X10.047 Y19.958 E4.05924
G1 X7.884 Y17.795 E4.14336
G1 X8.339 Y17.422 E4.15952
G1 X10.457 Y19.541 E4.24192
G1 X10.803 Y19.060 E4.25822
G1 X8.731 Y16.988 E4.33882
G1 X9.104 Y16.534 E4.35499
G1 X11.080 Y18.510 E4.43185
G1 X11.270 Y17.873 E4.45013
G1 X9.477 Y16.079 E4.51990
G1 X9.790 Y15.565 E4.53645
G1 X11.345 Y17.120 E4.59693
G1 X11.346 Y16.295 E4.61963
G1 X10.078 Y15.026 E4.66897
G1 X10.366 Y14.487 E4.68578
G1 X11.346 Y15.468 E4.72391
G1 X11.346 Y14.640 E4.74666
G1 X10.580 Y13.874 E4.77647
G1 X10.772 Y13.239 E4.79471
G1 X11.346 Y13.813 E4.81703
G1 X11.346 Y12.986 E4.83978
G1 F1800.000 E3.83978
G92 E0
G1 X-1.730 Y21.415 F7800.000
G1 F1800.000 E1.00000
G1 X5.696 Y28.840 F1080.000 E1.28882
G1 X5.696 Y29.667 E1.31157
G1 X-1.730 Y22.242 E1.60039
G1 X-2.265 Y20.880 F7800.000
G1 X-7.380 Y15.765 F1080.000 E1.79933
G1 X-7.380 Y16.592 E1.82208
G1 X-3.092 Y20.880 E1.98885
G1 X-3.953 Y20.845 E2.01256
G1 X-7.345 Y17.453 E2.14449
G1 X-7.113 Y18.513 E2.17432
G1 X-5.013 Y20.613 E2.25600
G1 X-5.706 Y15.784 F7800.000
G1 X-7.380 Y14.110 F1080.000 E2.32110
G1 X-7.380 Y14.937 E2.34385
G1 X5.696 Y28.013 E2.85242
G1 X-6.537 Y14.126 F7800.000
G1 X-7.380 Y13.283 F1080.000 E2.88520
G1 X-6.918 Y12.918 E2.90140
G1 X-6.897 Y12.939 E2.90222
G1 F1800.000 E1.90222
G92 E0
G1 X5.201 Y32.189 F7800.000
G1 F1800.000 E1.00000
G1 X5.422 Y31.969 F360.000 E1.00457
G1 X5.294 Y31.841 E1.00721
G1 X5.387 Y31.494 E1.01248
G1 X5.642 Y31.748 E1.01776
G1 X5.706 Y31.372 E1.02336
G1 X5.480 Y31.146 E1.02804
G1 X5.706 Y30.931 E1.03261
G1 X5.524 Y30.748 E1.03640
G1 X5.706 Y30.490 E1.04103
G1 X5.362 Y30.146 E1.04816
G1 X5.706 Y30.049 E1.05340
G1 X5.201 Y29.544 E1.06388
G1 F1800.000 E0.06388
G92 E0
G1 X11.022 Y13.002 F7800.000
G1 F1800.000 E1.00000
G1 X11.176 Y12.097 F360.000 E1.03235
G1 X11.094 Y11.102 F7800.000
G1 X11.356 Y10.619 F360.000 E1.04597
G1 X11.176 Y9.636 F7800.000
G1 X11.176 Y8.708 F360.000 E1.07460
G1 X10.871 Y8.818 F7800.000
G1 X11.346 Y8.425 F1080.000 E1.09241
G1 X10.492 Y7.571 E1.12728
G1 X11.346 Y7.557 E1.15193
G1 X9.596 Y5.807 E1.22339
G1 X11.346 Y5.820 F7800.000
G1 X4.270 Y-1.256 F1080.000 E1.51231
G1 X4.270 Y-0.387 E1.53738
G1 X11.346 Y6.688 E1.82631
G1 X11.346 Y4.952 F7800.000
G1 X4.270 Y-2.124 F1080.000 E2.11523
G1 X4.270 Y-2.992 E2.14030
G1 X11.346 Y4.083 E2.42923
G1 X11.346 Y3.215 E2.45430
G1 X4.270 Y-3.861 E2.74323
G1 X4.270 Y-4.729 E2.76830
G1 X11.346 Y2.347 E3.05722
G1 X11.346 Y1.478 E3.08229
G1 X4.822 Y-5.046 E3.34871
G1 X5.690 Y-5.046 E3.37379
G1 X11.346 Y0.610 E3.60475
G1 X11.346 Y-0.258 E3.62982
G1 X6.558 Y-5.046 E3.82533
G1 X7.426 Y-5.046 E3.85040
G1 X11.346 Y-1.126 E4.01046
G1 X11.262 Y-2.079 E4.03808
G1 X8.379 Y-4.962 E4.15577
G1 X10.255 Y-3.954 E4.21726
G1 X4.270 Y0.481 F7800.000
G1 X7.043 Y3.254 F1080.000 E4.33049
G1 X5.279 Y2.358 E4.38763
G1 X4.270 Y1.349 E4.42881
G1 F1800.000 E3.42881
G92 E0
G1 X-7.210 Y9.636 F7800.000
G1 F1800.000 E1.00000
G1 X-7.055 Y8.731 F360.000 E1.03235
G1 X-7.379 Y8.747 F7800.000
G1 X-6.804 Y8.488 F1080.000 E1.04987
G1 X-7.380 Y7.912 E1.07247
G1 X-6.610 Y7.847 E1.09392
G1 X-7.380 Y7.077 E1.12414
G1 X-7.380 Y6.243 E1.14731
G1 X-6.391 Y7.231 E1.18611
G1 X-6.100 Y6.687 E1.20323
G1 X-7.380 Y5.408 E1.25345
G1 X-7.380 Y4.573 E1.27662
G1 X-5.810 Y6.143 E1.33825
G1 X-5.489 Y5.629 E1.35507
G1 X-7.380 Y3.738 E1.42928
G1 X-7.380 Y2.904 E1.45245
G1 X-5.113 Y5.170 E1.54142
G1 X-4.737 Y4.712 E1.55788
G1 X-7.380 Y2.069 E1.66162
G1 X-7.380 Y1.234 E1.68480
G1 X-4.334 Y4.280 E1.80435
G1 X-3.875 Y3.904 E1.82081
G1 X-7.380 Y0.399 E1.95837
G1 X-7.380 Y-0.435 E1.98154
G1 X-3.417 Y3.527 E2.13709
G1 X-2.933 Y3.177 E2.15368
G1 X-7.380 Y-1.270 E2.32824
G1 X-7.305 Y-2.030 E2.34944
G1 X-2.389 Y2.886 E2.54242
G1 X-1.845 Y2.595 E2.55954
G1 X-7.114 Y-2.674 E2.76639
G1 X-6.835 Y-3.230 E2.78365
G1 X-1.263 Y2.343 E3.00240
G1 X-0.622 Y2.148 E3.02098
G1 X-6.485 Y-3.714 E3.25112
