; generated by Slic3r 0.9.10b on 2013-10-27 at 20:57:42

; layer_height = 0.3
; perimeters = 2
; top_solid_layers = 3
; bottom_solid_layers = 3
; fill_density = 0.4
; perimeter_speed = 30
; infill_speed = 60
; travel_speed = 130
; nozzle_diameter = 0.5
; filament_diameter = 2.85
; extrusion_multiplier = 1
; perimeters extrusion width = 0.70mm
; infill extrusion width = 0.70mm
; solid infill extrusion width = 0.70mm
; top infill extrusion width = 0.70mm
; support material extrusion width = 0.70mm
; first layer extrusion width = 0.60mm

G21 ; set units to millimeters
M107
M104 S0
M83
M140 S70
G28
G1Y98F9000
M190 S70
G1X5Y98Z150F9000
M104 S210
G1X5Y98Z1F9000
G1Z0.05
M109 S210
G1Z5
G1X15
;G1E5F50
G90 ; use absolute coordinates
G92 E0
M82 ; use absolute distances for extrusion
G1 F1800.000 E-1.00000
G92 E0
G1 Z0.300 F7800.000
G1 X-7.840 Y-40.940
G1 F1800.000 E1.00000
G1 X7.970 Y-40.940 F540.000 E1.43014
G1 X8.910 Y-40.870 E1.45578
G1 X9.830 Y-40.670 E1.48140
G1 X13.760 Y-39.510 E1.59288
G1 X14.350 Y-39.300 E1.60992
G1 X17.210 Y-38.150 E1.69378
G1 X20.020 Y-36.830 E1.77825
G1 X20.720 Y-36.450 E1.79992
G1 X22.750 Y-35.160 E1.86536
G1 X24.430 Y-34.010 E1.92075
G1 X26.200 Y-32.700 E1.98066
G1 X26.630 Y-32.350 E1.99574
G1 X29.260 Y-30.000 E2.09170
G1 X29.670 Y-29.590 E2.10747
G1 X30.840 Y-28.340 E2.15405
G1 X31.880 Y-27.180 E2.19644
G1 X33.180 Y-25.570 E2.25274
G1 X34.040 Y-24.420 E2.29181
G1 X34.970 Y-23.090 E2.33596
G1 X35.910 Y-21.560 E2.38482
G1 X36.830 Y-19.990 E2.43432
G1 X37.500 Y-18.670 E2.47460
G1 X38.600 Y-16.350 E2.54445
G1 X38.860 Y-15.740 E2.56249
G1 X39.730 Y-13.320 E2.63246
G1 X40.120 Y-12.160 E2.66576
G1 X40.260 Y-11.670 E2.67962
G1 X40.880 Y-9.190 E2.74917
G1 X41.230 Y-7.550 E2.79479
G1 X41.570 Y-5.240 E2.85832
G1 X41.720 Y-3.800 E2.89771
G1 X41.760 Y-3.140 E2.91570
G1 X41.770 Y0.410 E3.01228
G1 X41.750 Y2.720 E3.07513
G1 X41.670 Y4.220 E3.11600
G1 X41.490 Y5.770 E3.15845
G1 X41.300 Y7.090 E3.19473
G1 X41.030 Y8.530 E3.23459
G1 X40.300 Y11.480 E3.31728
G1 X39.960 Y12.630 E3.34990
G1 X38.610 Y16.430 E3.45962
G1 X38.270 Y17.230 E3.48327
G1 X37.090 Y19.540 E3.55384
G1 X36.880 Y19.910 E3.56541
G1 X35.490 Y22.240 E3.63923
G1 X34.380 Y23.940 E3.69447
G1 X32.660 Y26.260 E3.77304
G1 X32.260 Y26.750 E3.79025
G1 X30.170 Y29.060 E3.87500
G1 X29.820 Y29.420 E3.88866
G1 X28.490 Y30.690 E3.93869
G1 X27.220 Y31.840 E3.98531
G1 X26.840 Y32.150 E3.99865
G1 X25.240 Y33.400 E4.05389
G1 X23.680 Y34.560 E4.10678
G1 X23.140 Y34.920 E4.12444
G1 X21.230 Y36.070 E4.18509
G1 X18.420 Y37.580 E4.27188
G1 X15.870 Y38.740 E4.34810
G1 X15.270 Y38.980 E4.36568
G1 X11.870 Y40.140 E4.46342
G1 X11.010 Y40.370 E4.48764
G1 X5.140 Y41.520 E4.65038
G1 X4.520 Y41.610 E4.66743
G1 X3.880 Y41.640 E4.68486
G1 X-3.750 Y41.640 E4.89244
G1 X-4.390 Y41.610 E4.90987
G1 X-5.010 Y41.520 E4.92692
G1 X-10.880 Y40.370 E5.08966
G1 X-11.740 Y40.140 E5.11388
G1 X-15.140 Y38.980 E5.21162
G1 X-15.740 Y38.740 E5.22920
G1 X-18.290 Y37.580 E5.30542
G1 X-21.100 Y36.070 E5.39221
G1 X-23.010 Y34.920 E5.45286
G1 X-23.550 Y34.560 E5.47052
G1 X-25.110 Y33.400 E5.52341
G1 X-27.090 Y31.840 E5.59199
G1 X-28.360 Y30.690 E5.63860
G1 X-29.690 Y29.420 E5.68864
G1 X-30.040 Y29.060 E5.70230
G1 X-32.130 Y26.750 E5.78705
G1 X-32.530 Y26.260 E5.80426
G1 X-34.250 Y23.940 E5.88283
G1 X-35.240 Y22.430 E5.93196
G1 X-36.750 Y19.910 E6.01188
G1 X-37.060 Y19.330 E6.02978
G1 X-38.230 Y16.840 E6.10463
G1 X-38.880 Y15.300 E6.15010
G1 X-39.830 Y12.630 E6.22721
G1 X-40.170 Y11.480 E6.25983
G1 X-40.820 Y8.890 E6.33248
G1 X-41.170 Y7.090 E6.38237
G1 X-41.380 Y5.550 E6.42466
G1 X-41.480 Y4.390 E6.45633
G1 X-41.510 Y3.820 E6.47186
G1 X-41.510 Y-4.280 E6.69224
G1 X-41.440 Y-5.240 E6.71843
G1 X-41.100 Y-7.540 E6.78168
G1 X-41.010 Y-8.030 E6.79523
G1 X-40.750 Y-9.190 E6.82758
G1 X-40.130 Y-11.670 E6.89713
G1 X-39.990 Y-12.160 E6.91099
G1 X-39.600 Y-13.320 E6.94429
G1 X-38.730 Y-15.740 E7.01425
G1 X-38.470 Y-16.350 E7.03229
G1 X-37.370 Y-18.670 E7.10215
G1 X-36.700 Y-19.990 E7.14242
G1 X-36.480 Y-20.400 E7.15508
G1 X-35.090 Y-22.710 E7.22843
G1 X-34.840 Y-23.090 E7.24080
G1 X-33.910 Y-24.420 E7.28496
G1 X-33.050 Y-25.570 E7.32403
G1 X-31.750 Y-27.180 E7.38033
G1 X-30.710 Y-28.340 E7.42271
G1 X-29.540 Y-29.590 E7.46929
G1 X-29.130 Y-30.000 E7.48507
G1 X-26.500 Y-32.350 E7.58103
G1 X-26.070 Y-32.700 E7.59611
G1 X-24.300 Y-34.010 E7.65602
G1 X-22.620 Y-35.160 E7.71141
G1 X-20.360 Y-36.530 E7.78331
G1 X-19.890 Y-36.780 E7.79780
G1 X-17.550 Y-37.940 E7.86885
G1 X-17.080 Y-38.150 E7.88286
G1 X-14.220 Y-39.300 E7.96672
G1 X-13.630 Y-39.510 E7.98376
G1 X-9.700 Y-40.670 E8.09525
G1 X-8.780 Y-40.870 E8.12086
G1 X-7.926 Y-40.934 E8.14414
G1 F1800.000 E7.14414
G92 E0
G1 X-7.833 Y-34.357 F7800.000
G1 F1800.000 E1.00000
G1 X7.974 Y-34.357 F1080.000 E1.43007
G1 X11.910 Y-33.200 E1.54168
G1 X-11.769 Y-33.200 E2.18591
G1 X-14.621 Y-32.043 E2.26965
G1 X14.762 Y-32.043 E3.06906
G1 X17.208 Y-30.886 E3.14269
G1 X-16.961 Y-30.886 E4.07233
G1 X-18.892 Y-29.729 E4.13357
G1 X19.033 Y-29.729 E5.16537
G1 X20.717 Y-28.571 E5.22096
G1 X-20.576 Y-28.571 E6.34438
G1 X-22.136 Y-27.414 E6.39723
G1 X22.277 Y-27.414 E7.60555
G1 X23.586 Y-26.257 E7.65309
G1 X-23.445 Y-26.257 E8.93267
G1 X-24.722 Y-25.100 E8.97954
G1 X24.863 Y-25.100 E10.32858
G1 X25.941 Y-23.943 E10.37160
G1 X-25.800 Y-23.943 E11.77927
G1 F1800.000 E10.77927
G92 E0
G1 X-28.103 Y21.183 F7800.000
G1 F1800.000 E1.00000
G1 X-6.236 Y21.183 F1080.000 E1.59493
G1 X-9.232 Y20.026 E1.68231
G1 X-28.961 Y20.026 E2.21907
G1 X-29.714 Y18.869 E2.25663
G1 X-11.398 Y18.869 E2.75494
G1 X-13.115 Y17.712 E2.81125
G1 X-30.408 Y17.712 E3.28174
G1 X-31.091 Y16.555 E3.31830
G1 X-14.544 Y16.555 E3.76849
G1 X-15.774 Y15.398 E3.81444
G1 X-31.638 Y15.398 E4.24605
G1 X-32.185 Y14.241 E4.28087
G1 X-16.823 Y14.241 E4.69884
G1 X-17.717 Y13.083 E4.73861
G1 X-32.684 Y13.083 E5.14583
G1 X-33.098 Y11.926 E5.17926
G1 X-18.524 Y11.926 E5.57578
G1 X-19.218 Y10.769 E5.61248
G1 X-33.512 Y10.769 E6.00138
G1 X-33.858 Y9.612 E6.03424
G1 X-19.809 Y9.612 E6.41648
G1 X-20.356 Y8.455 E6.45130
G1 X-34.148 Y8.455 E6.82655
G1 X-34.438 Y7.298 E6.85900
G1 X-20.770 Y7.298 E7.23087
G1 X-21.154 Y6.141 E7.26405
G1 X-34.652 Y6.141 E7.63128
G1 X-34.824 Y4.984 E7.66310
G1 X-21.444 Y4.984 E8.02712
G1 X-21.684 Y3.827 E8.05928
G1 X-34.930 Y3.827 E8.41964
G1 X-34.930 Y2.670 E8.45112
G1 X-21.856 Y2.670 E8.80682
G1 X-21.962 Y1.513 E8.83843
G1 X-34.930 Y1.513 E9.19122
G1 X-34.930 Y0.356 E9.22270
G1 X-22.019 Y0.356 E9.57395
G1 X-21.997 Y-0.802 E9.60544
G1 X-34.930 Y-0.802 E9.95728
G1 X-34.930 Y-1.959 E9.98876
G1 X-21.940 Y-1.959 E10.34215
G1 X-21.789 Y-3.116 E10.37389
G1 X-34.930 Y-3.116 E10.73139
G1 X-34.929 Y-4.273 E10.76287
G1 X-21.618 Y-4.273 E11.12502
G1 X-21.332 Y-5.430 E11.15745
G1 X-34.757 Y-5.430 E11.52271
G1 X-34.586 Y-6.587 E11.55453
G1 X-21.024 Y-6.587 E11.92350
G1 X-20.610 Y-7.744 E11.95694
G1 X-34.326 Y-7.744 E12.33011
G1 X-34.037 Y-8.901 E12.36256
G1 X-20.145 Y-8.901 E12.74050
G1 X-19.598 Y-10.058 E12.77532
G1 X-33.747 Y-10.058 E13.16026
G1 X-33.353 Y-11.215 E13.19351
G1 X-18.950 Y-11.215 E13.58535
G1 X-18.244 Y-12.372 E13.62223
G1 X-32.939 Y-12.372 E14.02203
G1 X-32.522 Y-13.529 E14.05549
G1 X-17.386 Y-13.529 E14.46728
G1 X-16.419 Y-14.686 E14.50831
G1 X-31.975 Y-14.686 E14.93153
G1 X-31.427 Y-15.844 E14.96636
G1 X-15.328 Y-15.844 E15.40436
G1 X-14.052 Y-17.001 E15.45123
G1 X-30.834 Y-17.001 E15.90782
G1 X-30.140 Y-18.158 E15.94452
G1 X-12.513 Y-18.158 E16.42409
G1 X-10.654 Y-19.315 E16.48366
G1 X-29.447 Y-19.315 E16.99494
G1 X-28.630 Y-20.472 E17.03347
G1 X-8.257 Y-20.472 E17.58777
G1 X-4.456 Y-21.629 E17.69586
G1 X-27.772 Y-21.629 E18.33022
G1 X-26.848 Y-22.786 E18.37051
G1 X26.989 Y-22.786 E19.83525
G1 X27.913 Y-21.629 E19.87553
G1 X4.597 Y-21.629 E20.50989
G1 X8.398 Y-20.472 E20.61799
G1 X28.771 Y-20.472 E21.17228
G1 X29.588 Y-19.315 E21.21081
G1 X10.795 Y-19.315 E21.72209
G1 X12.654 Y-18.158 E21.78166
G1 X30.281 Y-18.158 E22.26123
G1 X30.975 Y-17.001 E22.29793
G1 X14.193 Y-17.001 E22.75452
G1 X15.469 Y-15.844 E22.80140
G1 X31.568 Y-15.844 E23.23939
G1 X32.116 Y-14.686 E23.27422
G1 X16.560 Y-14.686 E23.69744
G1 X17.527 Y-13.529 E23.73847
G1 X32.666 Y-13.529 E24.15034
G1 X33.080 Y-12.372 E24.18378
G1 X18.385 Y-12.372 E24.58357
G1 X19.091 Y-11.215 E24.62045
G1 X33.494 Y-11.215 E25.01229
G1 X33.888 Y-10.058 E25.04555
G1 X19.739 Y-10.058 E25.43048
G1 X20.286 Y-8.901 E25.46531
G1 X34.178 Y-8.901 E25.84324
G1 X34.467 Y-7.744 E25.87569
G1 X20.751 Y-7.744 E26.24887
G1 X21.165 Y-6.587 E26.28230
G1 X34.727 Y-6.587 E26.65127
G1 X34.898 Y-5.430 E26.68310
G1 X21.473 Y-5.430 E27.04835
G1 X21.759 Y-4.273 E27.08078
G1 X35.070 Y-4.273 E27.44293
G1 X35.190 Y-3.116 E27.47458
G1 X21.930 Y-3.116 E27.83532
G1 X22.081 Y-1.959 E27.86707
G1 X35.160 Y-1.959 E28.22290
G1 X35.173 Y-0.802 E28.25439
G1 X22.138 Y-0.802 E28.60901
G1 X22.160 Y0.356 E28.64050
G1 X35.195 Y0.356 E28.99513
G1 X35.182 Y1.513 E29.02661
G1 X22.103 Y1.513 E29.38245
G1 X21.997 Y2.670 E29.41406
G1 X35.173 Y2.670 E29.77255
G1 X35.109 Y3.827 E29.80407
G1 X21.825 Y3.827 E30.16549
G1 X21.585 Y4.984 E30.19764
G1 X34.965 Y4.984 E30.56166
G1 X34.793 Y6.141 E30.59348
G1 X21.295 Y6.141 E30.96072
G1 X20.911 Y7.298 E30.99389
G1 X34.579 Y7.298 E31.36576
G1 X34.289 Y8.455 E31.39821
G1 X20.497 Y8.455 E31.77346
G1 X19.950 Y9.612 E31.80828
G1 X33.999 Y9.612 E32.19052
G1 X33.653 Y10.769 E32.22338
G1 X19.359 Y10.769 E32.61228
G1 X18.665 Y11.926 E32.64899
G1 X33.239 Y11.926 E33.04550
G1 X32.825 Y13.083 E33.07893
G1 X17.858 Y13.083 E33.48615
G1 X16.964 Y14.241 E33.52593
G1 X32.326 Y14.241 E33.94389
G1 X31.779 Y15.398 E33.97872
G1 X15.915 Y15.398 E34.41032
G1 X14.685 Y16.555 E34.45628
G1 X31.232 Y16.555 E34.90647
G1 X30.549 Y17.712 E34.94303
G1 X13.256 Y17.712 E35.41352
G1 X11.539 Y18.869 E35.46983
G1 X29.855 Y18.869 E35.96814
G1 X29.102 Y20.026 E36.00570
G1 X9.373 Y20.026 E36.54246
G1 X6.377 Y21.183 E36.62984
G1 X28.244 Y21.183 E37.22476
G1 X27.386 Y22.340 E37.26396
G1 X-27.245 Y22.340 E38.75026
G1 X-26.204 Y23.497 E38.79261
G1 X26.345 Y23.497 E40.22227
G1 X25.296 Y24.654 E40.26476
G1 X-25.155 Y24.654 E41.63736
G1 X-23.937 Y25.811 E41.68306
G1 X24.078 Y25.811 E42.98941
G1 X22.802 Y26.968 E43.03628
G1 X-22.661 Y26.968 E44.27317
G1 X-21.177 Y28.125 E44.32436
G1 X21.318 Y28.125 E45.48050
G1 X19.758 Y29.283 E45.53335
G1 X-19.617 Y29.283 E46.60460
G1 X-17.705 Y30.440 E46.66538
G1 X17.846 Y30.440 E47.63263
G1 X15.705 Y31.597 E47.69886
G1 X-15.564 Y31.597 E48.54957
G1 X-13.015 Y32.754 E48.62572
G1 X13.156 Y32.754 E49.33777
G1 X9.755 Y33.911 E49.43553
G1 X-9.614 Y33.911 E49.96247
G1 F1800.000 E48.96247
G92 E0
G1 X-3.741 Y35.068 F7800.000
G1 F1800.000 E1.00000
G1 X3.882 Y35.068 F1080.000 E1.20740
G1 F1800.000 E0.20740
G92 E0
G1 X32.388 Y14.241 F7800.000
G1 F1800.000 E1.00000
G1 X32.411 Y14.241 F1080.000 E1.00063
G1 F1800.000 E0.00063
G92 E0
G1 X6.416 Y2.629 F7800.000
G1 F1800.000 E1.00000
G1 X6.128 Y3.238 F540.000 E1.01834
G1 X5.782 Y3.816 E1.03668
G1 X5.337 Y4.406 E1.05677
G1 X4.928 Y4.857 E1.07335
G1 X4.428 Y5.310 E1.09169
G1 X3.887 Y5.711 E1.11003
G1 X3.309 Y6.058 E1.12837
G1 X2.699 Y6.346 E1.14671
G1 X2.064 Y6.573 E1.16505
G1 X1.411 Y6.737 E1.18339
G1 X0.744 Y6.836 E1.20173
G1 X0.070 Y6.869 E1.22007
G1 X-0.603 Y6.836 E1.23840
G1 X-1.270 Y6.737 E1.25675
G1 X-1.923 Y6.573 E1.27508
G1 X-2.558 Y6.346 E1.29342
G1 X-3.167 Y6.058 E1.31176
G1 X-3.746 Y5.711 E1.33010
G1 X-4.287 Y5.310 E1.34844
G1 X-4.787 Y4.857 E1.36678
G1 X-5.239 Y4.358 E1.38512
G1 X-5.734 Y3.690 E1.40774
G1 X-6.100 Y4.006 E1.42089
G1 X-8.556 Y4.360 E1.48841
G1 X-10.814 Y3.329 E1.55593
G1 X-12.156 Y1.241 E1.62345
G1 X-12.156 Y-1.241 E1.69097
G1 X-10.814 Y-3.329 E1.75849
G1 X-8.556 Y-4.360 E1.82601
G1 X-6.100 Y-4.006 E1.89353
G1 X-5.734 Y-3.690 E1.90669
G1 X-5.239 Y-4.358 E1.92930
G1 X-4.787 Y-4.857 E1.94764
G1 X-4.287 Y-5.310 E1.96598
G1 X-3.746 Y-5.711 E1.98432
G1 X-3.223 Y-6.025 E2.00090
G1 X-2.558 Y-6.346 E2.02099
G1 X-1.923 Y-6.573 E2.03933
G1 X-1.270 Y-6.737 E2.05767
G1 X-0.603 Y-6.836 E2.07601
G1 X0.070 Y-6.869 E2.09435
G1 X0.679 Y-6.839 E2.11093
G1 X1.411 Y-6.737 E2.13102
G1 X2.064 Y-6.573 E2.14936
G1 X2.699 Y-6.346 E2.16770
G1 X3.308 Y-6.058 E2.18604
G1 X3.887 Y-5.711 E2.20438
G1 X4.428 Y-5.310 E2.22272
G1 X4.928 Y-4.857 E2.24106
G1 X5.380 Y-4.358 E2.25940
G1 X5.782 Y-3.816 E2.27774
G1 X6.128 Y-3.238 E2.29608
G1 X6.416 Y-2.629 E2.31442
G1 X6.644 Y-1.994 E2.33275
G1 X6.807 Y-1.340 E2.35109
G1 X6.906 Y-0.673 E2.36943
G1 X6.939 Y0.000 E2.38777
G1 X6.906 Y0.673 E2.40611
G1 X6.807 Y1.340 E2.42445
G1 X6.644 Y1.994 E2.44279
G1 X6.446 Y2.547 E2.45877
G1 X5.881 Y2.407 F7800.000
G1 X5.599 Y2.996 F540.000 E2.47654
G1 X5.300 Y3.494 E2.49235
G1 X4.932 Y3.990 E2.50914
G1 X4.518 Y4.447 E2.52594
G1 X4.061 Y4.862 E2.54273
G1 X3.565 Y5.230 E2.55952
G1 X3.035 Y5.547 E2.57631
G1 X2.477 Y5.811 E2.59311
G1 X1.896 Y6.019 E2.60990
G1 X1.298 Y6.169 E2.62669
G1 X0.687 Y6.259 E2.64349
G1 X0.070 Y6.290 E2.66028
G1 X-0.546 Y6.259 E2.67707
G1 X-1.157 Y6.169 E2.69387
G1 X-1.755 Y6.019 E2.71066
G1 X-2.369 Y5.795 E2.72843
G1 X-2.894 Y5.547 E2.74424
G1 X-3.424 Y5.230 E2.76103
G1 X-3.920 Y4.862 E2.77782
G1 X-4.377 Y4.447 E2.79462
G1 X-4.791 Y3.990 E2.81141
G1 X-5.159 Y3.494 E2.82820
G1 X-5.476 Y2.965 E2.84500
G1 X-5.565 Y2.778 E2.85064
G1 X-6.350 Y3.458 E2.87890
G1 X-8.471 Y3.763 E2.93718
G1 X-10.419 Y2.873 E2.99546
G1 X-11.577 Y1.071 E3.05373
G1 X-11.577 Y-1.071 E3.11201
G1 X-10.419 Y-2.873 E3.17029
G1 X-8.471 Y-3.763 E3.22856
G1 X-6.350 Y-3.458 E3.28684
G1 X-5.565 Y-2.778 E3.31511
G1 X-5.476 Y-2.965 E3.32075
G1 X-5.159 Y-3.494 E3.33754
G1 X-4.791 Y-3.990 E3.35433
G1 X-4.377 Y-4.447 E3.37112
G1 X-3.920 Y-4.862 E3.38792
G1 X-3.453 Y-5.208 E3.40372
G1 X-2.894 Y-5.547 E3.42150
G1 X-2.336 Y-5.811 E3.43829
G1 X-1.755 Y-6.019 E3.45508
G1 X-1.157 Y-6.169 E3.47188
G1 X-0.546 Y-6.259 E3.48867
G1 X0.070 Y-6.290 E3.50546
G1 X0.651 Y-6.261 E3.52127
G1 X1.298 Y-6.169 E3.53904
G1 X1.896 Y-6.019 E3.55584
G1 X2.477 Y-5.811 E3.57263
G1 X3.035 Y-5.547 E3.58942
G1 X3.565 Y-5.230 E3.60622
G1 X4.061 Y-4.862 E3.62301
G1 X4.491 Y-4.472 E3.63881
G1 X4.932 Y-3.990 E3.65659
G1 X5.300 Y-3.494 E3.67338
G1 X5.617 Y-2.965 E3.69018
G1 X5.881 Y-2.407 E3.70697
G1 X6.089 Y-1.826 E3.72376
G1 X6.239 Y-1.227 E3.74055
G1 X6.330 Y-0.616 E3.75735
G1 X6.360 Y0.000 E3.77414
G1 X6.330 Y0.616 E3.79093
G1 X6.239 Y1.227 E3.80773
G1 X6.089 Y1.826 E3.82452
G1 X5.911 Y2.325 E3.83895
G1 X5.306 Y2.471 F7800.000
G1 F1800.000 E2.83895
G92 E0
G1 X-16.719 Y11.218 F7800.000
G1 F1800.000 E1.00000
G1 X-17.737 Y9.518 F540.000 E1.05391
G1 X-18.585 Y7.727 E1.10782
G1 X-19.252 Y5.861 E1.16174
G1 X-19.734 Y3.939 E1.21565
G1 X-20.024 Y1.979 E1.26956
G1 X-20.122 Y-0.000 E1.32347
G1 X-20.024 Y-1.979 E1.37738
G1 X-19.734 Y-3.939 E1.43129
G1 X-19.252 Y-5.861 E1.48520
G1 X-18.585 Y-7.727 E1.53911
G1 X-17.737 Y-9.518 E1.59303
G1 X-16.719 Y-11.218 E1.64694
G1 X-15.538 Y-12.810 E1.70085
G1 X-14.207 Y-14.278 E1.75476
G1 X-12.739 Y-15.609 E1.80867
G1 X-11.148 Y-16.789 E1.86258
G1 X-9.448 Y-17.808 E1.91650
G1 X-7.657 Y-18.655 E1.97041
G1 X-5.791 Y-19.323 E2.02432
G1 X-3.869 Y-19.804 E2.07823
G1 X-1.909 Y-20.095 E2.13214
G1 X0.071 Y-20.192 E2.18605
G1 X2.050 Y-20.095 E2.23996
G1 X4.010 Y-19.804 E2.29388
G1 X5.932 Y-19.323 E2.34779
G1 X7.798 Y-18.655 E2.40170
G1 X9.589 Y-17.808 E2.45561
G1 X11.289 Y-16.789 E2.50952
G1 X12.880 Y-15.609 E2.56343
G1 X14.348 Y-14.278 E2.61734
G1 X15.679 Y-12.810 E2.67126
G1 X16.860 Y-11.218 E2.72517
G1 X17.878 Y-9.518 E2.77908
G1 X18.726 Y-7.727 E2.83299
G1 X19.393 Y-5.861 E2.88690
G1 X19.875 Y-3.939 E2.94081
G1 X20.165 Y-1.979 E2.99472
G1 X20.263 Y0.000 E3.04864
G1 X20.165 Y1.979 E3.10255
G1 X19.875 Y3.939 E3.15646
G1 X19.393 Y5.861 E3.21037
G1 X18.726 Y7.727 E3.26428
G1 X17.878 Y9.518 E3.31819
G1 X16.860 Y11.218 E3.37211
G1 X15.679 Y12.810 E3.42602
G1 X14.348 Y14.278 E3.47993
G1 X12.880 Y15.609 E3.53384
G1 X11.289 Y16.789 E3.58775
G1 X9.589 Y17.808 E3.64166
G1 X7.798 Y18.655 E3.69557
G1 X5.932 Y19.323 E3.74949
G1 X4.010 Y19.804 E3.80340
G1 X2.050 Y20.095 E3.85731
G1 X0.070 Y20.192 E3.91122
G1 X-1.909 Y20.095 E3.96513
G1 X-3.869 Y19.804 E4.01904
G1 X-5.791 Y19.323 E4.07296
