; generated by Slic3r 0.9.10b on 2013-10-27 at 23:39:10

; layer_height = 0.3
; perimeters = 2
; top_solid_layers = 3
; bottom_solid_layers = 3
; fill_density = 0.4
; perimeter_speed = 30
; infill_speed = 60
; travel_speed = 130
; nozzle_diameter = 0.5
; filament_diameter = 2.85
; extrusion_multiplier = 1
; perimeters extrusion width = 0.70mm
; infill extrusion width = 0.70mm
; solid infill extrusion width = 0.70mm
; top infill extrusion width = 0.70mm
; first layer extrusion width = 0.60mm

G21 ; set units to millimeters
M107
M104 S0
M83
M140 S70
G28
G1Y98F9000
M190 S70
G1X5Y98Z150F9000
M104 S210
G1X5Y98Z1F9000
G1Z0.05
M109 S210
G1Z5
G1X15
;G1E5F50
G90 ; use absolute coordinates
G92 E0
M82 ; use absolute distances for extrusion
G1 F1800.000 E-1.00000
G92 E0
G1 Z0.300 F7800.000
G1 X7.231 Y-24.132
G1 F1800.000 E1.00000
G1 X25.051 Y-24.132 F540.000 E1.48482
G1 X25.711 Y-24.092 E1.50281
G1 X26.991 Y-23.962 E1.53782
G1 X27.621 Y-23.872 E1.55513
G1 X28.231 Y-23.722 E1.57222
G1 X29.461 Y-23.352 E1.60717
G1 X30.081 Y-23.132 E1.62506
G1 X30.681 Y-22.842 E1.64319
G1 X31.811 Y-22.232 E1.67813
G1 X32.341 Y-21.922 E1.69484
G1 X32.821 Y-21.562 E1.71116
G1 X33.811 Y-20.762 E1.74579
G1 X34.321 Y-20.312 E1.76429
G1 X34.771 Y-19.812 E1.78260
G1 X35.591 Y-18.812 E1.81778
G1 X35.981 Y-18.292 E1.83546
G1 X36.311 Y-17.732 E1.85315
G1 X36.911 Y-16.602 E1.88796
G1 X37.171 Y-16.032 E1.90500
G1 X37.391 Y-15.452 E1.92188
G1 X37.771 Y-14.222 E1.95690
G1 X37.931 Y-13.572 E1.97512
G1 X38.031 Y-12.902 E1.99355
G1 X38.151 Y-11.632 E2.02825
G1 X38.181 Y-11.012 E2.04514
G1 X38.151 Y-10.402 E2.06176
G1 X38.031 Y-9.122 E2.09673
G1 X37.861 Y-8.142 E2.12379
G1 X35.261 Y2.278 E2.41598
G1 X34.521 Y4.718 E2.48535
G1 X34.301 Y5.318 E2.50274
G1 X34.021 Y5.908 E2.52050
G1 X32.661 Y8.448 E2.59889
G1 X27.301 Y17.358 E2.88179
G1 X26.771 Y18.108 E2.90677
G1 X25.961 Y19.108 E2.94178
G1 X25.501 Y19.618 E2.96047
G1 X24.991 Y20.078 E2.97915
G1 X23.991 Y20.888 E3.01417
G1 X23.481 Y21.268 E3.03147
G1 X22.941 Y21.588 E3.04855
G1 X21.811 Y22.188 E3.08336
G1 X21.241 Y22.448 E3.10040
G1 X20.661 Y22.668 E3.11728
G1 X19.431 Y23.048 E3.15230
G1 X18.771 Y23.208 E3.17078
G1 X18.101 Y23.308 E3.18921
G1 X16.821 Y23.428 E3.22419
G1 X16.351 Y23.458 E3.23700
G1 X-16.089 Y24.128 E4.11977
G1 X-16.899 Y24.088 E4.14184
G1 X-18.169 Y23.958 E4.17657
G1 X-18.789 Y23.868 E4.19361
G1 X-19.399 Y23.718 E4.21070
G1 X-20.629 Y23.348 E4.24565
G1 X-21.229 Y23.128 E4.26304
G1 X-21.819 Y22.858 E4.28069
G1 X-22.949 Y22.258 E4.31550
G1 X-23.509 Y21.928 E4.33318
G1 X-24.029 Y21.538 E4.35087
G1 X-25.029 Y20.718 E4.38605
G1 X-25.509 Y20.278 E4.40377
G1 X-25.949 Y19.798 E4.42148
G1 X-26.759 Y18.808 E4.45628
G1 X-27.309 Y18.028 E4.48225
G1 X-32.819 Y8.848 E4.77354
G1 X-34.029 Y6.608 E4.84281
G1 X-34.309 Y6.008 E4.86082
G1 X-34.539 Y5.388 E4.87881
G1 X-35.279 Y2.948 E4.94818
G1 X-37.869 Y-7.472 E5.24030
G1 X-38.039 Y-8.452 E5.26736
G1 X-38.159 Y-9.732 E5.30234
G1 X-38.189 Y-10.342 E5.31896
G1 X-38.159 Y-10.952 E5.33557
G1 X-38.039 Y-12.232 E5.37055
G1 X-37.949 Y-12.892 E5.38867
G1 X-37.789 Y-13.532 E5.40662
G1 X-37.419 Y-14.752 E5.44130
G1 X-37.199 Y-15.362 E5.45895
G1 X-36.919 Y-15.942 E5.47647
G1 X-36.309 Y-17.082 E5.51165
G1 X-35.979 Y-17.632 E5.52910
G1 X-35.599 Y-18.152 E5.54662
G1 X-34.789 Y-19.142 E5.58142
G1 X-34.329 Y-19.652 E5.60011
G1 X-33.809 Y-20.112 E5.61899
G1 X-32.809 Y-20.912 E5.65384
G1 X-32.329 Y-21.262 E5.67000
G1 X-31.819 Y-21.562 E5.68610
G1 X-30.689 Y-22.172 E5.72103
G1 X-30.089 Y-22.462 E5.73916
G1 X-29.469 Y-22.682 E5.75706
G1 X-28.239 Y-23.052 E5.79201
G1 X-27.629 Y-23.202 E5.80910
G1 X-26.999 Y-23.292 E5.82641
G1 X-25.199 Y-23.462 E5.87560
G1 X7.144 Y-24.131 E6.75574
G1 F1800.000 E5.75574
G92 E0
G1 X7.352 Y-18.421 F7800.000
G1 F1800.000 E1.00000
G1 X8.883 Y-18.265 F540.000 E1.04188
G1 X10.245 Y-17.845 E1.08064
G1 X11.525 Y-17.155 E1.12022
G1 X12.606 Y-16.268 E1.15826
G1 X13.515 Y-15.170 E1.19703
G1 X14.245 Y-13.815 E1.23892
G1 X14.650 Y-12.478 E1.27691
G1 X14.798 Y-11.060 E1.31570
G1 X14.643 Y-9.500 E1.35835
G1 X14.223 Y-8.138 E1.39712
G1 X13.578 Y-6.930 E1.43440
G1 X11.998 Y-4.985 E1.50257
G1 X11.528 Y-4.107 E1.52967
G1 X11.239 Y-3.155 E1.55675
G1 X11.141 Y-2.164 E1.58383
G1 X11.239 Y-1.173 E1.61092
G1 X11.528 Y-0.221 E1.63800
G1 X11.997 Y0.658 E1.66509
G1 X12.629 Y1.427 E1.69217
G1 X13.398 Y2.058 E1.71924
G1 X14.276 Y2.528 E1.74633
G1 X15.229 Y2.817 E1.77341
G1 X16.219 Y2.914 E1.80050
G1 X17.210 Y2.817 E1.82759
G1 X18.163 Y2.528 E1.85466
G1 X19.041 Y2.058 E1.88176
G1 X19.810 Y1.427 E1.90883
G1 X20.442 Y0.658 E1.93591
G1 X20.911 Y-0.221 E1.96300
G1 X21.200 Y-1.173 E1.99008
G1 X21.298 Y-2.164 E2.01716
G1 X21.200 Y-3.155 E2.04425
G1 X20.911 Y-4.107 E2.07133
G1 X20.441 Y-4.985 E2.09843
G1 X18.907 Y-6.858 E2.16430
G1 X18.228 Y-8.113 E2.20311
G1 X17.789 Y-9.528 E2.24342
G1 X17.641 Y-10.946 E2.28220
G1 X17.778 Y-12.423 E2.32256
G1 X18.194 Y-13.815 E2.36209
G1 X18.875 Y-15.100 E2.40168
G1 X19.793 Y-16.227 E2.44121
G1 X20.961 Y-17.186 E2.48234
G1 X22.273 Y-17.876 E2.52267
G1 X23.639 Y-18.283 E2.56144
G1 X25.002 Y-18.419 E2.59870
G1 X26.478 Y-18.283 E2.63904
G1 X27.923 Y-17.845 E2.68012
G1 X29.226 Y-17.137 E2.72047
G1 X30.283 Y-16.267 E2.75771
G1 X31.193 Y-15.171 E2.79648
G1 X31.900 Y-13.867 E2.83683
G1 X32.343 Y-12.394 E2.87867
G1 X32.476 Y-10.974 E2.91747
G1 X32.339 Y-9.583 E2.95551
G1 X31.922 Y-8.191 E2.99505
G1 X31.242 Y-6.906 E3.03461
G1 X30.323 Y-5.777 E3.07420
G1 X29.706 Y-5.262 E3.09608
G1 X29.830 Y-4.813 E3.10874
G1 X30.086 Y-2.107 E3.18270
G1 X29.815 Y0.569 E3.25588
G1 X29.052 Y3.090 E3.32754
G1 X27.766 Y5.517 E3.40226
G1 X26.064 Y7.601 E3.47545
G1 X23.970 Y9.334 E3.54941
G1 X23.565 Y9.563 E3.56207
G1 X23.637 Y10.365 E3.58396
G1 X23.489 Y11.811 E3.62354
G1 X23.061 Y13.202 E3.66310
G1 X22.355 Y14.503 E3.70341
G1 X21.445 Y15.602 E3.74221
G1 X20.293 Y16.534 E3.78254
G1 X19.032 Y17.200 E3.82131
G1 X17.722 Y17.599 E3.85857
G1 X16.276 Y17.753 E3.89813
G1 X14.800 Y17.617 E3.93847
G1 X13.407 Y17.200 E3.97804
G1 X12.075 Y16.488 E4.01912
G1 X10.934 Y15.540 E4.05946
G1 X10.036 Y14.434 E4.09825
G1 X9.346 Y13.122 E4.13856
G1 X8.935 Y11.728 E4.17812
G1 X8.802 Y10.365 E4.21538
G1 X8.874 Y9.563 E4.23727
G1 X8.469 Y9.334 E4.24993
G1 X6.375 Y7.601 E4.32389
G1 X4.673 Y5.517 E4.39709
G1 X3.419 Y3.170 E4.46950
G1 X2.624 Y0.569 E4.54347
G1 X2.353 Y-2.107 E4.61666
G1 X2.609 Y-4.813 E4.69061
G1 X2.733 Y-5.262 E4.70327
G1 X2.116 Y-5.777 E4.72515
G1 X1.182 Y-6.930 E4.76550
G1 X0.507 Y-8.218 E4.80506
G1 X0.111 Y-9.527 E4.84229
G1 X0.033 Y-10.248 E4.86202
G1 X-0.111 Y-8.861 E4.89998
G1 X-0.551 Y-7.446 E4.94027
G1 X-1.246 Y-6.169 E4.97985
G1 X-2.116 Y-5.111 E5.01712
G1 X-2.733 Y-4.595 E5.03899
G1 X-2.609 Y-4.147 E5.05166
G1 X-2.353 Y-1.440 E5.12561
G1 X-2.624 Y1.236 E5.19880
G1 X-3.397 Y3.784 E5.27123
G1 X-4.673 Y6.183 E5.34518
G1 X-6.375 Y8.267 E5.41838
G1 X-8.469 Y10.001 E5.49233
G1 X-8.874 Y10.230 E5.50499
G1 X-8.802 Y11.031 E5.52689
G1 X-8.950 Y12.478 E5.56646
G1 X-9.378 Y13.868 E5.60603
G1 X-10.084 Y15.170 E5.64633
G1 X-10.994 Y16.269 E5.68514
G1 X-12.122 Y17.186 E5.72470
G1 X-13.407 Y17.866 E5.76424
G1 X-14.800 Y18.283 E5.80381
G1 X-16.248 Y18.421 E5.84338
G1 X-17.695 Y18.272 E5.88295
G1 X-19.085 Y17.845 E5.92252
G1 X-20.387 Y17.138 E5.96282
G1 X-21.445 Y16.269 E6.00008
G1 X-22.355 Y15.170 E6.03889
G1 X-23.061 Y13.868 E6.07919
G1 X-23.504 Y12.394 E6.12106
G1 X-23.637 Y11.031 E6.15832
G1 X-23.565 Y10.230 E6.18022
G1 X-23.970 Y10.001 E6.19287
G1 X-26.064 Y8.267 E6.26683
G1 X-27.766 Y6.183 E6.34003
G1 X-29.052 Y3.757 E6.41474
G1 X-29.815 Y1.236 E6.48640
G1 X-30.086 Y-1.440 E6.55959
G1 X-29.830 Y-4.147 E6.63354
G1 X-29.706 Y-4.595 E6.64621
G1 X-30.323 Y-5.111 E6.66809
G1 X-31.242 Y-6.239 E6.70767
G1 X-31.922 Y-7.524 E6.74724
G1 X-32.343 Y-8.945 E6.78755
G1 X-32.476 Y-10.365 E6.82635
G1 X-32.328 Y-11.812 E6.86592
G1 X-31.900 Y-13.200 E6.90545
G1 X-31.193 Y-14.504 E6.94581
G1 X-30.283 Y-15.601 E6.98458
G1 X-29.131 Y-16.534 E7.02491
G1 X-27.923 Y-17.178 E7.06217
G1 X-26.561 Y-17.599 E7.10093
G1 X-25.115 Y-17.753 E7.14050
G1 X-23.639 Y-17.617 E7.18084
G1 X-22.194 Y-17.178 E7.22192
G1 X-20.914 Y-16.488 E7.26149
G1 X-19.774 Y-15.540 E7.30184
G1 X-18.875 Y-14.434 E7.34060
G1 X-18.194 Y-13.148 E7.38020
G1 X-17.778 Y-11.756 E7.41972
G1 X-17.641 Y-10.279 E7.46008
G1 X-17.789 Y-8.861 E7.49886
G1 X-18.228 Y-7.446 E7.53917
G1 X-18.907 Y-6.191 E7.57798
G1 X-20.441 Y-4.319 E7.64385
G1 X-20.911 Y-3.440 E7.67095
G1 X-21.200 Y-2.488 E7.69803
G1 X-21.298 Y-1.497 E7.72512
G1 X-21.200 Y-0.506 E7.75220
G1 X-20.911 Y0.446 E7.77928
G1 X-20.442 Y1.324 E7.80637
G1 X-19.810 Y2.093 E7.83345
G1 X-19.041 Y2.725 E7.86052
G1 X-18.163 Y3.194 E7.88762
G1 X-17.210 Y3.484 E7.91470
G1 X-16.220 Y3.581 E7.94178
G1 X-15.229 Y3.484 E7.96887
G1 X-14.276 Y3.194 E7.99595
G1 X-13.398 Y2.725 E8.02304
G1 X-12.629 Y2.093 E8.05012
G1 X-11.997 Y1.324 E8.07719
G1 X-11.528 Y0.446 E8.10428
G1 X-11.239 Y-0.506 E8.13136
G1 X-11.141 Y-1.497 E8.15845
G1 X-11.239 Y-2.488 E8.18554
G1 X-11.528 Y-3.440 E8.21261
G1 X-11.998 Y-4.319 E8.23971
G1 X-13.532 Y-6.191 E8.30558
G1 X-14.211 Y-7.446 E8.34440
G1 X-14.650 Y-8.861 E8.38470
G1 X-14.798 Y-10.279 E8.42349
G1 X-14.661 Y-11.756 E8.46385
G1 X-14.245 Y-13.148 E8.50337
G1 X-13.564 Y-14.434 E8.54296
G1 X-12.606 Y-15.601 E8.58404
G1 X-11.525 Y-16.488 E8.62208
G1 X-10.270 Y-17.166 E8.66089
G1 X-8.800 Y-17.617 E8.70272
G1 X-7.324 Y-17.753 E8.74306
G1 X-5.905 Y-17.606 E8.78186
G1 X-4.569 Y-17.200 E8.81987
G1 X-3.213 Y-16.471 E8.86175
G1 X-2.156 Y-15.601 E8.89899
G1 X-1.246 Y-14.504 E8.93776
G1 X-0.507 Y-13.121 E8.98041
G1 X-0.111 Y-11.812 E9.01764
G1 X-0.033 Y-11.091 E9.03737
G1 X0.111 Y-12.478 E9.07533
G1 X0.539 Y-13.867 E9.11486
G1 X1.197 Y-15.100 E9.15290
G1 X2.116 Y-16.227 E9.19246
G1 X3.236 Y-17.154 E9.23201
G1 X4.516 Y-17.845 E9.27159
G1 X5.905 Y-18.272 E9.31113
G1 X7.266 Y-18.414 E9.34834
G1 X7.352 Y-17.841 F7800.000
G1 X8.743 Y-17.704 F540.000 E9.38636
G1 X10.023 Y-17.309 E9.42281
G1 X11.203 Y-16.672 E9.45929
G1 X12.196 Y-15.857 E9.49424
G1 X13.050 Y-14.825 E9.53068
G1 X13.709 Y-13.593 E9.56872
G1 X14.092 Y-12.309 E9.60515
G1 X14.219 Y-11.032 E9.64009
G1 X14.081 Y-9.641 E9.67811
G1 X13.688 Y-8.360 E9.71456
G1 X13.082 Y-7.227 E9.74951
G1 X11.514 Y-5.308 E9.81693
G1 X10.991 Y-4.330 E9.84712
G1 X10.669 Y-3.268 E9.87730
G1 X10.560 Y-2.164 E9.90749
G1 X10.669 Y-1.060 E9.93768
G1 X10.991 Y0.002 E9.96786
G1 X11.514 Y0.981 E9.99806
G1 X12.218 Y1.838 E10.02823
G1 X13.075 Y2.542 E10.05840
G1 X14.054 Y3.065 E10.08859
G1 X15.115 Y3.387 E10.11878
G1 X16.219 Y3.496 E10.14896
G1 X17.324 Y3.387 E10.17915
G1 X18.385 Y3.065 E10.20933
G1 X19.364 Y2.542 E10.23953
G1 X20.221 Y1.838 E10.26970
G1 X20.925 Y0.981 E10.29987
G1 X21.448 Y0.002 E10.33006
G1 X21.770 Y-1.060 E10.36025
G1 X21.879 Y-2.164 E10.39043
G1 X21.770 Y-3.268 E10.42062
G1 X21.448 Y-4.330 E10.45080
G1 X20.925 Y-5.308 E10.48100
G1 X19.357 Y-7.227 E10.54841
G1 X18.730 Y-8.413 E10.58491
G1 X18.347 Y-9.696 E10.62135
G1 X18.220 Y-11.032 E10.65784
G1 X18.347 Y-12.309 E10.69277
G1 X18.730 Y-13.593 E10.72921
G1 X19.357 Y-14.778 E10.76571
G1 X20.203 Y-15.817 E10.80215
G1 X21.236 Y-16.672 E10.83864
G1 X22.468 Y-17.331 E10.87665
G1 X23.752 Y-17.715 E10.91311
G1 X25.030 Y-17.841 E10.94804
G1 X26.365 Y-17.715 E10.98452
G1 X27.701 Y-17.309 E11.02251
G1 X28.881 Y-16.672 E11.05900
G1 X29.873 Y-15.857 E11.09392
G1 X30.728 Y-14.826 E11.13038
G1 X31.386 Y-13.593 E11.16840
G1 X31.770 Y-12.309 E11.20485
G1 X31.896 Y-11.031 E11.23979
G1 X31.770 Y-9.697 E11.27626
G1 X31.386 Y-8.413 E11.31272
G1 X30.760 Y-7.228 E11.34919
G1 X29.913 Y-6.187 E11.38568
G1 X29.040 Y-5.464 E11.41653
G1 X29.257 Y-4.728 E11.43739
G1 X29.507 Y-2.135 E11.50826
G1 X29.246 Y0.456 E11.57913
G1 X28.485 Y2.948 E11.65001
G1 X27.252 Y5.242 E11.72086
G1 X25.635 Y7.212 E11.79020
G1 X23.625 Y8.869 E11.86107
G1 X22.951 Y9.235 E11.88194
G1 X23.057 Y10.365 E11.91280
G1 X22.920 Y11.698 E11.94927
G1 X22.526 Y12.980 E11.98575
G1 X21.889 Y14.159 E12.02220
G1 X21.075 Y15.151 E12.05713
G1 X20.042 Y16.006 E12.09361
G1 X18.810 Y16.664 E12.13160
G1 X17.582 Y17.037 E12.16654
G1 X16.248 Y17.174 E12.20301
G1 X14.913 Y17.048 E12.23949
G1 X13.576 Y16.642 E12.27751
G1 X12.397 Y16.006 E12.31396
G1 X11.404 Y15.192 E12.34889
G1 X10.550 Y14.159 E12.38537
G1 X9.892 Y12.927 E12.42336
G1 X9.508 Y11.642 E12.45983
G1 X9.382 Y10.365 E12.49477
G1 X9.488 Y9.235 E12.52563
G1 X8.814 Y8.869 E12.54650
G1 X6.804 Y7.212 E12.61737
G1 X5.155 Y5.194 E12.68825
G1 X3.933 Y2.895 E12.75910
G1 X3.182 Y0.400 E12.82998
G1 X2.932 Y-2.135 E12.89931
G1 X3.182 Y-4.728 E12.97017
G1 X3.399 Y-5.464 E12.99104
G1 X2.526 Y-6.187 E13.02189
G1 X1.711 Y-7.180 E13.05683
G1 X1.053 Y-8.413 E13.09485
G1 X0.669 Y-9.697 E13.13130
G1 X0.543 Y-10.974 E13.16624
G1 X0.669 Y-12.309 E13.20272
G1 X1.053 Y-13.593 E13.23917
G1 X1.679 Y-14.778 E13.27564
G1 X2.566 Y-15.857 E13.31365
G1 X3.605 Y-16.704 E13.35012
G1 X4.738 Y-17.309 E13.38506
G1 X6.018 Y-17.704 E13.42151
G1 X7.266 Y-17.832 E13.45562
G1 F1800.000 E12.45562
G92 E0
G1 X-1.074 Y-12.978 F7800.000
G1 F1800.000 E1.00000
G1 X-0.669 Y-11.642 F540.000 E1.03799
G1 X-0.543 Y-10.365 E1.07292
G1 X-0.669 Y-9.030 E1.10940
G1 X-1.053 Y-7.746 E1.14585
G1 X-1.679 Y-6.561 E1.18233
G1 X-2.526 Y-5.521 E1.21882
G1 X-3.399 Y-4.797 E1.24966
G1 X-3.182 Y-4.061 E1.27053
G1 X-2.932 Y-1.469 E1.34140
G1 X-3.182 Y1.067 E1.41072
G1 X-3.933 Y3.562 E1.48160
G1 X-5.155 Y5.861 E1.55245
G1 X-6.804 Y7.878 E1.62333
G1 X-8.814 Y9.535 E1.69421
G1 X-9.488 Y9.902 E1.71507
G1 X-9.382 Y11.031 E1.74593
G1 X-9.519 Y12.365 E1.78241
G1 X-9.892 Y13.594 E1.81735
G1 X-10.518 Y14.778 E1.85380
G1 X-11.364 Y15.818 E1.89027
G1 X-12.397 Y16.672 E1.92675
G1 X-13.576 Y17.309 E1.96320
G1 X-14.857 Y17.704 E1.99968
G1 X-16.191 Y17.841 E2.03615
G1 X-17.526 Y17.715 E2.07263
G1 X-18.810 Y17.331 E2.10910
G1 X-19.995 Y16.704 E2.14556
G1 X-21.075 Y15.818 E2.18357
G1 X-21.889 Y14.825 E2.21850
G1 X-22.526 Y13.646 E2.25495
G1 X-22.931 Y12.309 E2.29297
G1 X-23.057 Y11.031 E2.32790
G1 X-22.951 Y9.902 E2.35877
G1 X-23.625 Y9.535 E2.37963
G1 X-25.635 Y7.878 E2.45051
G1 X-27.284 Y5.861 E2.52138
G1 X-28.506 Y3.562 E2.59224
G1 X-29.257 Y1.067 E2.66312
G1 X-29.507 Y-1.469 E2.73244
G1 X-29.257 Y-4.061 E2.80331
G1 X-29.040 Y-4.797 E2.82418
G1 X-29.913 Y-5.521 E2.85502
G1 X-30.760 Y-6.561 E2.89151
G1 X-31.386 Y-7.746 E2.92799
G1 X-31.770 Y-9.030 E2.96444
G1 X-31.896 Y-10.308 E2.99938
G1 X-31.770 Y-11.642 E3.03585
G1 X-31.386 Y-12.926 E3.07231
G1 X-30.760 Y-14.111 E3.10878
G1 X-29.873 Y-15.191 E3.14678
G1 X-28.834 Y-16.037 E3.18326
G1 X-27.701 Y-16.642 E3.21820
G1 X-26.421 Y-17.037 E3.25464
G1 X-25.087 Y-17.174 E3.29112
G1 X-23.752 Y-17.048 E3.32760
G1 X-22.416 Y-16.642 E3.36558
G1 X-21.236 Y-16.006 E3.40207
G1 X-20.243 Y-15.191 E3.43701
G1 X-19.389 Y-14.159 E3.47346
G1 X-18.751 Y-12.979 E3.50995
G1 X-18.358 Y-11.698 E3.54640
G1 X-18.220 Y-10.365 E3.58287
G1 X-18.347 Y-9.030 E3.61936
G1 X-18.730 Y-7.746 E3.65579
G1 X-19.357 Y-6.561 E3.69229
G1 X-20.925 Y-4.642 E3.75971
G1 X-21.448 Y-3.663 E3.78990
G1 X-21.770 Y-2.601 E3.82008
G1 X-21.879 Y-1.497 E3.85027
G1 X-21.770 Y-0.393 E3.88046
G1 X-21.448 Y0.669 E3.91064
G1 X-20.925 Y1.647 E3.94083
G1 X-20.221 Y2.504 E3.97101
G1 X-19.364 Y3.208 E4.00118
G1 X-18.385 Y3.731 E4.03137
G1 X-17.324 Y4.054 E4.06155
G1 X-16.220 Y4.162 E4.09174
G1 X-15.115 Y4.054 E4.12193
G1 X-14.054 Y3.731 E4.15211
G1 X-13.075 Y3.208 E4.18230
G1 X-12.218 Y2.504 E4.21248
G1 X-11.514 Y1.647 E4.24265
G1 X-10.991 Y0.669 E4.27284
G1 X-10.669 Y-0.393 E4.30302
G1 X-10.560 Y-1.497 E4.33321
G1 X-10.669 Y-2.601 E4.36340
G1 X-10.991 Y-3.663 E4.39358
G1 X-11.514 Y-4.642 E4.42378
G1 X-13.082 Y-6.561 E4.49119
G1 X-13.709 Y-7.746 E4.52769
G1 X-14.092 Y-9.030 E4.56412
G1 X-14.219 Y-10.365 E4.60061
G1 X-14.092 Y-11.643 E4.63555
G1 X-13.709 Y-12.926 E4.67199
G1 X-13.082 Y-14.112 E4.70848
G1 X-12.236 Y-15.151 E4.74493
G1 X-11.203 Y-16.006 E4.78142
G1 X-9.971 Y-16.664 E4.81943
G1 X-8.687 Y-17.048 E4.85589
G1 X-7.409 Y-17.174 E4.89082
G1 X-6.074 Y-17.048 E4.92730
G1 X-4.738 Y-16.642 E4.96529
G1 X-3.558 Y-16.006 E5.00177
G1 X-2.526 Y-15.151 E5.03823
G1 X-1.711 Y-14.159 E5.07316
G1 X-1.115 Y-13.055 E5.10728
