; generated by Slic3r 0.9.10b on 2013-10-28 at 13:52:10

; layer_height = 0.3
; perimeters = 2
; top_solid_layers = 3
; bottom_solid_layers = 3
; fill_density = 0.4
; perimeter_speed = 30
; infill_speed = 60
; travel_speed = 130
; nozzle_diameter = 0.5
; filament_diameter = 2.85
; extrusion_multiplier = 1
; perimeters extrusion width = 0.70mm
; infill extrusion width = 0.70mm
; solid infill extrusion width = 0.70mm
; top infill extrusion width = 0.70mm
; support material extrusion width = 0.70mm
; first layer extrusion width = 0.60mm

G21 ; set units to millimeters
M107
M104 S0
M83
M140 S70
G28
G1Y98F9000
M190 S70
G1X5Y98Z150F9000
M104 S210
G1X5Y98Z1F9000
G1Z0.05
M109 S210
G1Z5
G1X15
;G1E5F50
G90 ; use absolute coordinates
G92 E0
M82 ; use absolute distances for extrusion
G1 F1800.000 E-1.00000
G92 E0
G1 Z0.300 F7800.000
G1 X-41.393 Y3.820
G1 F1800.000 E1.00000
G1 X-41.393 Y-4.280 F540.000 E1.22037
G1 X-41.323 Y-5.240 E1.24656
G1 X-40.983 Y-7.550 E1.31009
G1 X-40.893 Y-8.030 E1.32337
G1 X-40.633 Y-9.190 E1.35572
G1 X-40.013 Y-11.660 E1.42500
G1 X-39.873 Y-12.160 E1.43913
G1 X-39.483 Y-13.320 E1.47242
G1 X-38.613 Y-15.740 E1.54239
G1 X-38.353 Y-16.350 E1.56043
G1 X-37.253 Y-18.670 E1.63028
G1 X-36.363 Y-20.400 E1.68321
G1 X-34.973 Y-22.710 E1.75656
G1 X-33.793 Y-24.420 E1.81309
G1 X-32.933 Y-25.570 E1.85216
G1 X-31.633 Y-27.180 E1.90846
G1 X-30.593 Y-28.340 E1.95084
G1 X-29.423 Y-29.590 E1.99742
G1 X-29.013 Y-30.000 E2.01320
G1 X-26.383 Y-32.350 E2.10916
G1 X-25.953 Y-32.700 E2.12424
G1 X-24.183 Y-34.010 E2.18415
G1 X-22.503 Y-35.160 E2.23954
G1 X-20.243 Y-36.530 E2.31144
G1 X-19.773 Y-36.780 E2.32593
G1 X-17.433 Y-37.940 E2.39698
G1 X-16.963 Y-38.150 E2.41099
G1 X-14.103 Y-39.300 E2.49485
G1 X-13.513 Y-39.510 E2.51189
G1 X-9.583 Y-40.670 E2.62337
G1 X-8.663 Y-40.870 E2.64899
G1 X-7.723 Y-40.940 E2.67463
G1 X8.087 Y-40.940 E3.10477
G1 X9.027 Y-40.870 E3.13042
G1 X9.947 Y-40.670 E3.15603
G1 X13.877 Y-39.510 E3.26751
G1 X14.467 Y-39.300 E3.28455
G1 X17.327 Y-38.150 E3.36842
G1 X17.797 Y-37.940 E3.38242
G1 X20.137 Y-36.780 E3.45348
G1 X20.607 Y-36.530 E3.46796
G1 X22.867 Y-35.160 E3.53987
G1 X24.547 Y-34.010 E3.59526
G1 X26.317 Y-32.700 E3.65517
G1 X26.747 Y-32.350 E3.67025
G1 X29.377 Y-30.000 E3.76621
G1 X29.787 Y-29.590 E3.78198
G1 X30.957 Y-28.340 E3.82856
G1 X31.997 Y-27.180 E3.87095
G1 X32.227 Y-26.900 E3.88081
G1 X33.297 Y-25.570 E3.92725
G1 X34.157 Y-24.420 E3.96632
G1 X35.337 Y-22.710 E4.02284
G1 X36.727 Y-20.400 E4.09619
G1 X36.947 Y-19.990 E4.10885
G1 X37.617 Y-18.670 E4.14912
G1 X38.717 Y-16.350 E4.21898
G1 X38.977 Y-15.740 E4.23702
G1 X39.807 Y-13.360 E4.30560
G1 X40.217 Y-12.110 E4.34139
G1 X40.337 Y-11.690 E4.35327
G1 X41.227 Y-8.130 E4.45311
G1 X41.347 Y-7.540 E4.46949
G1 X41.557 Y-6.060 E4.51016
G1 X41.667 Y-4.910 E4.54159
G1 X41.697 Y-4.280 E4.55875
G1 X41.677 Y3.930 E4.78212
G1 X41.657 Y5.090 E4.81368
G1 X41.587 Y5.930 E4.83661
G1 X41.417 Y7.090 E4.86851
G1 X41.147 Y8.530 E4.90837
G1 X41.027 Y9.040 E4.92262
G1 X39.977 Y12.810 E5.02910
G1 X39.597 Y13.970 E5.06231
G1 X39.137 Y15.270 E5.09982
G1 X38.387 Y17.050 E5.15238
G1 X37.297 Y19.360 E5.22187
G1 X36.997 Y19.910 E5.23891
G1 X35.607 Y22.240 E5.31273
G1 X34.737 Y23.590 E5.35642
G1 X34.497 Y23.940 E5.36797
G1 X32.777 Y26.260 E5.44654
G1 X32.377 Y26.750 E5.46375
G1 X30.287 Y29.060 E5.54850
G1 X29.937 Y29.420 E5.56217
G1 X28.607 Y30.690 E5.61220
G1 X27.337 Y31.840 E5.65881
G1 X25.357 Y33.400 E5.72739
G1 X23.797 Y34.560 E5.78028
G1 X23.257 Y34.920 E5.79794
G1 X21.347 Y36.070 E5.85859
G1 X18.537 Y37.580 E5.94538
G1 X15.987 Y38.740 E6.02160
G1 X15.387 Y38.980 E6.03918
G1 X11.987 Y40.140 E6.13692
G1 X11.127 Y40.370 E6.16114
G1 X5.257 Y41.520 E6.32388
G1 X4.637 Y41.610 E6.34093
G1 X3.997 Y41.640 E6.35836
G1 X-3.633 Y41.640 E6.56594
G1 X-4.273 Y41.610 E6.58337
G1 X-4.893 Y41.520 E6.60042
G1 X-10.763 Y40.370 E6.76316
G1 X-11.623 Y40.140 E6.78738
G1 X-15.023 Y38.980 E6.88512
G1 X-15.623 Y38.740 E6.90270
G1 X-18.173 Y37.580 E6.97892
G1 X-18.583 Y37.370 E6.99145
G1 X-20.983 Y36.070 E7.06571
G1 X-22.893 Y34.920 E7.12637
G1 X-23.433 Y34.560 E7.14402
G1 X-24.993 Y33.400 E7.19691
G1 X-26.973 Y31.840 E7.26549
G1 X-28.243 Y30.690 E7.31211
G1 X-29.573 Y29.420 E7.36214
G1 X-29.923 Y29.060 E7.37580
G1 X-32.013 Y26.750 E7.46055
G1 X-32.413 Y26.260 E7.47776
G1 X-34.133 Y23.940 E7.55633
G1 X-34.373 Y23.590 E7.56788
G1 X-35.243 Y22.240 E7.61158
G1 X-36.633 Y19.910 E7.68539
G1 X-36.933 Y19.360 E7.70244
G1 X-38.023 Y17.050 E7.77193
G1 X-38.613 Y15.680 E7.81251
G1 X-39.593 Y12.980 E7.89066
G1 X-40.053 Y11.480 E7.93334
G1 X-40.703 Y8.890 E8.00599
G1 X-41.003 Y7.380 E8.04788
G1 X-41.223 Y5.930 E8.08778
G1 X-41.363 Y4.390 E8.12985
G1 X-41.389 Y3.907 E8.14302
G1 F1800.000 E7.14302
G92 E0
G1 X-28.581 Y7.298 F7800.000
G1 F1800.000 E1.00000
G1 X-34.322 Y7.298 F1080.000 E1.15618
G1 X-34.032 Y8.455 E1.18863
G1 X-28.167 Y8.455 E1.34819
G1 X-27.753 Y9.612 E1.38163
G1 X-33.742 Y9.612 E1.54458
G1 X-33.396 Y10.769 E1.57743
G1 X-27.339 Y10.769 E1.74223
G1 X-26.855 Y11.926 E1.77635
G1 X-32.982 Y11.926 E1.94305
G1 X-32.568 Y13.083 E1.97648
G1 X-26.308 Y13.083 E2.14680
G1 X-25.723 Y14.241 E2.18207
G1 X-32.069 Y14.241 E2.35473
G1 X-31.522 Y15.398 E2.38955
G1 X-25.029 Y15.398 E2.56619
G1 X-24.319 Y16.555 E2.60314
G1 X-30.975 Y16.555 E2.78423
G1 X-30.291 Y17.712 E2.82079
G1 X-23.460 Y17.712 E3.00663
G1 X-22.585 Y18.869 E3.04610
G1 X-29.598 Y18.869 E3.23688
G1 X-28.844 Y20.026 E3.27445
G1 X-21.537 Y20.026 E3.47327
G1 X-20.435 Y21.183 E3.51673
G1 X-27.986 Y21.183 E3.72217
G1 X-27.128 Y22.340 E3.76136
G1 X-19.159 Y22.340 E3.97819
G1 X-17.718 Y23.497 E4.02846
G1 X-26.087 Y23.497 E4.25617
G1 X-25.039 Y24.654 E4.29866
G1 X-16.148 Y24.654 E4.54054
G1 X-14.218 Y25.811 E4.60177
G1 X-23.821 Y25.811 E4.86304
G1 X-22.544 Y26.968 E4.90991
G1 X-11.894 Y26.968 E5.19966
G1 X-8.906 Y28.125 E5.28686
G1 X-21.061 Y28.125 E5.61755
G1 X-19.500 Y29.283 E5.67040
G1 X-3.759 Y29.283 E6.09867
G1 F1800.000 E5.09867
G92 E0
G1 X-3.625 Y35.068 F7800.000
G1 F1800.000 E1.00000
G1 X3.999 Y35.068 F1080.000 E1.20740
G1 F1800.000 E0.20740
G92 E0
G1 X4.133 Y29.283 F7800.000
G1 F1800.000 E1.00000
G1 X19.874 Y29.283 F1080.000 E1.42827
G1 X21.434 Y28.125 E1.48112
G1 X8.619 Y28.125 E1.82977
G1 X7.306 Y26.968 E1.87739
G1 X22.918 Y26.968 E2.30215
G1 X24.195 Y25.811 E2.34903
G1 X6.379 Y25.811 E2.83372
G1 X5.763 Y24.654 E2.86939
G1 X25.412 Y24.654 E3.40398
G1 X26.461 Y23.497 E3.44647
G1 X5.360 Y23.497 E4.02056
G1 X5.127 Y22.340 E4.05268
G1 X11.172 Y22.340 E4.21713
G1 X11.112 Y21.183 E4.24865
G1 X5.147 Y21.183 E4.41094
G1 X5.315 Y20.026 E4.44276
G1 X12.406 Y20.026 E4.63567
G1 X12.968 Y20.026 F7800.000
G1 X20.089 Y20.026 F1080.000 E4.82941
G1 X20.456 Y21.183 E4.86244
G1 X14.262 Y21.183 E5.03096
G1 X14.202 Y22.340 E5.06249
G1 X27.502 Y22.340 E5.42433
G1 X28.360 Y21.183 E5.46352
G1 X20.861 Y21.183 E5.66754
G1 X21.910 Y20.026 E5.71003
G1 X29.218 Y20.026 E5.90885
G1 X29.972 Y18.869 E5.94642
G1 X22.959 Y18.869 E6.13720
G1 X23.834 Y17.712 E6.17667
G1 X30.665 Y17.712 E6.36251
G1 X31.348 Y16.555 E6.39907
G1 X24.692 Y16.555 E6.58016
G1 X25.403 Y15.398 E6.61711
G1 X31.896 Y15.398 E6.79374
G1 X32.443 Y14.241 E6.82857
G1 X26.097 Y14.241 E7.00123
G1 X26.681 Y13.083 E7.03650
G1 X32.942 Y13.083 E7.20682
G1 X33.356 Y11.926 E7.24025
G1 X27.229 Y11.926 E7.40695
G1 X27.712 Y10.769 E7.44107
G1 X33.735 Y10.769 E7.60493
G1 X34.050 Y9.612 E7.63756
G1 X28.126 Y9.612 E7.79873
G1 X28.526 Y8.455 E7.83203
G1 X34.372 Y8.455 E7.99108
G1 X34.693 Y7.298 E8.02375
G1 X28.816 Y7.298 E8.18363
G1 X29.106 Y6.141 E8.21609
G1 X34.909 Y6.141 E8.37397
G1 X35.081 Y4.984 E8.40580
G1 X29.315 Y4.984 E8.56266
G1 X29.487 Y3.827 E8.59448
G1 X35.099 Y3.827 E8.74716
G1 X35.045 Y2.670 E8.77867
G1 X29.636 Y2.670 E8.92583
G1 X29.693 Y1.513 E8.95735
G1 X34.905 Y1.513 E9.09916
G1 X34.855 Y0.356 E9.13067
G1 X29.750 Y0.356 E9.26956
G1 X29.728 Y-0.802 E9.30104
G1 X34.833 Y-0.802 E9.43993
G1 X34.883 Y-1.959 E9.47144
G1 X29.671 Y-1.959 E9.61326
G1 X29.593 Y-3.116 E9.64481
G1 X35.122 Y-3.116 E9.79524
G1 X35.122 Y-4.273 E9.82672
G1 X29.421 Y-4.273 E9.98183
G1 X29.249 Y-5.430 E10.01366
G1 X35.015 Y-5.430 E10.17052
G1 X34.843 Y-6.587 E10.20235
G1 X28.994 Y-6.587 E10.36147
G1 X28.704 Y-7.744 E10.39393
G1 X34.566 Y-7.744 E10.55339
G1 X34.261 Y-8.901 E10.58595
G1 X28.381 Y-8.901 E10.74592
G1 X27.967 Y-10.058 E10.77935
G1 X33.971 Y-10.058 E10.94270
G1 X33.592 Y-11.215 E10.97583
G1 X27.553 Y-11.215 E11.14012
G1 X27.018 Y-12.372 E11.17480
G1 X33.196 Y-12.372 E11.34290
G1 X32.782 Y-13.529 E11.37633
G1 X26.470 Y-13.529 E11.54805
G1 X25.829 Y-14.686 E11.58404
G1 X32.232 Y-14.686 E11.75823
G1 X31.685 Y-15.844 E11.79305
G1 X25.136 Y-15.844 E11.97123
G1 X24.362 Y-17.001 E12.00910
G1 X31.091 Y-17.001 E12.19220
G1 X30.398 Y-18.158 E12.22890
G1 X23.503 Y-18.158 E12.41647
G1 X22.555 Y-19.315 E12.45717
G1 X29.704 Y-19.315 E12.65168
G1 X28.888 Y-20.472 E12.69022
G1 X21.506 Y-20.472 E12.89104
G1 X20.457 Y-21.629 E12.93353
G1 X28.029 Y-21.629 E13.13954
G1 X27.106 Y-22.786 E13.17982
G1 X13.874 Y-22.786 E13.53982
G1 X14.381 Y-21.629 E13.57419
G1 X20.381 Y-21.629 E13.73743
G1 X20.148 Y-20.472 E13.76954
G1 X13.830 Y-20.472 E13.94143
G1 F1800.000 E12.94143
G92 E0
G1 X11.543 Y-20.472 F7800.000
G1 F1800.000 E1.00000
G1 X5.229 Y-20.472 F1080.000 E1.17180
G1 X5.107 Y-21.629 E1.20346
G1 X10.993 Y-21.629 E1.36359
G1 X11.500 Y-22.786 E1.39796
G1 X5.212 Y-22.786 E1.56905
G1 X5.496 Y-23.943 E1.60147
G1 X26.057 Y-23.943 E2.16086
G1 X24.979 Y-25.100 E2.20387
G1 X5.964 Y-25.100 E2.72123
G1 X6.673 Y-26.257 E2.75815
G1 X23.703 Y-26.257 E3.22148
G1 X22.393 Y-27.414 E3.26902
G1 X7.730 Y-27.414 E3.66796
G1 X7.716 Y-28.571 F7800.000
G1 X20.833 Y-28.571 F1080.000 E4.02483
G1 X19.149 Y-29.729 E4.08041
G1 X-18.776 Y-29.729 E5.11222
G1 X-16.845 Y-30.886 E5.17346
G1 X17.219 Y-30.886 E6.10022
G1 X14.878 Y-32.043 E6.17126
G1 X-14.505 Y-32.043 E6.97067
G1 X-11.653 Y-33.200 E7.05440
G1 X12.026 Y-33.200 E7.69863
G1 X8.091 Y-34.357 E7.81024
G1 X-7.717 Y-34.357 E8.24031
G1 F1800.000 E7.24031
G92 E0
G1 X-7.342 Y-28.571 F7800.000
G1 F1800.000 E1.00000
G1 X-20.459 Y-28.571 F1080.000 E1.35687
G1 X-22.019 Y-27.414 E1.40972
G1 X-10.893 Y-27.414 E1.71243
G1 X-13.398 Y-26.257 E1.78750
G1 X-23.329 Y-26.257 E2.05769
G1 X-24.606 Y-25.100 E2.10456
G1 X-15.404 Y-25.100 E2.35490
G1 X-17.126 Y-23.943 E2.41134
G1 X-25.683 Y-23.943 E2.64415
G1 X-26.732 Y-22.786 E2.68663
G1 X-18.654 Y-22.786 E2.90642
G1 X-19.938 Y-21.629 E2.95346
G1 X-27.656 Y-21.629 E3.16342
G1 X-28.514 Y-20.472 E3.20261
G1 X-21.132 Y-20.472 E3.40344
G1 X-22.181 Y-19.315 E3.44592
G1 X-29.330 Y-19.315 E3.64043
G1 X-30.024 Y-18.158 E3.67713
G1 X-23.130 Y-18.158 E3.86470
G1 X-23.988 Y-17.001 E3.90390
G1 X-30.717 Y-17.001 E4.08699
G1 X-31.311 Y-15.844 E4.12237
G1 X-24.762 Y-15.844 E4.30054
G1 X-25.456 Y-14.686 E4.33724
G1 X-31.858 Y-14.686 E4.51143
G1 X-32.405 Y-13.529 E4.54626
G1 X-26.097 Y-13.529 E4.71790
G1 X-26.644 Y-12.372 E4.75272
G1 X-32.822 Y-12.372 E4.92081
G1 X-33.236 Y-11.215 E4.95425
G1 X-27.179 Y-11.215 E5.11904
G1 X-27.593 Y-10.058 E5.15248
G1 X-33.630 Y-10.058 E5.31673
G1 X-33.920 Y-8.901 E5.34919
G1 X-28.007 Y-8.901 E5.51007
G1 X-28.421 Y-7.744 F7800.000
G1 X-34.210 Y-7.744 F1080.000 E5.66758
G1 F1800.000 E4.66758
G92 E0
G1 X-25.512 Y1.513 F7800.000
G1 F1800.000 E1.00000
G1 X-34.813 Y1.513 F1080.000 E1.25305
G1 X-34.813 Y0.356 E1.28453
G1 X-26.418 Y0.356 E1.51293
G1 X-26.298 Y-0.802 E1.54458
G1 X-34.813 Y-0.802 E1.77624
G1 X-34.813 Y-1.959 E1.80772
G1 X-17.486 Y-1.959 E2.27913
G1 X-17.296 Y-0.802 E2.31103
G1 X-23.328 Y-0.802 E2.47512
G1 X-23.208 Y0.356 E2.50677
G1 X-17.274 Y0.356 E2.66822
G1 F1800.000 E1.66822
G92 E0
G1 X-17.930 Y-3.116 F7800.000
G1 F1800.000 E1.00000
G1 X-34.813 Y-3.116 F1080.000 E1.45933
G1 X-34.813 Y-4.273 E1.49081
G1 X-18.596 Y-4.273 E1.93202
G1 X-19.571 Y-5.430 E1.97319
G1 X-34.641 Y-5.430 E2.38320
G1 X-34.469 Y-6.587 E2.41502
G1 X-21.122 Y-6.587 E2.77817
G1 F1800.000 E1.77817
G92 E0
G1 X-24.114 Y1.513 F7800.000
G1 F1800.000 E1.00000
G1 X-17.400 Y1.513 F1080.000 E1.18266
G1 X-17.722 Y2.670 E1.21533
G1 X-34.813 Y2.670 E1.68033
G1 X-34.813 Y3.827 E1.71181
G1 X-18.300 Y3.827 E2.16109
G1 X-19.144 Y4.984 E2.20006
G1 X-34.707 Y4.984 E2.62348
G1 X-34.536 Y6.141 E2.65530
G1 X-20.420 Y6.141 E3.03933
G1 X-22.860 Y7.298 E3.11280
G1 X-26.766 Y7.298 E3.21906
G1 F1800.000 E2.21906
G92 E0
G1 X11.197 Y14.241 F7800.000
G1 F1800.000 E1.00000
G1 X14.121 Y14.241 F1080.000 E1.07956
G1 X16.916 Y15.398 E1.16184
G1 X8.411 Y15.398 E1.39323
G1 X7.094 Y16.555 E1.44092
G1 X18.254 Y16.555 E1.74454
G1 X19.128 Y17.712 E1.78398
G1 X6.209 Y17.712 E2.13545
G1 X5.648 Y18.869 E2.17044
G1 X19.722 Y18.869 E2.55335
G1 F1800.000 E1.55335
G92 E0
G1 X17.963 Y30.440 F7800.000
G1 F1800.000 E1.00000
G1 X-17.589 Y30.440 F1080.000 E1.96725
G1 X-15.447 Y31.597 E2.03348
G1 X15.821 Y31.597 E2.88419
G1 X13.273 Y32.754 E2.96034
G1 X-12.899 Y32.754 E3.67238
G1 X-9.497 Y33.911 E3.77014
G1 X9.871 Y33.911 E4.29708
G1 F1800.000 E3.29708
G92 E0
G1 X9.765 Y-14.686 F7800.000
G1 F1800.000 E1.00000
G1 X15.690 Y-14.686 F1080.000 E1.16118
G1 X17.512 Y-15.844 E1.21992
G1 X7.812 Y-15.844 E1.48385
G1 X6.694 Y-17.001 E1.52761
G1 X18.636 Y-17.001 E1.85252
G1 X19.395 Y-18.158 E1.89016
G1 X5.969 Y-18.158 E2.25544
G1 X5.507 Y-19.315 E2.28934
G1 X19.905 Y-19.315 E2.68106
G1 F1800.000 E1.68106
G92 E0
G1 X-22.843 Y15.325 F7800.000
G1 F1800.000 E1.00000
G1 X-24.212 Y13.041 F540.000 E1.07244
G1 X-25.372 Y10.587 E1.14631
G1 X-25.776 Y9.460 E1.17887
G1 X-23.784 Y9.460 E1.23305
G1 X-21.775 Y9.018 E1.28904
G1 X-19.907 Y8.154 E1.34502
G1 X-18.269 Y6.908 E1.40100
G1 X-16.937 Y5.340 E1.45698
G1 X-15.973 Y3.522 E1.51296
G1 X-15.423 Y1.539 E1.56895
G1 X-15.311 Y-0.515 E1.62493
G1 X-15.644 Y-2.546 E1.68091
G1 X-16.406 Y-4.457 E1.73690
G1 X-17.561 Y-6.160 E1.79288
G1 X-19.054 Y-7.575 E1.84886
G1 X-20.818 Y-8.636 E1.90484
G1 X-22.768 Y-9.293 E1.96083
G1 X-24.813 Y-9.516 E2.01681
G1 X-25.794 Y-9.409 E2.04365
G1 X-25.372 Y-10.587 E2.07768
G1 X-24.212 Y-13.041 E2.15155
G1 X-22.816 Y-15.370 E2.22541
G1 X-21.199 Y-17.551 E2.29927
G1 X-19.375 Y-19.562 E2.37314
G1 X-17.364 Y-21.385 E2.44700
G1 X-15.183 Y-23.003 E2.52087
G1 X-12.854 Y-24.399 E2.59473
G1 X-10.400 Y-25.559 E2.66859
G1 X-7.844 Y-26.474 E2.74246
G1 X-5.210 Y-27.134 E2.81632
G1 X-2.525 Y-27.532 E2.89019
G1 X0.187 Y-27.665 E2.96405
G1 X2.899 Y-27.532 E3.03791
G1 X4.981 Y-27.223 E3.09518
G1 X3.980 Y-25.490 E3.14964
G1 X3.358 Y-23.528 E3.20562
G1 X3.173 Y-21.479 E3.26160
G1 X3.432 Y-19.438 E3.31758
G1 X4.124 Y-17.500 E3.37356
G1 X5.217 Y-15.756 E3.42954
G1 X6.659 Y-14.288 E3.48554
G1 X8.382 Y-13.164 E3.54152
G1 X10.308 Y-12.437 E3.59752
G1 X12.343 Y-12.141 E3.65347
G1 X14.396 Y-12.290 E3.70946
G1 X16.368 Y-12.876 E3.76544
G1 X18.168 Y-13.872 E3.82143
G1 X19.712 Y-15.232 E3.87741
G1 X20.928 Y-16.893 E3.93339
G1 X21.350 Y-17.850 E3.96187
G1 X23.190 Y-15.370 E4.04588
G1 X24.585 Y-13.041 E4.11975
G1 X25.746 Y-10.587 E4.19361
G1 X26.661 Y-8.031 E4.26748
G1 X27.320 Y-5.397 E4.34134
G1 X27.719 Y-2.712 E4.41520
G1 X27.852 Y-0.000 E4.48907
G1 X27.719 Y2.712 E4.56293
G1 X27.320 Y5.397 E4.63680
G1 X26.661 Y8.031 E4.71066
G1 X25.746 Y10.587 E4.78452
G1 X24.585 Y13.041 E4.85839
G1 X23.190 Y15.370 E4.93225
G1 X21.387 Y17.800 E5.01457
G1 X20.365 Y16.030 E5.07019
G1 X18.977 Y14.510 E5.12618
G1 X17.295 Y13.325 E5.18216
G1 X15.398 Y12.529 E5.23814
G1 X13.374 Y12.160 E5.29412
G1 X11.317 Y12.234 E5.35010
G1 X9.325 Y12.749 E5.40609
G1 X7.490 Y13.679 E5.46207
G1 X5.898 Y14.983 E5.51805
G1 X4.623 Y16.598 E5.57404
G1 X3.726 Y18.450 E5.63002
G1 X3.247 Y20.451 E5.68600
G1 X3.210 Y22.508 E5.74198
G1 X3.616 Y24.526 E5.79796
G1 X4.446 Y26.408 E5.85394
G1 X5.036 Y27.215 E5.88113
G1 X2.899 Y27.532 E5.93993
G1 X0.187 Y27.665 E6.01379
G1 X-2.525 Y27.532 E6.08766
G1 X-5.210 Y27.134 E6.16152
G1 X-7.844 Y26.474 E6.23539
G1 X-10.400 Y25.559 E6.30925
G1 X-12.854 Y24.398 E6.38312
G1 X-15.183 Y23.003 E6.45698
G1 X-17.364 Y21.385 E6.53084
G1 X-19.375 Y19.562 E6.60471
G1 X-21.199 Y17.551 E6.67857
G1 X-22.795 Y15.398 E6.75150
G1 X-23.297 Y15.692 F7800.000
G1 X-24.722 Y13.314 F540.000 E6.82691
G1 X-25.907 Y10.809 E6.90232
