; generated by Slic3r 0.9.9 on 2013-07-19 at 14:19:57

; layer_height = 0.3
; perimeters = 2
; top_solid_layers = 3
; bottom_solid_layers = 3
; fill_density = 0.3
; perimeter_speed = 30
; infill_speed = 60
; travel_speed = 130
; nozzle_diameter = 0.5
; filament_diameter = 2.85
; extrusion_multiplier = 1
; perimeters extrusion width = 0.70mm
; infill extrusion width = 0.70mm
; solid infill extrusion width = 0.70mm
; top infill extrusion width = 0.70mm
; first layer extrusion width = 0.60mm

G21 ; set units to millimeters
M107
M104 S0
M83
M140 S80
G28
G1Y98F9000
M190 S80
G1X5Y98Z150F9000
M104 S210
G1X5Y98Z1F9000
G1Z0.05
M109 S210
G1Z5
G1X15
;G1E5F50
G90 ; use absolute coordinates
G92 E0
M82 ; use absolute distances for extrusion
G1 F1800.000 E-1.00000
G92 E0
G1 Z0.300 F7800.000
G1 X3.250 Y21.280
G1 F1800.000 E1.00000
G1 X0.630 Y21.540 F540.000 E1.07163
G1 X-0.130 Y21.570 E1.09232
G1 X-0.640 Y21.540 E1.10622
G1 X-3.560 Y21.260 E1.18603
G1 X-4.340 Y21.140 E1.20750
G1 X-4.850 Y21.000 E1.22189
G1 X-7.670 Y20.140 E1.30210
G1 X-8.150 Y19.980 E1.31587
G1 X-8.390 Y19.880 E1.32294
G1 X-8.840 Y19.660 E1.33657
G1 X-11.430 Y18.280 E1.41641
G1 X-11.890 Y18.010 E1.43092
G1 X-12.320 Y17.710 E1.44519
G1 X-14.790 Y15.680 E1.53217
G1 X-15.350 Y15.160 E1.55296
G1 X-15.690 Y14.780 E1.56684
G1 X-17.560 Y12.510 E1.64685
G1 X-18.020 Y11.880 E1.66808
G1 X-18.290 Y11.420 E1.68259
G1 X-19.670 Y8.830 E1.76243
G1 X-19.990 Y8.140 E1.78312
G1 X-21.010 Y4.840 E1.87710
G1 X-21.150 Y4.330 E1.89149
G1 X-21.200 Y4.070 E1.89869
G1 X-21.270 Y3.550 E1.91296
G1 X-21.550 Y0.620 E1.99304
G1 X-21.580 Y-0.140 E2.01374
G1 X-21.550 Y-0.640 E2.02736
G1 X-21.270 Y-3.560 E2.10717
G1 X-21.150 Y-4.340 E2.12864
G1 X-21.010 Y-4.850 E2.14303
G1 X-19.990 Y-8.150 E2.23700
G1 X-19.670 Y-8.840 E2.25770
G1 X-18.290 Y-11.430 E2.33754
G1 X-18.020 Y-11.890 E2.35205
G1 X-17.560 Y-12.520 E2.37328
G1 X-15.690 Y-14.790 E2.45329
G1 X-15.350 Y-15.170 E2.46716
G1 X-14.790 Y-15.690 E2.48796
G1 X-12.520 Y-17.560 E2.56797
G1 X-11.890 Y-18.020 E2.58919
G1 X-11.430 Y-18.290 E2.60371
G1 X-8.840 Y-19.670 E2.68355
G1 X-8.150 Y-19.990 E2.70424
G1 X-4.850 Y-21.010 E2.79822
G1 X-4.340 Y-21.150 E2.81260
G1 X-4.080 Y-21.200 E2.81981
G1 X-3.560 Y-21.270 E2.83408
G1 X-0.640 Y-21.550 E2.91389
G1 X0.110 Y-21.580 E2.93431
G1 X0.620 Y-21.550 E2.94821
G1 X3.550 Y-21.270 E3.02829
G1 X4.330 Y-21.150 E3.04976
G1 X4.840 Y-21.010 E3.06415
G1 X8.140 Y-19.990 E3.15812
G1 X8.830 Y-19.670 E3.17882
G1 X11.420 Y-18.290 E3.25866
G1 X11.880 Y-18.020 E3.27317
G1 X12.510 Y-17.560 E3.29439
G1 X14.780 Y-15.690 E3.37441
G1 X15.340 Y-15.170 E3.39520
G1 X15.680 Y-14.790 E3.40907
G1 X17.550 Y-12.520 E3.48909
G1 X18.010 Y-11.890 E3.51031
G1 X18.280 Y-11.430 E3.52482
G1 X19.660 Y-8.840 E3.60467
G1 X19.980 Y-8.150 E3.62536
G1 X21.000 Y-4.850 E3.71933
G1 X21.140 Y-4.340 E3.73372
G1 X21.190 Y-4.080 E3.74093
G1 X21.260 Y-3.560 E3.75520
G1 X21.540 Y-0.640 E3.83501
G1 X21.570 Y0.110 E3.85543
G1 X21.540 Y0.620 E3.86933
G1 X21.260 Y3.550 E3.94941
G1 X21.140 Y4.330 E3.97088
G1 X21.000 Y4.840 E3.98527
G1 X20.140 Y7.660 E4.06548
G1 X19.980 Y8.140 E4.07924
G1 X19.880 Y8.380 E4.08632
G1 X19.660 Y8.830 E4.09995
G1 X18.280 Y11.420 E4.17979
G1 X18.010 Y11.880 E4.19430
G1 X17.710 Y12.310 E4.20857
G1 X15.680 Y14.780 E4.29555
G1 X15.160 Y15.340 E4.31634
G1 X14.780 Y15.680 E4.33021
G1 X12.510 Y17.550 E4.41023
G1 X11.880 Y18.010 E4.43145
G1 X11.420 Y18.280 E4.44596
G1 X8.830 Y19.660 E4.52581
G1 X8.140 Y19.980 E4.54650
G1 X4.540 Y21.090 E4.64899
G1 X3.930 Y21.210 E4.66591
G1 X3.337 Y21.277 E4.68216
G1 F1800.000 E3.68216
G92 E0
G1 X1.942 Y9.764 F7800.000
G1 F1800.000 E1.00000
G1 X-0.000 Y9.955 F540.000 E1.05310
G1 X-1.942 Y9.764 E1.10619
G1 X-3.810 Y9.198 E1.15929
G1 X-5.531 Y8.278 E1.21238
G1 X-7.039 Y7.039 E1.26548
G1 X-8.278 Y5.531 E1.31858
G1 X-9.198 Y3.810 E1.37167
G1 X-9.764 Y1.942 E1.42477
G1 X-9.955 Y0.000 E1.47786
G1 X-9.764 Y-1.942 E1.53096
G1 X-9.198 Y-3.810 E1.58406
G1 X-8.278 Y-5.531 E1.63715
G1 X-7.039 Y-7.039 E1.69025
G1 X-5.531 Y-8.278 E1.74335
G1 X-3.810 Y-9.198 E1.79644
G1 X-1.942 Y-9.764 E1.84954
G1 X-0.000 Y-9.955 E1.90263
G1 X1.942 Y-9.764 E1.95573
G1 X3.810 Y-9.198 E2.00883
G1 X5.531 Y-8.278 E2.06192
G1 X7.039 Y-7.039 E2.11502
G1 X8.278 Y-5.531 E2.16812
G1 X9.198 Y-3.810 E2.22121
G1 X9.764 Y-1.942 E2.27431
G1 X9.955 Y-0.000 E2.32740
G1 X9.764 Y1.942 E2.38050
G1 X9.198 Y3.810 E2.43360
G1 X8.278 Y5.531 E2.48669
G1 X7.039 Y7.039 E2.53979
G1 X5.531 Y8.278 E2.59288
G1 X3.810 Y9.198 E2.64598
G1 X2.025 Y9.739 E2.69672
G1 X1.829 Y9.194 F7800.000
G1 X0.000 Y9.374 F540.000 E2.74671
G1 X-1.829 Y9.194 E2.79671
G1 X-3.587 Y8.660 E2.84670
G1 X-5.208 Y7.794 E2.89670
G1 X-6.628 Y6.628 E2.94669
G1 X-7.794 Y5.208 E2.99669
G1 X-8.660 Y3.587 E3.04669
G1 X-9.194 Y1.829 E3.09668
G1 X-9.374 Y0.000 E3.14668
G1 X-9.194 Y-1.829 E3.19667
G1 X-8.660 Y-3.587 E3.24667
G1 X-7.794 Y-5.208 E3.29666
G1 X-6.628 Y-6.628 E3.34666
G1 X-5.208 Y-7.794 E3.39665
G1 X-3.587 Y-8.660 E3.44665
G1 X-1.829 Y-9.194 E3.49665
G1 X-0.000 Y-9.374 E3.54664
G1 X1.829 Y-9.194 E3.59664
G1 X3.587 Y-8.660 E3.64663
G1 X5.208 Y-7.794 E3.69663
G1 X6.628 Y-6.628 E3.74662
G1 X7.794 Y-5.208 E3.79662
G1 X8.660 Y-3.587 E3.84662
G1 X9.194 Y-1.829 E3.89661
G1 X9.374 Y-0.000 E3.94661
G1 X9.194 Y1.829 E3.99660
G1 X8.660 Y3.587 E4.04660
G1 X7.794 Y5.208 E4.09659
G1 X6.628 Y6.628 E4.14659
G1 X5.208 Y7.794 E4.19658
G1 X3.587 Y8.660 E4.24658
G1 X1.912 Y9.169 E4.29421
G1 X1.625 Y9.735 F7800.000
G1 F1800.000 E3.29421
G92 E0
G1 X2.756 Y-13.857 F7800.000
G1 F1800.000 E1.00000
G1 X5.407 Y-13.053 F540.000 E1.07535
G1 X7.849 Y-11.747 E1.15070
G1 X9.990 Y-9.990 E1.22605
G1 X11.747 Y-7.849 E1.30140
G1 X13.053 Y-5.407 E1.37675
G1 X13.857 Y-2.756 E1.45210
G1 X14.128 Y-0.000 E1.52745
G1 X13.857 Y2.756 E1.60281
G1 X13.053 Y5.407 E1.67816
G1 X11.747 Y7.849 E1.75351
G1 X9.990 Y9.990 E1.82886
G1 X7.849 Y11.747 E1.90421
G1 X5.407 Y13.053 E1.97956
G1 X2.756 Y13.857 E2.05491
G1 X0.000 Y14.128 E2.13026
G1 X-2.756 Y13.857 E2.20561
G1 X-5.407 Y13.053 E2.28096
G1 X-7.849 Y11.747 E2.35631
G1 X-9.990 Y9.990 E2.43166
G1 X-11.747 Y7.849 E2.50701
G1 X-13.053 Y5.407 E2.58236
G1 X-13.857 Y2.756 E2.65771
G1 X-14.128 Y-0.000 E2.73307
G1 X-13.857 Y-2.756 E2.80842
G1 X-13.053 Y-5.407 E2.88377
G1 X-11.747 Y-7.849 E2.95912
G1 X-9.990 Y-9.990 E3.03447
G1 X-7.849 Y-11.747 E3.10982
G1 X-5.407 Y-13.053 E3.18517
G1 X-2.756 Y-13.857 E3.26052
G1 X-0.000 Y-14.128 E3.33587
G1 X2.670 Y-13.865 E3.40886
G1 X2.722 Y-14.441 F7800.000
G1 X2.870 Y-14.427 F540.000 E3.41288
G1 X5.629 Y-13.590 E3.49134
G1 X8.172 Y-12.230 E3.56979
G1 X10.401 Y-10.401 E3.64824
G1 X12.230 Y-8.172 E3.72669
G1 X13.590 Y-5.629 E3.80514
G1 X14.427 Y-2.870 E3.88359
G1 X14.709 Y-0.000 E3.96204
G1 X14.427 Y2.870 E4.04049
G1 X13.590 Y5.629 E4.11894
G1 X12.230 Y8.172 E4.19740
G1 X10.401 Y10.401 E4.27585
G1 X8.172 Y12.230 E4.35430
G1 X5.629 Y13.590 E4.43275
G1 X2.870 Y14.427 E4.51120
G1 X-0.000 Y14.709 E4.58965
G1 X-2.870 Y14.427 E4.66810
G1 X-5.629 Y13.590 E4.74655
G1 X-8.172 Y12.230 E4.82501
G1 X-10.401 Y10.401 E4.90346
G1 X-12.230 Y8.172 E4.98191
G1 X-13.590 Y5.629 E5.06036
G1 X-14.427 Y2.870 E5.13881
G1 X-14.709 Y-0.000 E5.21726
G1 X-14.427 Y-2.870 E5.29571
G1 X-13.590 Y-5.629 E5.37416
G1 X-12.230 Y-8.172 E5.45262
G1 X-10.401 Y-10.401 E5.53107
G1 X-8.172 Y-12.230 E5.60952
G1 X-5.629 Y-13.590 E5.68797
G1 X-2.870 Y-14.427 E5.76642
G1 X-0.000 Y-14.709 E5.84487
G1 X2.636 Y-14.450 E5.91694
G1 X2.784 Y-14.307 F7800.000
G1 X2.638 Y-13.447
G1 X13.447 Y-2.638 F1080.000 E6.33622
G1 X13.098 Y-3.811 E6.36979
G1 X3.811 Y-13.098 E6.73004
G1 X4.995 Y-12.739 E6.76398
G1 X12.739 Y-4.995 E7.06437
G1 X11.916 Y-6.643 E7.11489
G1 X6.643 Y-11.916 E7.31944
G1 X9.692 Y-9.692 F7800.000
G1 X9.692 Y-9.692 F1080.000 E7.31947
G1 F1800.000 E6.31947
G92 E0
G1 X-13.627 Y0.808 F7800.000
G1 F1800.000 E1.00000
G1 X-8.436 Y5.999 F1080.000 E1.20137
G1 X-9.527 Y4.083 E1.26184
G1 X-13.698 Y-0.088 E1.42364
G1 X-13.624 Y-0.839 E1.44434
G1 X-9.923 Y2.862 E1.58789
G1 X-10.204 Y1.757 E1.61917
G1 X-13.550 Y-1.590 E1.74897
G1 X-13.476 Y-2.341 E1.76967
G1 X-10.294 Y0.842 E1.89311
G1 X-10.371 Y-0.060 E1.91793
G1 X-13.337 Y-3.026 E2.03298
G1 X-13.145 Y-3.659 E2.05112
G1 X-10.297 Y-0.811 E2.16158
G1 X-10.223 Y-1.562 E2.18228
G1 X-12.953 Y-4.292 E2.28816
G1 X-12.761 Y-4.925 E2.30630
G1 X-10.104 Y-2.268 E2.40937
G1 X-9.912 Y-2.900 E2.42751
G1 X-12.522 Y-5.510 E2.52875
G1 X-12.234 Y-6.048 E2.54547
G1 X-9.720 Y-3.533 E2.64301
G1 X-9.498 Y-4.137 E2.66064
G1 X-11.947 Y-6.585 E2.75563
G1 X-11.660 Y-7.123 E2.77234
G1 X-9.211 Y-4.674 E2.86733
G1 X-8.924 Y-5.212 E2.88405
G1 X-11.365 Y-7.653 E2.97875
G1 X-10.993 Y-8.106 E2.99483
G1 X-8.636 Y-5.749 E3.08626
G1 X-8.267 Y-6.205 E3.10234
G1 X-10.622 Y-8.559 E3.19368
G1 X-10.250 Y-9.012 E3.20975
G1 X-7.895 Y-6.658 E3.30109
G1 X-7.523 Y-7.111 E3.31716
G1 X-9.878 Y-9.466 E3.40850
G1 X-9.466 Y-9.878 E3.42450
G1 X-7.111 Y-7.523 E3.51583
G1 X-6.658 Y-7.895 E3.53191
G1 X-9.012 Y-10.250 E3.62324
G1 X-8.559 Y-10.622 E3.63932
G1 X-6.205 Y-8.267 E3.73065
G1 X-5.749 Y-8.636 E3.74674
G1 X-8.106 Y-10.993 E3.83817
G1 X-7.653 Y-11.365 E3.85424
G1 X-5.212 Y-8.924 E3.94895
G1 X-4.674 Y-9.211 E3.96567
G1 X-7.123 Y-11.660 E4.06065
G1 X-6.585 Y-11.947 E4.07737
G1 X-4.137 Y-9.498 E4.17236
G1 X-3.533 Y-9.720 E4.18999
G1 X-6.048 Y-12.234 E4.28753
G1 X-5.510 Y-12.522 E4.30425
G1 X-2.900 Y-9.912 E4.40549
G1 X-2.267 Y-10.104 E4.42363
G1 X-4.925 Y-12.761 E4.52670
G1 X-4.292 Y-12.953 E4.54484
G1 X-1.562 Y-10.223 E4.65072
G1 X-0.811 Y-10.297 E4.67142
G1 X-3.659 Y-13.145 E4.78188
G1 X-3.026 Y-13.337 E4.80002
G1 X-0.060 Y-10.371 E4.91506
G1 X0.842 Y-10.294 E4.93989
G1 X-2.341 Y-13.476 E5.06333
G1 X-1.590 Y-13.550 E5.08403
G1 X1.757 Y-10.204 E5.21383
G1 X2.862 Y-9.923 E5.24511
G1 X-0.839 Y-13.624 E5.38867
G1 X-0.088 Y-13.698 E5.40936
G1 X4.083 Y-9.527 E5.57116
G1 X5.999 Y-8.436 E5.63164
G1 X0.808 Y-13.627 E5.83302
G1 X1.723 Y-13.537 E5.85824
G1 X13.537 Y-1.723 E6.31651
G1 X13.627 Y-0.808 E6.34173
G1 X8.436 Y-5.999 E6.54310
G1 X9.527 Y-4.083 E6.60359
G1 X13.698 Y0.088 E6.76538
G1 X13.624 Y0.839 E6.78608
G1 X9.923 Y-2.862 E6.92963
G1 X10.204 Y-1.757 E6.96091
G1 X13.550 Y1.590 E7.09072
G1 X13.476 Y2.341 E7.11141
G1 X10.294 Y-0.842 E7.23486
G1 X10.371 Y0.060 E7.25968
G1 X13.337 Y3.026 E7.37472
G1 X13.145 Y3.659 E7.39286
G1 X10.297 Y0.811 E7.50333
G1 X10.223 Y1.562 E7.52402
G1 X12.953 Y4.292 E7.62991
G1 X12.761 Y4.924 E7.64805
G1 X10.104 Y2.267 E7.75111
G1 X9.912 Y2.900 E7.76925
G1 X12.522 Y5.510 E7.87050
G1 X12.234 Y6.048 E7.88721
G1 X9.720 Y3.533 E7.98476
G1 X9.498 Y4.137 E8.00239
G1 X11.947 Y6.585 E8.09737
G1 X11.660 Y7.123 E8.11409
G1 X9.211 Y4.674 E8.20908
G1 X8.924 Y5.212 E8.22579
G1 X11.365 Y7.653 E8.32050
G1 X10.993 Y8.106 E8.33658
G1 X8.636 Y5.749 E8.42801
G1 X8.267 Y6.205 E8.44409
G1 X10.622 Y8.559 E8.53543
G1 X10.250 Y9.012 E8.55150
G1 X7.895 Y6.658 E8.64284
G1 X7.523 Y7.111 E8.65891
G1 X9.878 Y9.466 E8.75025
G1 X9.466 Y9.878 E8.76625
G1 X7.111 Y7.523 E8.85758
G1 X6.658 Y7.895 E8.87366
G1 X9.012 Y10.250 E8.96499
G1 X8.559 Y10.622 E8.98107
G1 X6.205 Y8.267 E9.07240
G1 X5.749 Y8.636 E9.08849
G1 X8.106 Y10.993 E9.17992
G1 X7.653 Y11.365 E9.19599
G1 X5.212 Y8.924 E9.29070
G1 X4.674 Y9.211 E9.30742
G1 X7.123 Y11.660 E9.40240
G1 X6.585 Y11.947 E9.41912
G1 X4.137 Y9.498 E9.51411
G1 X3.533 Y9.720 E9.53174
G1 X6.048 Y12.234 E9.62928
G1 X5.510 Y12.522 E9.64600
G1 X2.900 Y9.912 E9.74724
G1 X2.267 Y10.104 E9.76538
G1 X4.923 Y12.759 E9.86840
G1 X4.288 Y12.949 E9.88658
G1 X1.562 Y10.223 E9.99233
G1 X0.811 Y10.297 E10.01302
G1 X3.653 Y13.139 E10.12326
G1 X3.018 Y13.328 E10.14144
G1 X0.060 Y10.371 E10.25616
G1 X-0.842 Y10.294 E10.28099
G1 X2.341 Y13.476 E10.40443
G1 X1.590 Y13.550 E10.42513
G1 X-1.757 Y10.204 E10.55493
G1 X-2.862 Y9.923 E10.58621
G1 X0.839 Y13.624 E10.72976
G1 X0.088 Y13.698 E10.75046
G1 X-4.083 Y9.527 E10.91225
G1 X-5.999 Y8.436 E10.97273
G1 X-0.808 Y13.627 E11.17410
G1 X-1.723 Y13.537 E11.19931
G1 X-13.537 Y1.723 E11.65759
G1 X-13.447 Y2.638 E11.68280
G1 X-2.638 Y13.447 E12.10209
G1 X-3.811 Y13.098 E12.13566
G1 X-13.098 Y3.811 E12.49592
G1 X-12.739 Y4.995 E12.52985
G1 X-4.995 Y12.739 E12.83025
G1 X-6.643 Y11.916 E12.88077
G1 X-11.916 Y6.643 E13.08532
G1 X-9.693 Y9.691 F7800.000
G1 X-9.691 Y9.693 F1080.000 E13.08538
M104 S200 ; set temperature
M140 S50 ; set bed temperature
G1 F1800.000 E12.08538
G92 E0
G1 Z0.600 F7800.000
G1 X-6.979 Y6.979
G1 F1800.000 E1.00000
G1 X-8.206 Y5.483 F1800.000 E1.05955
G1 X-9.119 Y3.777 E1.11910
G1 X-9.680 Y1.926 E1.17865
G1 X-9.870 Y0.000 E1.23821
G1 X-9.680 Y-1.926 E1.29776
G1 X-9.119 Y-3.777 E1.35731
G1 X-8.206 Y-5.483 E1.41686
G1 X-6.979 Y-6.979 E1.47641
G1 X-5.483 Y-8.206 E1.53596
G1 X-3.777 Y-9.119 E1.59551
G1 X-1.926 Y-9.680 E1.65507
G1 X-0.000 Y-9.870 E1.71462
G1 X1.926 Y-9.680 E1.77417
G1 X3.777 Y-9.119 E1.83372
G1 X5.483 Y-8.206 E1.89327
G1 X6.979 Y-6.979 E1.95282
G1 X8.206 Y-5.483 E2.01237
G1 X9.119 Y-3.777 E2.07193
G1 X9.680 Y-1.926 E2.13148
G1 X9.870 Y-0.000 E2.19103
G1 X9.680 Y1.926 E2.25058
G1 X9.119 Y3.777 E2.31013
G1 X8.206 Y5.483 E2.36968
G1 X6.979 Y6.979 E2.42923
G1 X5.483 Y8.206 E2.48879
G1 X3.777 Y9.119 E2.54834
G1 X1.926 Y9.680 E2.60789
G1 X0.000 Y9.870 E2.66744
G1 X-1.926 Y9.680 E2.72699
G1 X-3.777 Y9.119 E2.78654
G1 X-5.483 Y8.206 E2.84609
G1 X-6.903 Y7.041 E2.90262
G1 X-6.514 Y6.514 F7800.000
G1 X-7.660 Y5.118 F1800.000 E2.95821
G1 X-8.511 Y3.525 E3.01379
G1 X-9.035 Y1.797 E3.06937
G1 X-9.212 Y0.000 E3.12496
G1 X-9.035 Y-1.797 E3.18054
G1 X-8.511 Y-3.525 E3.23612
G1 X-7.660 Y-5.118 E3.29171
G1 X-6.514 Y-6.514 E3.34729
G1 X-5.118 Y-7.660 E3.40287
G1 X-3.525 Y-8.511 E3.45846
G1 X-1.797 Y-9.035 E3.51404
G1 X-0.000 Y-9.212 E3.56962
G1 X1.797 Y-9.035 E3.62521
G1 X3.525 Y-8.511 E3.68079
G1 X5.118 Y-7.660 E3.73637
G1 X6.514 Y-6.514 E3.79196
G1 X7.660 Y-5.118 E3.84754
G1 X8.511 Y-3.525 E3.90312
G1 X9.035 Y-1.797 E3.95871
G1 X9.212 Y-0.000 E4.01429
G1 X9.035 Y1.797 E4.06987
G1 X8.511 Y3.525 E4.12546
G1 X7.660 Y5.118 E4.18104
G1 X6.514 Y6.514 E4.23662
G1 X5.118 Y7.660 E4.29220
G1 X3.525 Y8.511 E4.34779
G1 X1.797 Y9.035 E4.40337
G1 X-0.000 Y9.212 E4.45895
G1 X-1.797 Y9.035 E4.51454
G1 X-3.525 Y8.511 E4.57012
G1 X-5.118 Y7.660 E4.62570
G1 X-6.438 Y6.576 E4.67827
G1 X-7.151 Y6.663 F7800.000
G1 F1800.000 E3.67827
G92 E0
G1 X7.785 Y-11.652 F7800.000
G1 F1800.000 E1.00000
G1 X9.909 Y-9.909 F1800.000 E1.08455
G1 X11.652 Y-7.785 E1.16910
G1 X12.947 Y-5.363 E1.25366
G1 X13.744 Y-2.734 E1.33821
G1 X14.014 Y-0.000 E1.42276
G1 X13.744 Y2.734 E1.50732
G1 X12.947 Y5.363 E1.59187
G1 X11.652 Y7.785 E1.67642
G1 X9.909 Y9.909 E1.76098
G1 X7.785 Y11.652 E1.84553
G1 X5.363 Y12.947 E1.93008
G1 X2.734 Y13.744 E2.01463
G1 X-0.000 Y14.014 E2.09919
G1 X-2.734 Y13.744 E2.18374
G1 X-5.363 Y12.947 E2.26829
G1 X-7.785 Y11.652 E2.35285
G1 X-9.909 Y9.909 E2.43740
G1 X-11.652 Y7.785 E2.52195
G1 X-12.947 Y5.363 E2.60651
G1 X-13.744 Y2.734 E2.69106
G1 X-14.014 Y-0.000 E2.77561
G1 X-13.744 Y-2.734 E2.86016
G1 X-12.947 Y-5.363 E2.94472
G1 X-11.652 Y-7.785 E3.02927
G1 X-9.909 Y-9.909 E3.11382
G1 X-7.785 Y-11.652 E3.19838
G1 X-5.363 Y-12.947 E3.28293
G1 X-2.734 Y-13.744 E3.36748
G1 X-0.000 Y-14.014 E3.45204
G1 X2.734 Y-13.744 E3.53659
G1 X5.363 Y-12.947 E3.62114
G1 X7.699 Y-11.698 E3.70267
G1 X8.151 Y-12.199 F7800.000
G1 X10.374 Y-10.374 F1800.000 E3.79119
G1 X12.199 Y-8.151 E3.87971
G1 X13.554 Y-5.614 E3.96824
G1 X14.389 Y-2.862 E4.05676
G1 X14.671 Y-0.000 E4.14528
G1 X14.389 Y2.862 E4.23380
G1 X13.554 Y5.614 E4.32232
G1 X12.199 Y8.151 E4.41084
G1 X10.374 Y10.374 E4.49936
G1 X8.151 Y12.199 E4.58788
G1 X5.614 Y13.554 E4.67641
G1 X2.862 Y14.389 E4.76493
G1 X-0.000 Y14.671 E4.85345
G1 X-2.862 Y14.389 E4.94197
G1 X-5.614 Y13.554 E5.03049
G1 X-8.151 Y12.199 E5.11901
G1 X-10.374 Y10.374 E5.20753
G1 X-12.199 Y8.151 E5.29605
G1 X-13.554 Y5.614 E5.38457
G1 X-14.389 Y2.862 E5.47309
G1 X-14.671 Y-0.000 E5.56162
G1 X-14.389 Y-2.862 E5.65014
G1 X-13.554 Y-5.614 E5.73866
G1 X-12.199 Y-8.151 E5.82718
G1 X-10.374 Y-10.374 E5.91570
G1 X-8.151 Y-12.199 E6.00422
G1 X-5.614 Y-13.554 E6.09274
G1 X-2.862 Y-14.389 E6.18126
G1 X-0.000 Y-14.671 E6.26979
G1 X2.862 Y-14.389 E6.35831
G1 X5.614 Y-13.554 E6.44683
