; generated by Slic3r 0.9.9 on 2013-07-19 at 19:01:56

; layer_height = 0.3
; perimeters = 2
; top_solid_layers = 3
; bottom_solid_layers = 3
; fill_density = 0.3
; perimeter_speed = 30
; infill_speed = 60
; travel_speed = 130
; nozzle_diameter = 0.5
; filament_diameter = 2.85
; extrusion_multiplier = 1
; perimeters extrusion width = 0.70mm
; infill extrusion width = 0.70mm
; solid infill extrusion width = 0.70mm
; top infill extrusion width = 0.70mm
; first layer extrusion width = 0.60mm

G21 ; set units to millimeters
M107
M104 S0
M83
M140 S70
G28
G1Y98F9000
M190 S70
G1X5Y98Z150F9000
M104 S210
G1X5Y98Z1F9000
G1Z0.05
M109 S210
G1Z5
G1X15
;G1E5F50
G90 ; use absolute coordinates
G92 E0
M82 ; use absolute distances for extrusion
G1 F1800.000 E-1.00000
G92 E0
G1 Z0.300 F7800.000
G1 X-23.607 Y17.123
G1 F1800.000 E1.00000
G1 X-24.817 Y17.073 F540.000 E1.03295
G1 X-25.387 Y17.023 E1.04852
G1 X-26.297 Y16.903 E1.07349
G1 X-26.867 Y16.803 E1.08923
G1 X-27.767 Y16.603 E1.11432
G1 X-28.267 Y16.473 E1.12837
G1 X-29.147 Y16.203 E1.15341
G1 X-29.787 Y15.973 E1.17192
G1 X-30.637 Y15.613 E1.19703
G1 X-31.907 Y14.973 E1.23572
G1 X-32.427 Y14.673 E1.25206
G1 X-33.207 Y14.173 E1.27726
G1 X-33.647 Y13.863 E1.29191
G1 X-34.367 Y13.313 E1.31656
G1 X-34.817 Y12.943 E1.33241
G1 X-35.507 Y12.313 E1.35783
G1 X-35.927 Y11.883 E1.37418
G1 X-36.547 Y11.203 E1.39922
G1 X-36.907 Y10.773 E1.41447
G1 X-37.467 Y10.043 E1.43951
G1 X-37.797 Y9.573 E1.45513
G1 X-38.287 Y8.803 E1.47996
G1 X-38.547 Y8.353 E1.49410
G1 X-38.977 Y7.543 E1.51905
G1 X-39.247 Y6.963 E1.53646
G1 X-39.787 Y5.603 E1.57627
G1 X-40.067 Y4.723 E1.60139
G1 X-40.217 Y4.163 E1.61717
G1 X-40.417 Y3.263 E1.64225
G1 X-40.517 Y2.693 E1.65799
G1 X-40.637 Y1.783 E1.68297
G1 X-40.687 Y1.213 E1.69853
G1 X-40.727 Y0.293 E1.72359
G1 X-40.727 Y-0.287 E1.73937
G1 X-40.687 Y-1.207 E1.76442
G1 X-40.637 Y-1.777 E1.77999
G1 X-40.517 Y-2.687 E1.80496
G1 X-40.417 Y-3.257 E1.82070
G1 X-40.217 Y-4.157 E1.84579
G1 X-40.067 Y-4.717 E1.86156
G1 X-39.787 Y-5.597 E1.88669
G1 X-39.247 Y-6.957 E1.92650
G1 X-38.977 Y-7.537 E1.94390
G1 X-38.547 Y-8.347 E1.96885
G1 X-38.287 Y-8.797 E1.98299
G1 X-37.797 Y-9.567 E2.00782
G1 X-37.497 Y-10.007 E2.02231
G1 X-36.937 Y-10.747 E2.04756
G1 X-36.547 Y-11.207 E2.06397
G1 X-35.927 Y-11.887 E2.08900
G1 X-35.497 Y-12.317 E2.10555
G1 X-34.817 Y-12.937 E2.13058
G1 X-34.387 Y-13.297 E2.14584
G1 X-33.657 Y-13.857 E2.17087
G1 X-33.157 Y-14.207 E2.18748
G1 X-32.377 Y-14.697 E2.21254
G1 X-31.147 Y-15.367 E2.25065
G1 X-30.567 Y-15.637 E2.26805
G1 X-29.207 Y-16.177 E2.30786
G1 X-28.327 Y-16.457 E2.33299
G1 X-27.767 Y-16.607 E2.34876
G1 X-26.867 Y-16.807 E2.37384
G1 X-26.297 Y-16.907 E2.38959
G1 X-25.387 Y-17.027 E2.41456
G1 X-24.817 Y-17.077 E2.43013
G1 X-23.607 Y-17.127 E2.46308
G1 X34.143 Y-17.127 E4.03426
G1 X34.673 Y-17.107 E4.04869
G1 X34.933 Y-17.077 E4.05581
G1 X35.463 Y-16.997 E4.07039
G1 X35.713 Y-16.937 E4.07739
G1 X36.223 Y-16.787 E4.09185
G1 X36.723 Y-16.597 E4.10640
G1 X37.203 Y-16.377 E4.12077
G1 X37.433 Y-16.247 E4.12796
G1 X37.883 Y-15.957 E4.14252
G1 X38.303 Y-15.647 E4.15672
G1 X38.883 Y-15.107 E4.17828
G1 X39.243 Y-14.707 E4.19293
G1 X39.403 Y-14.497 E4.20011
G1 X39.703 Y-14.067 E4.21437
G1 X39.973 Y-13.607 E4.22888
G1 X40.293 Y-12.877 E4.25057
G1 X40.533 Y-12.117 E4.27225
G1 X40.593 Y-11.867 E4.27925
G1 X40.673 Y-11.337 E4.29383
G1 X40.703 Y-11.077 E4.30095
G1 X40.723 Y-10.547 E4.31538
G1 X40.723 Y10.543 E4.88917
G1 X40.703 Y11.073 E4.90360
G1 X40.593 Y11.863 E4.92530
G1 X40.383 Y12.623 E4.94675
G1 X40.193 Y13.123 E4.96130
G1 X39.973 Y13.603 E4.97567
G1 X39.703 Y14.063 E4.99018
G1 X39.243 Y14.703 E5.01162
G1 X38.703 Y15.283 E5.03318
G1 X38.303 Y15.643 E5.04783
G1 X38.093 Y15.803 E5.05501
G1 X37.663 Y16.103 E5.06927
G1 X37.203 Y16.373 E5.08379
G1 X36.473 Y16.693 E5.10547
G1 X35.713 Y16.933 E5.12715
G1 X35.463 Y16.993 E5.13415
G1 X34.933 Y17.073 E5.14873
G1 X34.673 Y17.103 E5.15585
G1 X34.143 Y17.123 E5.17028
G1 X-23.520 Y17.123 E6.73910
G1 F1800.000 E5.73910
G92 E0
G1 X-23.609 Y11.418 F7800.000
G1 F1800.000 E1.00000
G1 X-24.576 Y11.376 F540.000 E1.02633
G1 X-25.564 Y11.248 E1.05343
G1 X-26.537 Y11.034 E1.08053
G1 X-27.487 Y10.736 E1.10763
G1 X-28.408 Y10.356 E1.13473
G1 X-29.293 Y9.898 E1.16183
G1 X-30.133 Y9.364 E1.18893
G1 X-30.919 Y8.763 E1.21584
G1 X-31.660 Y8.087 E1.24312
G1 X-32.334 Y7.354 E1.27023
G1 X-32.942 Y6.565 E1.29733
G1 X-33.479 Y5.725 E1.32443
G1 X-33.940 Y4.843 E1.35153
G1 X-34.323 Y3.923 E1.37863
G1 X-34.624 Y2.973 E1.40573
G1 X-34.841 Y2.001 E1.43283
G1 X-34.973 Y1.014 E1.45993
G1 X-35.018 Y0.019 E1.48703
G1 X-34.976 Y-0.976 E1.51413
G1 X-34.848 Y-1.964 E1.54123
G1 X-34.634 Y-2.937 E1.56833
G1 X-34.336 Y-3.887 E1.59542
G1 X-33.956 Y-4.808 E1.62253
G1 X-33.498 Y-5.692 E1.64962
G1 X-32.968 Y-6.528 E1.67653
G1 X-32.359 Y-7.324 E1.70381
G1 X-31.687 Y-8.060 E1.73092
G1 X-30.954 Y-8.734 E1.75803
G1 X-30.164 Y-9.342 E1.78513
G1 X-29.325 Y-9.879 E1.81222
G1 X-28.443 Y-10.340 E1.83933
G1 X-27.523 Y-10.723 E1.86642
G1 X-26.573 Y-11.024 E1.89353
G1 X-25.601 Y-11.241 E1.92062
G1 X-24.614 Y-11.373 E1.94772
G1 X-23.609 Y-11.418 E1.97508
G1 X34.509 Y-11.418 E3.55630
G1 X35.018 Y-10.909 E3.57586
G1 X35.018 Y10.909 E4.16948
G1 X34.509 Y11.418 E4.18904
G1 X-23.523 Y11.418 E5.76790
G1 X-23.603 Y10.839 F7800.000
G1 X-24.551 Y10.798 F540.000 E5.79371
G1 X-25.488 Y10.673 E5.81944
G1 X-26.411 Y10.468 E5.84516
G1 X-27.313 Y10.183 E5.87089
G1 X-28.187 Y9.821 E5.89662
G1 X-29.025 Y9.384 E5.92235
G1 X-29.822 Y8.875 E5.94807
G1 X-30.567 Y8.304 E5.97361
G1 X-31.260 Y7.669 E5.99918
G1 X-31.899 Y6.972 E6.02491
G1 X-32.475 Y6.222 E6.05064
G1 X-32.984 Y5.425 E6.07636
G1 X-33.421 Y4.587 E6.10209
G1 X-33.783 Y3.713 E6.12782
G1 X-34.068 Y2.811 E6.15354
G1 X-34.273 Y1.888 E6.17927
G1 X-34.398 Y0.951 E6.20500
G1 X-34.439 Y0.006 E6.23072
G1 X-34.399 Y-0.938 E6.25645
G1 X-34.276 Y-1.876 E6.28218
G1 X-34.072 Y-2.799 E6.30790
G1 X-33.788 Y-3.701 E6.33363
G1 X-33.426 Y-4.575 E6.35936
G1 X-32.990 Y-5.414 E6.38508
G1 X-32.486 Y-6.206 E6.41062
G1 X-31.908 Y-6.962 E6.43653
G1 X-31.269 Y-7.660 E6.46226
G1 X-30.572 Y-8.299 E6.48799
G1 X-29.822 Y-8.875 E6.51372
G1 X-29.025 Y-9.384 E6.53944
G1 X-28.187 Y-9.821 E6.56517
G1 X-27.313 Y-10.183 E6.59090
G1 X-26.411 Y-10.468 E6.61662
G1 X-25.488 Y-10.673 E6.64235
G1 X-24.551 Y-10.798 E6.66808
G1 X-23.603 Y-10.839 E6.69389
G1 X34.270 Y-10.839 E8.26842
G1 X34.439 Y-10.670 E8.27494
G1 X34.439 Y10.670 E8.85552
G1 X34.270 Y10.839 E8.86204
G1 X-23.516 Y10.839 E10.43421
G1 X-23.594 Y10.261 F7800.000
G1 X-24.494 Y10.221 F540.000 E10.45873
G1 X-25.382 Y10.105 E10.48308
G1 X-26.256 Y9.911 E10.50744
G1 X-27.109 Y9.642 E10.53179
G1 X-27.936 Y9.299 E10.55614
G1 X-28.730 Y8.886 E10.58049
G1 X-29.485 Y8.405 E10.60485
G1 X-30.195 Y7.860 E10.62920
G1 X-30.855 Y7.255 E10.65355
G1 X-31.460 Y6.595 E10.67791
G1 X-32.005 Y5.885 E10.70226
G1 X-32.486 Y5.130 E10.72661
G1 X-32.899 Y4.336 E10.75096
G1 X-33.242 Y3.509 E10.77532
G1 X-33.511 Y2.656 E10.79967
G1 X-33.705 Y1.782 E10.82402
G1 X-33.821 Y0.894 E10.84838
G1 X-33.860 Y0.000 E10.87273
G1 X-33.821 Y-0.894 E10.89708
G1 X-33.705 Y-1.782 E10.92144
G1 X-33.511 Y-2.656 E10.94579
G1 X-33.242 Y-3.509 E10.97014
G1 X-32.899 Y-4.336 E10.99449
G1 X-32.486 Y-5.130 E11.01885
G1 X-32.005 Y-5.885 E11.04320
G1 X-31.460 Y-6.595 E11.06755
G1 X-30.855 Y-7.255 E11.09191
G1 X-30.195 Y-7.860 E11.11626
G1 X-29.485 Y-8.405 E11.14061
G1 X-28.730 Y-8.886 E11.16497
G1 X-27.936 Y-9.299 E11.18932
G1 X-27.109 Y-9.642 E11.21367
G1 X-26.256 Y-9.911 E11.23802
G1 X-25.382 Y-10.105 E11.26238
G1 X-24.494 Y-10.221 E11.28673
G1 X-23.594 Y-10.261 E11.31125
G1 X33.861 Y-10.261 E12.87440
G1 X33.861 Y10.261 E13.43272
G1 X-23.507 Y10.261 E14.99350
G1 X-23.868 Y9.752 F7800.000
G1 F1800.000 E13.99350
G92 E0
G1 X-29.823 Y-7.416 F7800.000
G1 F1800.000 E1.00000
G1 X-29.153 Y-7.931 F540.000 E1.02298
G1 X-28.441 Y-8.384 E1.04596
G1 X-27.692 Y-8.774 E1.06894
G1 X-26.911 Y-9.098 E1.09191
G1 X-26.106 Y-9.351 E1.11489
G1 X-25.281 Y-9.534 E1.13787
G1 X-24.444 Y-9.645 E1.16085
G1 X-23.581 Y-9.682 E1.18434
G1 X33.282 Y-9.682 E2.73140
G1 X33.282 Y9.682 E3.25824
G1 X-23.581 Y9.682 E4.80530
G1 X-24.444 Y9.645 E4.82879
G1 X-25.281 Y9.534 E4.85177
G1 X-26.106 Y9.351 E4.87475
G1 X-26.911 Y9.098 E4.89773
G1 X-27.691 Y8.774 E4.92071
G1 X-28.441 Y8.384 E4.94369
G1 X-29.153 Y7.930 E4.96666
G1 X-29.823 Y7.416 E4.98964
G1 X-30.446 Y6.846 E5.01262
G1 X-31.016 Y6.223 E5.03560
G1 X-31.531 Y5.553 E5.05858
G1 X-31.984 Y4.841 E5.08156
G1 X-32.374 Y4.092 E5.10453
G1 X-32.698 Y3.311 E5.12751
G1 X-32.951 Y2.506 E5.15049
G1 X-33.134 Y1.681 E5.17347
G1 X-33.245 Y0.844 E5.19645
G1 X-33.281 Y0.000 E5.21943
G1 X-33.245 Y-0.844 E5.24241
G1 X-33.134 Y-1.681 E5.26538
G1 X-32.951 Y-2.506 E5.28836
G1 X-32.698 Y-3.311 E5.31134
G1 X-32.374 Y-4.092 E5.33432
G1 X-31.984 Y-4.841 E5.35730
G1 X-31.531 Y-5.553 E5.38028
G1 X-31.016 Y-6.223 E5.40325
G1 X-30.446 Y-6.846 E5.42623
G1 X-29.887 Y-7.358 E5.44685
G1 X-28.781 Y-6.147 F7800.000
G1 X-28.211 Y-6.586 F540.000 E5.46641
G1 X-27.620 Y-6.962 E5.48549
G1 X-26.998 Y-7.286 E5.50458
G1 X-26.350 Y-7.555 E5.52366
G1 X-25.681 Y-7.766 E5.54274
G1 X-24.996 Y-7.917 E5.56182
G1 X-24.301 Y-8.009 E5.58090
G1 X-23.600 Y-8.040 E5.59999
G1 X-22.899 Y-8.009 E5.61907
G1 X-22.204 Y-7.917 E5.63815
G1 X-21.519 Y-7.766 E5.65724
G1 X-20.850 Y-7.555 E5.67631
G1 X-20.202 Y-7.286 E5.69539
G1 X-19.580 Y-6.962 E5.71448
G1 X-19.073 Y-6.639 E5.73084
G1 X28.839 Y-6.639 E7.03437
G1 X28.839 Y6.639 E7.39564
G1 X-19.073 Y6.639 E8.69917
G1 X-19.580 Y6.962 E8.71553
G1 X-20.202 Y7.286 E8.73461
G1 X-20.850 Y7.555 E8.75369
G1 X-21.519 Y7.766 E8.77277
G1 X-22.204 Y7.917 E8.79185
G1 X-22.899 Y8.009 E8.81094
G1 X-23.600 Y8.040 E8.83002
G1 X-24.301 Y8.009 E8.84911
G1 X-24.996 Y7.917 E8.86819
G1 X-25.681 Y7.766 E8.88727
G1 X-26.333 Y7.560 E8.90587
G1 X-26.998 Y7.286 E8.92542
G1 X-27.620 Y6.962 E8.94451
G1 X-28.211 Y6.586 E8.96359
G1 X-28.768 Y6.159 E8.98267
G1 X-29.272 Y5.697 E9.00127
G1 X-29.759 Y5.168 E9.02083
G1 X-30.186 Y4.611 E9.03991
G1 X-30.562 Y4.020 E9.05900
G1 X-30.886 Y3.398 E9.07808
G1 X-31.155 Y2.750 E9.09716
G1 X-31.366 Y2.081 E9.11625
G1 X-31.517 Y1.396 E9.13532
G1 X-31.609 Y0.701 E9.15441
G1 X-31.640 Y0.000 E9.17348
G1 X-31.609 Y-0.701 E9.19257
G1 X-31.520 Y-1.379 E9.21117
G1 X-31.366 Y-2.081 E9.23073
G1 X-31.155 Y-2.750 E9.24981
G1 X-30.886 Y-3.398 E9.26889
G1 X-30.562 Y-4.020 E9.28798
G1 X-30.186 Y-4.611 E9.30706
G1 X-29.759 Y-5.168 E9.32614
G1 X-29.285 Y-5.685 E9.34522
G1 X-28.845 Y-6.088 E9.36146
G1 X-28.874 Y-6.718 F7800.000
G1 X-29.140 Y-6.602
G1 X-28.544 Y-7.060 F540.000 E9.38192
G1 X-27.910 Y-7.464 E9.40236
G1 X-27.242 Y-7.811 E9.42284
G1 X-26.548 Y-8.099 E9.44329
G1 X-25.831 Y-8.325 E9.46373
G1 X-25.097 Y-8.488 E9.48420
G1 X-24.351 Y-8.586 E9.50465
G1 X-23.600 Y-8.619 E9.52512
G1 X-22.849 Y-8.586 E9.54557
G1 X-22.103 Y-8.488 E9.56602
G1 X-21.369 Y-8.325 E9.58649
G1 X-20.652 Y-8.099 E9.60694
G1 X-19.958 Y-7.811 E9.62739
G1 X-19.291 Y-7.464 E9.64785
G1 X-18.904 Y-7.218 E9.66031
G1 X29.418 Y-7.218 E10.97500
G1 X29.418 Y7.218 E11.36774
G1 X-18.904 Y7.218 E12.68242
G1 X-19.291 Y7.464 E12.69489
G1 X-19.958 Y7.811 E12.71534
G1 X-20.652 Y8.099 E12.73580
G1 X-21.369 Y8.325 E12.75625
G1 X-22.103 Y8.488 E12.77670
G1 X-22.849 Y8.586 E12.79716
G1 X-23.600 Y8.619 E12.81762
G1 X-24.308 Y8.588 E12.83692
G1 X-25.097 Y8.488 E12.85854
G1 X-25.831 Y8.325 E12.87900
G1 X-26.548 Y8.099 E12.89945
G1 X-27.242 Y7.811 E12.91989
G1 X-27.909 Y7.464 E12.94035
G1 X-28.543 Y7.060 E12.96081
G1 X-29.140 Y6.602 E12.98127
G1 X-29.694 Y6.094 E13.00173
G1 X-30.202 Y5.540 E13.02218
G1 X-30.660 Y4.944 E13.04263
G1 X-31.064 Y4.309 E13.06310
G1 X-31.411 Y3.642 E13.08355
G1 X-31.699 Y2.948 E13.10400
G1 X-31.925 Y2.230 E13.12447
G1 X-32.088 Y1.497 E13.14491
G1 X-32.186 Y0.751 E13.16538
G1 X-32.219 Y0.000 E13.18582
G1 X-32.186 Y-0.751 E13.20628
G1 X-32.093 Y-1.454 E13.22557
G1 X-31.925 Y-2.231 E13.24720
G1 X-31.699 Y-2.948 E13.26764
G1 X-31.411 Y-3.642 E13.28810
G1 X-31.064 Y-4.309 E13.30856
G1 X-30.660 Y-4.944 E13.32903
G1 X-30.202 Y-5.540 E13.34947
G1 X-29.694 Y-6.094 E13.36993
G1 X-29.204 Y-6.543 E13.38802
G1 X-21.483 Y-8.995 F7800.000
G1 X-21.315 Y-8.827 F1080.000 E13.39454
G1 X-20.923 Y-9.263 E13.41066
G1 X-19.902 Y-8.242 E13.45038
G1 X-18.470 Y-7.637 E13.49317
G1 X-20.096 Y-9.263 E13.55643
G1 X-19.268 Y-9.263 E13.57920
G1 X-17.642 Y-7.637 E13.64247
G1 X-16.815 Y-7.637 E13.66523
G1 X-18.441 Y-9.263 E13.72850
G1 X-17.613 Y-9.263 E13.75127
G1 X-15.988 Y-7.637 E13.81453
G1 X-15.160 Y-7.637 E13.83730
G1 X-16.786 Y-9.263 E13.90056
G1 X-15.958 Y-9.263 E13.92333
G1 X-14.333 Y-7.637 E13.98659
G1 X-13.505 Y-7.637 E14.00936
G1 X-15.131 Y-9.263 E14.07262
G1 X-14.303 Y-9.263 E14.09539
G1 X-12.678 Y-7.637 E14.15865
G1 X-11.850 Y-7.637 E14.18142
G1 X-13.476 Y-9.263 E14.24469
G1 X-12.648 Y-9.263 E14.26745
G1 X-11.023 Y-7.637 E14.33072
G1 X-10.195 Y-7.637 E14.35349
G1 X-11.821 Y-9.263 E14.41675
G1 X-10.993 Y-9.263 E14.43952
G1 X-9.368 Y-7.637 E14.50278
G1 X-8.540 Y-7.637 E14.52555
G1 X-10.166 Y-9.263 E14.58881
G1 X-9.339 Y-9.263 E14.61158
G1 X-7.713 Y-7.637 E14.67484
G1 X-6.885 Y-7.637 E14.69761
G1 X-8.511 Y-9.263 E14.76087
G1 X-7.684 Y-9.263 E14.78364
G1 X-6.058 Y-7.637 E14.84691
G1 X-5.230 Y-7.637 E14.86967
G1 X-6.856 Y-9.263 E14.93294
G1 X-6.029 Y-9.263 E14.95571
G1 X-4.403 Y-7.637 E15.01897
G1 X-3.575 Y-7.637 E15.04174
G1 X-5.201 Y-9.263 E15.10500
G1 X-4.374 Y-9.263 E15.12777
G1 X-2.748 Y-7.637 E15.19103
G1 X-1.920 Y-7.637 E15.21380
G1 X-3.546 Y-9.263 E15.27706
G1 X-2.719 Y-9.263 E15.29983
G1 X-1.093 Y-7.637 E15.36309
G1 X-0.265 Y-7.637 E15.38586
G1 X-1.891 Y-9.263 E15.44913
G1 X-1.064 Y-9.263 E15.47189
G1 X0.562 Y-7.637 E15.53516
G1 X1.389 Y-7.637 E15.55793
G1 X-0.236 Y-9.263 E15.62119
G1 X0.591 Y-9.263 E15.64396
G1 X2.217 Y-7.637 E15.70722
G1 X3.044 Y-7.637 E15.72999
G1 X1.419 Y-9.263 E15.79325
G1 X2.246 Y-9.263 E15.81602
G1 X3.872 Y-7.637 E15.87928
G1 X4.699 Y-7.637 E15.90205
G1 X3.074 Y-9.263 E15.96531
G1 X3.901 Y-9.263 E15.98808
G1 X5.527 Y-7.637 E16.05135
G1 X6.354 Y-7.637 E16.07411
G1 X4.729 Y-9.263 E16.13738
G1 X5.556 Y-9.263 E16.16015
G1 X7.182 Y-7.637 E16.22341
G1 X8.009 Y-7.637 E16.24618
G1 X6.384 Y-9.263 E16.30944
G1 X7.211 Y-9.263 E16.33221
G1 X8.837 Y-7.637 E16.39547
G1 X9.664 Y-7.637 E16.41824
G1 X8.038 Y-9.263 E16.48150
G1 X8.866 Y-9.263 E16.50427
G1 X10.492 Y-7.637 E16.56753
G1 X11.319 Y-7.637 E16.59030
G1 X9.693 Y-9.263 E16.65357
G1 X10.521 Y-9.263 E16.67633
G1 X12.147 Y-7.637 E16.73960
G1 X12.974 Y-7.637 E16.76237
G1 X11.348 Y-9.263 E16.82563
G1 X12.176 Y-9.263 E16.84840
G1 X13.802 Y-7.637 E16.91166
G1 X14.629 Y-7.637 E16.93443
G1 X13.003 Y-9.263 E16.99769
G1 X13.831 Y-9.263 E17.02046
G1 X15.457 Y-7.637 E17.08372
G1 X16.284 Y-7.637 E17.10649
G1 X14.658 Y-9.263 E17.16975
G1 X15.486 Y-9.263 E17.19252
G1 X17.112 Y-7.637 E17.25578
G1 X17.939 Y-7.637 E17.27855
G1 X16.313 Y-9.263 E17.34182
G1 X17.141 Y-9.263 E17.36458
G1 X18.766 Y-7.637 E17.42785
G1 X19.594 Y-7.637 E17.45062
G1 X17.968 Y-9.263 E17.51388
G1 X18.796 Y-9.263 E17.53665
G1 X20.421 Y-7.637 E17.59991
G1 X21.249 Y-7.637 E17.62268
G1 X19.623 Y-9.263 E17.68594
G1 X20.451 Y-9.263 E17.70871
G1 X22.076 Y-7.637 E17.77197
G1 X22.904 Y-7.637 E17.79474
G1 X21.278 Y-9.263 E17.85800
G1 X22.106 Y-9.263 E17.88077
G1 X23.731 Y-7.637 E17.94404
G1 X24.559 Y-7.637 E17.96680
G1 X22.933 Y-9.263 E18.03007
G1 X23.761 Y-9.263 E18.05284
G1 X25.386 Y-7.637 E18.11610
G1 X26.214 Y-7.637 E18.13887
G1 X24.588 Y-9.263 E18.20213
G1 X25.415 Y-9.263 E18.22490
G1 X27.041 Y-7.637 E18.28816
G1 X27.869 Y-7.637 E18.31093
G1 X26.243 Y-9.263 E18.37419
G1 X27.070 Y-9.263 E18.39696
G1 X28.696 Y-7.637 E18.46022
G1 X29.524 Y-7.637 E18.48299
G1 X27.898 Y-9.263 E18.54626
G1 X28.725 Y-9.263 E18.56902
G1 X32.863 Y-5.125 E18.73003
G1 X32.863 Y-4.298 E18.75280
G1 X29.837 Y-7.324 E18.87054
G1 X29.837 Y-6.496 E18.89331
G1 X32.863 Y-3.470 E19.01105
G1 X32.863 Y-2.643 E19.03382
G1 X29.837 Y-5.669 E19.15156
G1 X29.837 Y-4.841 E19.17433
G1 X32.863 Y-1.815 E19.29207
G1 X32.863 Y-0.988 E19.31484
G1 X29.837 Y-4.014 E19.43258
G1 X29.837 Y-3.186 E19.45535
G1 X32.863 Y-0.161 E19.57309
