; generated by Slic3r 0.9.9 on 2013-07-19 at 14:59:20

; layer_height = 0.3
; perimeters = 2
; top_solid_layers = 3
; bottom_solid_layers = 3
; fill_density = 0.3
; perimeter_speed = 30
; infill_speed = 60
; travel_speed = 130
; nozzle_diameter = 0.5
; filament_diameter = 2.85
; extrusion_multiplier = 1
; perimeters extrusion width = 0.70mm
; infill extrusion width = 0.70mm
; solid infill extrusion width = 0.70mm
; top infill extrusion width = 0.70mm
; first layer extrusion width = 0.60mm

G21 ; set units to millimeters
M107
M104 S0
M83
M140 S80
G28
G1Y98F9000
M190 S80
G1X5Y98Z150F9000
M104 S210
G1X5Y98Z1F9000
G1Z0.05
M109 S210
G1Z5
G1X15
;G1E5F50
G90 ; use absolute coordinates
G92 E0
M82 ; use absolute distances for extrusion
G1 F1800.000 E-1.00000
G92 E0
G1 Z0.300 F7800.000
G1 X-17.582 Y19.695
G1 F1800.000 E1.00000
G1 X-18.412 Y19.125 F540.000 E1.02739
G1 X-19.442 Y18.285 E1.06355
G1 X-19.832 Y17.935 E1.07781
G1 X-20.192 Y17.565 E1.09186
G1 X-21.202 Y16.345 E1.13495
G1 X-21.792 Y15.495 E1.16310
G1 X-30.062 Y1.395 E1.60783
G1 X-30.342 Y0.875 E1.62389
G1 X-30.572 Y0.335 E1.63986
G1 X-30.742 Y-0.225 E1.65579
G1 X-30.872 Y-0.795 E1.67169
G1 X-34.872 Y-23.625 E2.30228
G1 X-34.942 Y-24.175 E2.31736
G1 X-34.972 Y-24.725 E2.33235
G1 X-34.952 Y-25.265 E2.34705
G1 X-34.842 Y-26.085 E2.36956
G1 X-34.622 Y-26.875 E2.39187
G1 X-34.532 Y-27.135 E2.39936
G1 X-34.312 Y-27.635 E2.41422
G1 X-34.052 Y-28.125 E2.42931
G1 X-33.592 Y-28.805 E2.45165
G1 X-32.982 Y-29.485 E2.47650
G1 X-29.502 Y-32.955 E2.61021
G1 X-28.872 Y-33.505 E2.63296
G1 X-28.422 Y-33.825 E2.64798
G1 X-27.942 Y-34.105 E2.66310
G1 X-27.442 Y-34.345 E2.67819
G1 X-26.922 Y-34.545 E2.69335
G1 X-26.112 Y-34.755 E2.71611
G1 X-25.562 Y-34.835 E2.73123
G1 X-25.012 Y-34.875 E2.74624
G1 X-24.732 Y-34.875 E2.75386
G1 X-24.452 Y-34.865 E2.76148
G1 X-23.902 Y-34.805 E2.77653
G1 X-23.352 Y-34.705 E2.79174
G1 X2.308 Y-28.705 E3.50869
G1 X3.248 Y-28.405 E3.53554
G1 X3.848 Y-28.135 E3.55344
G1 X4.138 Y-27.975 E3.56245
G1 X18.238 Y-19.715 E4.00704
G1 X19.068 Y-19.135 E4.03459
G1 X20.098 Y-18.295 E4.07075
G1 X20.488 Y-17.945 E4.08501
G1 X20.848 Y-17.575 E4.09905
G1 X21.858 Y-16.355 E4.14214
G1 X22.448 Y-15.505 E4.17029
G1 X30.718 Y-1.405 E4.61502
G1 X31.018 Y-0.845 E4.63231
G1 X31.258 Y-0.255 E4.64964
G1 X31.438 Y0.355 E4.66694
G1 X31.558 Y0.975 E4.68412
G1 X34.888 Y23.815 E5.31209
G1 X34.948 Y24.365 E5.32714
G1 X34.958 Y24.645 E5.33476
G1 X34.958 Y24.925 E5.34238
G1 X34.918 Y25.485 E5.35766
G1 X34.838 Y26.025 E5.37251
G1 X34.708 Y26.575 E5.38788
G1 X34.428 Y27.355 E5.41043
G1 X34.048 Y28.105 E5.43331
G1 X33.578 Y28.795 E5.45602
G1 X33.028 Y29.415 E5.47857
G1 X29.308 Y33.135 E5.62170
G1 X29.108 Y33.315 E5.62902
G1 X28.458 Y33.795 E5.65100
G1 X27.758 Y34.195 E5.67294
G1 X27.268 Y34.415 E5.68755
G1 X26.508 Y34.665 E5.70932
G1 X25.718 Y34.815 E5.73120
G1 X25.178 Y34.865 E5.74595
G1 X24.638 Y34.875 E5.76064
G1 X24.108 Y34.835 E5.77511
G1 X23.308 Y34.695 E5.79720
G1 X-1.692 Y28.695 E6.49668
G1 X-2.312 Y28.515 E6.51425
G1 X-2.912 Y28.265 E6.53193
G1 X-3.482 Y27.965 E6.54946
G1 X-17.507 Y19.738 E6.99182
G1 F1800.000 E5.99182
G92 E0
G1 X7.178 Y-4.428 F7800.000
G1 F1800.000 E1.00000
G1 X6.477 Y-5.283 F540.000 E1.03008
G1 X5.955 Y-6.258 E1.06017
G1 X5.634 Y-7.316 E1.09025
G1 X5.526 Y-8.417 E1.12034
G1 X5.634 Y-9.517 E1.15042
G1 X5.955 Y-10.575 E1.18050
G1 X6.477 Y-11.550 E1.21059
G1 X7.178 Y-12.405 E1.24067
G1 X8.033 Y-13.107 E1.27076
G1 X9.008 Y-13.628 E1.30084
G1 X10.066 Y-13.949 E1.33093
G1 X11.167 Y-14.057 E1.36101
G1 X12.267 Y-13.949 E1.39109
G1 X13.325 Y-13.628 E1.42118
G1 X14.300 Y-13.107 E1.45126
G1 X15.155 Y-12.405 E1.48135
G1 X15.857 Y-11.550 E1.51143
G1 X16.378 Y-10.575 E1.54151
G1 X16.699 Y-9.517 E1.57160
G1 X16.807 Y-8.417 E1.60168
G1 X16.699 Y-7.316 E1.63177
G1 X16.378 Y-6.258 E1.66185
G1 X15.857 Y-5.283 E1.69194
G1 X15.155 Y-4.428 E1.72202
G1 X14.300 Y-3.727 E1.75210
G1 X13.325 Y-3.205 E1.78219
G1 X12.267 Y-2.884 E1.81227
G1 X11.167 Y-2.776 E1.84236
G1 X10.066 Y-2.884 E1.87244
G1 X9.008 Y-3.205 E1.90252
G1 X8.033 Y-3.727 E1.93261
G1 X7.245 Y-4.373 E1.96033
G1 X6.615 Y-4.297 F7800.000
G1 F1800.000 E0.96033
G92 E0
G1 X21.516 Y3.422 F7800.000
G1 F1800.000 E1.00000
G1 X15.159 Y-2.934 F540.000 E1.24458
G1 X15.977 Y-3.606 E1.27338
G1 X16.649 Y-4.424 E1.30219
G1 X23.006 Y1.932 E1.54676
G1 X21.577 Y3.361 E1.60173
G1 F1800.000 E0.60173
G92 E0
G1 X7.174 Y-13.899 F7800.000
G1 F1800.000 E1.00000
G1 X6.356 Y-13.227 F540.000 E1.02881
G1 X5.684 Y-12.409 E1.05761
G1 X-0.672 Y-18.766 E1.30219
G1 X0.818 Y-20.256 E1.35952
G1 X7.113 Y-13.960 E1.60173
G1 F1800.000 E0.60173
G92 E0
G1 X16.546 Y-5.345 F7800.000
G1 F1800.000 E1.00000
G1 X23.824 Y1.932 F540.000 E1.28001
G1 X21.516 Y4.240 E1.36883
G1 X14.238 Y-3.037 E1.64884
G1 X14.623 Y-3.243 E1.66073
G1 X15.566 Y-4.017 E1.69392
G1 X16.340 Y-4.960 E1.72710
G1 X16.505 Y-5.269 E1.73664
G1 F1800.000 E0.73664
G92 E0
G1 X8.095 Y-13.796 F7800.000
G1 F1800.000 E1.00000
G1 X7.710 Y-13.590 F540.000 E1.01189
G1 X6.767 Y-12.816 E1.04508
G1 X5.993 Y-11.873 E1.07826
G1 X5.787 Y-11.488 E1.09016
G1 X-1.490 Y-18.766 E1.37017
G1 X0.818 Y-21.074 E1.45898
G1 X8.034 Y-13.858 E1.73664
G1 X8.454 Y-14.256 F7800.000
G1 X8.695 Y-14.384 F540.000 E1.74406
G1 X9.907 Y-14.752 E1.77851
G1 X11.167 Y-14.876 E1.81296
G1 X12.427 Y-14.752 E1.84741
G1 X13.639 Y-14.384 E1.88186
G1 X14.755 Y-13.787 E1.91631
G1 X15.734 Y-12.984 E1.95076
G1 X16.537 Y-12.005 E1.98521
G1 X17.134 Y-10.889 E2.01967
G1 X17.502 Y-9.677 E2.05412
G1 X17.626 Y-8.417 E2.08857
G1 X17.502 Y-7.157 E2.12302
G1 X17.134 Y-5.945 E2.15747
G1 X17.006 Y-5.704 E2.16489
G1 X24.642 Y1.932 E2.45871
G1 X21.516 Y5.059 E2.57900
G1 X13.879 Y-2.578 E2.87281
G1 X13.639 Y-2.449 E2.88024
G1 X12.427 Y-2.081 E2.91469
G1 X11.167 Y-1.957 E2.94914
G1 X9.907 Y-2.081 E2.98359
G1 X8.695 Y-2.449 E3.01804
G1 X7.578 Y-3.046 E3.05249
G1 X6.599 Y-3.849 E3.08694
G1 X5.796 Y-4.828 E3.12139
G1 X5.199 Y-5.945 E3.15584
G1 X4.831 Y-7.157 E3.19029
G1 X4.707 Y-8.417 E3.22474
G1 X4.831 Y-9.677 E3.25919
G1 X5.199 Y-10.889 E3.29364
G1 X5.328 Y-11.129 E3.30107
G1 X-2.309 Y-18.766 E3.59488
G1 X0.818 Y-21.892 E3.71518
G1 X8.393 Y-14.317 E4.00663
G1 X8.606 Y-14.029 F7800.000
G1 F1800.000 E3.00663
G92 E0
G1 X16.680 Y-3.801 F7800.000
G1 F1800.000 E1.00000
G1 X22.412 Y1.932 F1080.000 E1.24181
G1 X21.964 Y2.381 E1.26072
G1 X16.275 Y-3.308 E1.50067
G1 X15.783 Y-2.904 E1.51968
G1 X21.516 Y2.829 E1.76148
G1 F1800.000 E0.76148
G92 E0
G1 X5.654 Y-13.033 F7800.000
G1 F1800.000 E1.00000
G1 X-0.079 Y-18.766 F1080.000 E1.24181
G1 X0.369 Y-19.214 E1.26072
G1 X6.058 Y-13.525 E1.50067
G1 X6.551 Y-13.930 E1.51968
G1 X0.818 Y-19.662 E1.76149
G1 F1800.000 E0.76149
G92 E0
G1 X12.341 Y9.205 F7800.000
G1 F1800.000 E1.00000
G1 X13.400 Y8.884 F540.000 E1.03008
G1 X14.500 Y8.776 E1.06017
G1 X15.600 Y8.884 E1.09025
G1 X16.659 Y9.205 E1.12034
G1 X17.634 Y9.727 E1.15042
G1 X18.489 Y10.428 E1.18050
G1 X19.190 Y11.283 E1.21059
G1 X19.711 Y12.258 E1.24067
G1 X20.032 Y13.316 E1.27076
G1 X20.141 Y14.417 E1.30084
G1 X20.032 Y15.517 E1.33093
G1 X19.711 Y16.575 E1.36101
G1 X19.190 Y17.550 E1.39109
G1 X18.489 Y18.405 E1.42118
G1 X17.634 Y19.107 E1.45126
G1 X16.659 Y19.628 E1.48135
G1 X15.600 Y19.949 E1.51143
G1 X14.500 Y20.057 E1.54151
G1 X13.400 Y19.949 E1.57160
G1 X12.341 Y19.628 E1.60168
G1 X11.366 Y19.107 E1.63177
G1 X10.511 Y18.405 E1.66185
G1 X9.810 Y17.550 E1.69193
G1 X9.289 Y16.575 E1.72202
G1 X8.968 Y15.517 E1.75210
G1 X8.859 Y14.417 E1.78219
G1 X8.968 Y13.316 E1.81227
G1 X9.289 Y12.258 E1.84236
G1 X9.810 Y11.283 E1.87244
G1 X10.511 Y10.428 E1.90252
G1 X11.366 Y9.727 E1.93261
G1 X12.265 Y9.246 E1.96033
G1 X12.436 Y8.635 F7800.000
G1 F1800.000 E0.96033
G92 E0
G1 X19.982 Y18.409 F7800.000
G1 F1800.000 E1.00000
G1 X26.339 Y24.766 F540.000 E1.24458
G1 X24.849 Y26.256 E1.30191
G1 X18.492 Y19.899 E1.54649
G1 X19.311 Y19.227 E1.57529
G1 X19.927 Y18.476 E1.60173
G1 F1800.000 E0.60173
G92 E0
G1 X4.151 Y2.578 F7800.000
G1 F1800.000 E1.00000
G1 X10.508 Y8.934 F540.000 E1.24458
G1 X9.689 Y9.606 E1.27338
G1 X9.018 Y10.424 E1.30219
G1 X2.661 Y4.068 E1.54676
G1 X4.090 Y2.639 E1.60173
G1 F1800.000 E0.60173
G92 E0
G1 X19.879 Y17.488 F7800.000
G1 F1800.000 E1.00000
G1 X27.157 Y24.766 F540.000 E1.28001
G1 X24.849 Y27.074 E1.36883
G1 X17.571 Y19.796 E1.64884
G1 X17.957 Y19.590 E1.66073
G1 X18.900 Y18.816 E1.69392
G1 X19.673 Y17.873 E1.72710
G1 X19.839 Y17.564 E1.73664
G1 F1800.000 E0.73664
G92 E0
G1 X11.429 Y9.037 F7800.000
G1 F1800.000 E1.00000
G1 X11.043 Y9.243 F540.000 E1.01189
G1 X10.100 Y10.017 E1.04508
G1 X9.327 Y10.960 E1.07826
G1 X9.121 Y11.345 E1.09016
G1 X1.843 Y4.068 E1.37017
G1 X4.151 Y1.760 E1.45898
G1 X11.367 Y8.976 E1.73664
G1 X11.787 Y8.578 F7800.000
G1 X12.028 Y8.449 F540.000 E1.74406
G1 X13.240 Y8.081 E1.77851
G1 X14.500 Y7.957 E1.81296
G1 X15.760 Y8.081 E1.84741
G1 X16.972 Y8.449 E1.88186
G1 X18.089 Y9.046 E1.91631
G1 X19.067 Y9.849 E1.95076
G1 X19.871 Y10.828 E1.98521
G1 X20.468 Y11.945 E2.01967
G1 X20.835 Y13.157 E2.05412
G1 X20.959 Y14.417 E2.08857
G1 X20.835 Y15.677 E2.12302
G1 X20.468 Y16.889 E2.15747
G1 X20.339 Y17.129 E2.16489
G1 X27.975 Y24.766 E2.45871
G1 X24.849 Y27.892 E2.57900
G1 X17.213 Y20.256 E2.87281
G1 X16.972 Y20.384 E2.88024
G1 X15.760 Y20.752 E2.91469
G1 X14.500 Y20.876 E2.94914
G1 X13.240 Y20.752 E2.98359
G1 X12.028 Y20.384 E3.01804
G1 X10.911 Y19.787 E3.05249
G1 X9.933 Y18.984 E3.08694
G1 X9.129 Y18.005 E3.12139
G1 X8.532 Y16.889 E3.15584
G1 X8.165 Y15.677 E3.19029
G1 X8.041 Y14.417 E3.22474
G1 X8.165 Y13.157 E3.25919
G1 X8.532 Y11.945 E3.29364
G1 X8.661 Y11.704 E3.30107
G1 X1.025 Y4.068 E3.59488
G1 X4.151 Y0.941 E3.71518
G1 X11.726 Y8.516 E4.00663
G1 X11.939 Y8.805 F7800.000
G1 F1800.000 E3.00663
G92 E0
G1 X20.013 Y19.033 F7800.000
G1 F1800.000 E1.00000
G1 X25.746 Y24.766 F1080.000 E1.24181
G1 X25.297 Y25.214 E1.26072
G1 X19.609 Y19.525 E1.50067
G1 X19.116 Y19.930 E1.51968
G1 X24.849 Y25.662 E1.76148
G1 F1800.000 E0.76148
G92 E0
G1 X8.987 Y9.801 F7800.000
G1 F1800.000 E1.00000
G1 X3.254 Y4.068 F1080.000 E1.24181
G1 X3.703 Y3.619 E1.26072
G1 X9.391 Y9.308 E1.50067
G1 X9.884 Y8.904 E1.51968
G1 X4.151 Y3.171 E1.76149
G1 F1800.000 E0.76149
G92 E0
G1 X-5.289 Y6.258 F7800.000
G1 F1800.000 E1.00000
G1 X-4.968 Y7.316 F540.000 E1.03008
G1 X-4.859 Y8.417 E1.06017
G1 X-4.968 Y9.517 E1.09025
G1 X-5.289 Y10.575 E1.12034
G1 X-5.810 Y11.550 E1.15042
G1 X-6.511 Y12.405 E1.18050
G1 X-7.366 Y13.107 E1.21059
G1 X-8.341 Y13.628 E1.24067
G1 X-9.400 Y13.949 E1.27076
G1 X-10.500 Y14.057 E1.30084
G1 X-11.600 Y13.949 E1.33092
G1 X-12.659 Y13.628 E1.36101
G1 X-13.634 Y13.107 E1.39109
G1 X-14.489 Y12.405 E1.42118
G1 X-15.190 Y11.550 E1.45126
G1 X-15.711 Y10.575 E1.48135
G1 X-16.032 Y9.517 E1.51143
G1 X-16.141 Y8.417 E1.54151
G1 X-16.032 Y7.316 E1.57160
G1 X-15.711 Y6.258 E1.60168
G1 X-15.190 Y5.283 E1.63177
G1 X-14.489 Y4.428 E1.66185
G1 X-13.634 Y3.727 E1.69193
G1 X-12.659 Y3.205 E1.72202
G1 X-11.600 Y2.884 E1.75210
G1 X-10.500 Y2.776 E1.78219
G1 X-9.400 Y2.884 E1.81227
G1 X-8.341 Y3.205 E1.84236
G1 X-7.366 Y3.727 E1.87244
G1 X-6.511 Y4.428 E1.90252
G1 X-5.810 Y5.283 E1.93261
G1 X-5.330 Y6.182 E1.96033
G1 X-4.718 Y6.352 F7800.000
G1 F1800.000 E0.96033
G92 E0
G1 X1.339 Y18.766 F7800.000
G1 F1800.000 E1.00000
G1 X-0.151 Y20.256 F540.000 E1.05733
G1 X-6.508 Y13.899 E1.30191
G1 X-5.689 Y13.227 E1.33071
G1 X-5.018 Y12.409 E1.35952
G1 X1.278 Y18.704 E1.60173
G1 F1800.000 E0.60173
G92 E0
G1 X-14.492 Y2.934 F7800.000
G1 F1800.000 E1.00000
G1 X-15.311 Y3.606 F540.000 E1.02881
G1 X-15.982 Y4.424 E1.05761
G1 X-22.339 Y-1.932 E1.30219
G1 X-20.849 Y-3.422 E1.35952
G1 X-14.554 Y2.873 E1.60173
G1 F1800.000 E0.60173
G92 E0
G1 X-5.121 Y11.488 F7800.000
G1 F1800.000 E1.00000
G1 X2.157 Y18.766 F540.000 E1.28001
G1 X-0.151 Y21.074 E1.36883
G1 X-7.429 Y13.796 E1.64884
G1 X-7.043 Y13.590 E1.66073
G1 X-6.100 Y12.816 E1.69392
G1 X-5.327 Y11.873 E1.72710
G1 X-5.161 Y11.564 E1.73664
G1 F1800.000 E0.73664
G92 E0
G1 X-13.571 Y3.037 F7800.000
G1 F1800.000 E1.00000
G1 X-13.957 Y3.243 F540.000 E1.01189
G1 X-14.900 Y4.017 E1.04508
G1 X-15.673 Y4.960 E1.07826
G1 X-15.879 Y5.345 E1.09016
G1 X-23.157 Y-1.932 E1.37017
G1 X-20.849 Y-4.240 E1.45898
G1 X-13.633 Y2.976 E1.73664
G1 X-13.213 Y2.578 F7800.000
G1 X-12.972 Y2.449 F540.000 E1.74406
G1 X-11.760 Y2.081 E1.77851
G1 X-10.500 Y1.957 E1.81296
G1 X-9.240 Y2.081 E1.84741
G1 X-8.028 Y2.449 E1.88186
G1 X-6.911 Y3.046 E1.91631
G1 X-5.933 Y3.849 E1.95076
G1 X-5.129 Y4.828 E1.98521
G1 X-4.532 Y5.945 E2.01967
G1 X-4.165 Y7.157 E2.05412
G1 X-4.041 Y8.417 E2.08857
G1 X-4.165 Y9.677 E2.12302
G1 X-4.532 Y10.889 E2.15747
G1 X-4.661 Y11.129 E2.16489
G1 X2.975 Y18.766 E2.45871
G1 X-0.151 Y21.892 E2.57900
G1 X-7.787 Y14.256 E2.87281
G1 X-8.028 Y14.384 E2.88024
G1 X-9.240 Y14.752 E2.91469
G1 X-10.500 Y14.876 E2.94914
G1 X-11.760 Y14.752 E2.98359
G1 X-12.972 Y14.384 E3.01804
G1 X-14.089 Y13.787 E3.05249
G1 X-15.067 Y12.984 E3.08694
G1 X-15.871 Y12.005 E3.12139
G1 X-16.468 Y10.889 E3.15584
G1 X-16.835 Y9.677 E3.19029
G1 X-16.959 Y8.417 E3.22474
G1 X-16.835 Y7.157 E3.25919
G1 X-16.468 Y5.945 E3.29364
G1 X-16.339 Y5.704 E3.30107
G1 X-23.975 Y-1.932 E3.59488
G1 X-20.849 Y-5.059 E3.71518
G1 X-13.274 Y2.516 E4.00663
G1 X-13.061 Y2.805 F7800.000
G1 F1800.000 E3.00663
G92 E0
G1 X-4.987 Y13.033 F7800.000
G1 F1800.000 E1.00000
G1 X0.746 Y18.766 F1080.000 E1.24181
G1 X0.297 Y19.214 E1.26072
G1 X-5.391 Y13.525 E1.50067
G1 X-5.884 Y13.930 E1.51968
G1 X-0.151 Y19.662 E1.76148
G1 F1800.000 E0.76148
G92 E0
G1 X-16.013 Y3.801 F7800.000
G1 F1800.000 E1.00000
G1 X-21.746 Y-1.932 F1080.000 E1.24181
G1 X-21.297 Y-2.381 E1.26072
G1 X-15.609 Y3.308 E1.50067
G1 X-15.116 Y2.904 E1.51968
G1 X-20.849 Y-2.829 E1.76149
G1 F1800.000 E0.76149
G92 E0
G1 X-17.634 Y-9.727 F7800.000
G1 F1800.000 E1.00000
G1 X-18.489 Y-10.428 F540.000 E1.03008
G1 X-19.190 Y-11.283 E1.06017
G1 X-19.711 Y-12.258 E1.09025
G1 X-20.032 Y-13.316 E1.12034
G1 X-20.141 Y-14.417 E1.15042
G1 X-20.032 Y-15.517 E1.18050
G1 X-19.711 Y-16.575 E1.21059
G1 X-19.190 Y-17.550 E1.24067
G1 X-18.489 Y-18.405 E1.27076
G1 X-17.634 Y-19.107 E1.30084
G1 X-16.659 Y-19.628 E1.33093
G1 X-15.600 Y-19.949 E1.36101
G1 X-14.500 Y-20.057 E1.39109
G1 X-13.400 Y-19.949 E1.42118
G1 X-12.341 Y-19.628 E1.45126
G1 X-11.366 Y-19.107 E1.48135
G1 X-10.511 Y-18.405 E1.51143
G1 X-9.810 Y-17.550 E1.54151
G1 X-9.289 Y-16.575 E1.57160
G1 X-8.968 Y-15.517 E1.60168
G1 X-8.859 Y-14.417 E1.63177
G1 X-8.968 Y-13.316 E1.66185
G1 X-9.289 Y-12.258 E1.69194
G1 X-9.810 Y-11.283 E1.72202
G1 X-10.511 Y-10.428 E1.75210
G1 X-11.366 Y-9.727 E1.78219
G1 X-12.341 Y-9.205 E1.81227
G1 X-13.400 Y-8.884 E1.84236
G1 X-14.500 Y-8.776 E1.87244
G1 X-15.600 Y-8.884 E1.90252
G1 X-16.659 Y-9.205 E1.93261
G1 X-17.557 Y-9.686 E1.96033
G1 X-18.161 Y-9.488 F7800.000
G1 F1800.000 E0.96033
G92 E0
G1 X-10.508 Y-8.934 F7800.000
G1 F1800.000 E1.00000
G1 X-9.689 Y-9.606 F540.000 E1.02880
G1 X-9.018 Y-10.424 E1.05761
G1 X-2.661 Y-4.068 E1.30219
G1 X-4.151 Y-2.578 E1.35952
G1 X-10.446 Y-8.873 E1.60173
G1 F1800.000 E0.60173
G92 E0
G1 X-26.339 Y-24.766 F7800.000
G1 F1800.000 E1.00000
G1 X-24.849 Y-26.256 F540.000 E1.05733
G1 X-18.492 Y-19.899 E1.30191
G1 X-19.311 Y-19.227 E1.33071
G1 X-19.982 Y-18.409 E1.35952
G1 X-26.278 Y-24.704 E1.60173
G1 F1800.000 E0.60173
G92 E0
G1 X-11.429 Y-9.037 F7800.000
G1 F1800.000 E1.00000
G1 X-11.043 Y-9.243 F540.000 E1.01189
G1 X-10.100 Y-10.017 E1.04508
G1 X-9.327 Y-10.960 E1.07826
G1 X-9.121 Y-11.345 E1.09016
G1 X-1.843 Y-4.068 E1.37017
G1 X-4.151 Y-1.760 E1.45898
G1 X-11.367 Y-8.976 E1.73664
G1 F1800.000 E0.73664
G92 E0
G1 X-19.879 Y-17.488 F7800.000
G1 F1800.000 E1.00000
G1 X-27.157 Y-24.766 F540.000 E1.28001
G1 X-24.849 Y-27.074 E1.36883
G1 X-17.571 Y-19.796 E1.64884
G1 X-17.957 Y-19.590 E1.66074
G1 X-18.900 Y-18.816 E1.69392
G1 X-19.673 Y-17.873 E1.72710
G1 X-19.839 Y-17.564 E1.73664
G1 X-20.339 Y-17.129 F7800.000
G1 X-27.975 Y-24.766 F540.000 E2.03045
G1 X-24.849 Y-27.892 E2.15075
G1 X-17.213 Y-20.256 E2.44456
G1 X-16.972 Y-20.384 E2.45198
G1 X-15.760 Y-20.752 E2.48643
G1 X-14.500 Y-20.876 E2.52089
G1 X-13.240 Y-20.752 E2.55534
G1 X-12.028 Y-20.384 E2.58979
