; generated by Slic3r 0.9.9 on 2013-05-14 at 21:01:18

; layer_height = 0.3
; perimeters = 2
; top_solid_layers = 3
; bottom_solid_layers = 3
; fill_density = 0.15
; perimeter_speed = 30
; infill_speed = 60
; travel_speed = 130
; nozzle_diameter = 0.5
; filament_diameter = 2.85
; extrusion_multiplier = 1
; perimeters extrusion width = 0.70mm
; infill extrusion width = 0.70mm
; solid infill extrusion width = 0.70mm
; top infill extrusion width = 0.70mm
; first layer extrusion width = 0.60mm

G21 ; set units to millimeters
M107
M104 S0
M83
M140 S80
G28
G1Y98F9000
M190 S80
G1X5Y98Z150F9000
M104 S210
G1X5Y98Z1F9000
G1Z0.05
M109 S210
G1Z5
G1X15
;G1E5F50
G90 ; use absolute coordinates
G92 E0
M82 ; use absolute distances for extrusion
G1 F1800.000 E-1.00000
G92 E0
G1 Z0.300 F7800.000
G1 X23.020 Y10.950
G1 F1800.000 E1.00000
G1 X22.690 Y11.680 F540.000 E1.02180
G1 X22.340 Y12.330 E1.04188
G1 X21.380 Y13.920 E1.09241
G1 X21.040 Y14.430 E1.10909
G1 X19.930 Y15.930 E1.15986
G1 X19.500 Y16.450 E1.17822
G1 X18.250 Y17.820 E1.22867
G1 X17.820 Y18.250 E1.24522
G1 X16.450 Y19.500 E1.29567
G1 X15.930 Y19.930 E1.31403
G1 X14.430 Y21.040 E1.36480
G1 X13.900 Y21.390 E1.38208
G1 X12.250 Y22.380 E1.43443
G1 X11.590 Y22.730 E1.45476
G1 X10.950 Y23.020 E1.47387
G1 X8.540 Y24.020 E1.54486
G1 X7.760 Y24.310 E1.56750
G1 X7.090 Y24.510 E1.58652
G1 X5.280 Y24.960 E1.63727
G1 X4.650 Y25.090 E1.65477
G1 X2.810 Y25.360 E1.70537
G1 X2.170 Y25.420 E1.72285
G1 X0.310 Y25.510 E1.77352
G1 X-0.330 Y25.510 E1.79093
G1 X-2.180 Y25.420 E1.84132
G1 X-2.820 Y25.360 E1.85881
G1 X-4.660 Y25.090 E1.90941
G1 X-5.290 Y24.960 E1.92691
G1 X-7.100 Y24.510 E1.97765
G1 X-7.770 Y24.310 E1.99667
G1 X-8.550 Y24.020 E2.01931
G1 X-10.960 Y23.020 E2.09030
G1 X-11.690 Y22.690 E2.11210
G1 X-12.340 Y22.340 E2.13218
G1 X-13.930 Y21.380 E2.18272
G1 X-14.440 Y21.040 E2.19939
G1 X-15.940 Y19.930 E2.25016
G1 X-16.450 Y19.520 E2.26796
G1 X-17.830 Y18.270 E2.31862
G1 X-18.290 Y17.800 E2.33651
G1 X-19.530 Y16.430 E2.38679
G1 X-19.940 Y15.930 E2.40438
G1 X-21.050 Y14.430 E2.45515
G1 X-21.390 Y13.920 E2.47182
G1 X-22.350 Y12.330 E2.52236
G1 X-22.700 Y11.680 E2.54244
G1 X-23.030 Y10.950 E2.56424
G1 X-24.030 Y8.540 E2.63523
G1 X-24.320 Y7.760 E2.65787
G1 X-24.520 Y7.090 E2.67689
G1 X-24.970 Y5.280 E2.72763
G1 X-25.100 Y4.650 E2.74513
G1 X-25.370 Y2.810 E2.79573
G1 X-25.430 Y2.170 E2.81322
G1 X-25.520 Y0.310 E2.86388
G1 X-25.520 Y-0.330 E2.88129
G1 X-25.430 Y-2.180 E2.93169
G1 X-25.370 Y-2.820 E2.94917
G1 X-25.100 Y-4.660 E2.99977
G1 X-24.970 Y-5.290 E3.01727
G1 X-24.520 Y-7.100 E3.06802
G1 X-24.320 Y-7.770 E3.08704
G1 X-24.030 Y-8.550 E3.10968
G1 X-23.030 Y-10.960 E3.18067
G1 X-22.700 Y-11.690 E3.20246
G1 X-22.350 Y-12.340 E3.22255
G1 X-21.390 Y-13.930 E3.27308
G1 X-21.050 Y-14.440 E3.28976
G1 X-19.940 Y-15.940 E3.34053
G1 X-19.540 Y-16.430 E3.35773
G1 X-18.300 Y-17.810 E3.40821
G1 X-17.810 Y-18.300 E3.42706
G1 X-16.430 Y-19.540 E3.47754
G1 X-15.940 Y-19.940 E3.49475
G1 X-14.440 Y-21.050 E3.54552
G1 X-13.930 Y-21.390 E3.56219
G1 X-12.340 Y-22.350 E3.61272
G1 X-11.690 Y-22.700 E3.63281
G1 X-10.960 Y-23.030 E3.65461
G1 X-8.550 Y-24.030 E3.72559
G1 X-7.770 Y-24.320 E3.74823
G1 X-7.100 Y-24.520 E3.76726
G1 X-5.290 Y-24.970 E3.81800
G1 X-4.660 Y-25.100 E3.83550
G1 X-2.820 Y-25.370 E3.88610
G1 X-2.180 Y-25.430 E3.90359
G1 X-0.330 Y-25.520 E3.95398
G1 X0.310 Y-25.520 E3.97139
G1 X2.170 Y-25.430 E4.02205
G1 X2.810 Y-25.370 E4.03954
G1 X4.650 Y-25.100 E4.09014
G1 X5.280 Y-24.970 E4.10764
G1 X7.090 Y-24.520 E4.15838
G1 X7.760 Y-24.320 E4.17741
G1 X8.540 Y-24.030 E4.20005
G1 X10.950 Y-23.030 E4.27104
G1 X11.680 Y-22.700 E4.29283
G1 X12.330 Y-22.350 E4.31292
G1 X13.920 Y-21.390 E4.36345
G1 X14.430 Y-21.050 E4.38012
G1 X15.930 Y-19.940 E4.43089
G1 X16.430 Y-19.530 E4.44849
G1 X17.800 Y-18.290 E4.49876
G1 X18.270 Y-17.830 E4.51665
G1 X19.520 Y-16.450 E4.56731
G1 X19.930 Y-15.940 E4.58511
G1 X21.040 Y-14.440 E4.63588
G1 X21.380 Y-13.930 E4.65256
G1 X22.340 Y-12.340 E4.70309
G1 X22.690 Y-11.690 E4.72317
G1 X23.020 Y-10.960 E4.74497
G1 X24.020 Y-8.550 E4.81596
G1 X24.310 Y-7.770 E4.83860
G1 X24.510 Y-7.100 E4.85762
G1 X24.960 Y-5.290 E4.90836
G1 X25.090 Y-4.660 E4.92587
G1 X25.360 Y-2.820 E4.97646
G1 X25.420 Y-2.180 E4.99395
G1 X25.510 Y-0.330 E5.04434
G1 X25.510 Y0.310 E5.06176
G1 X25.420 Y2.170 E5.11242
G1 X25.360 Y2.810 E5.12991
G1 X25.090 Y4.650 E5.18050
G1 X24.960 Y5.290 E5.19827
G1 X24.490 Y7.160 E5.25073
G1 X24.280 Y7.840 E5.27009
G1 X24.020 Y8.540 E5.29041
G1 X23.053 Y10.870 E5.35904
G1 F1800.000 E4.35904
G92 E0
G1 X-4.918 Y17.385 F7800.000
G1 F1800.000 E1.00000
G1 X-4.006 Y14.667 F540.000 E1.07802
G1 X-2.970 Y14.926 E1.10709
G1 X-1.492 Y15.146 E1.14772
G1 X-0.000 Y15.219 E1.18837
G1 X1.492 Y15.146 E1.22902
G1 X2.970 Y14.926 E1.26965
G1 X4.006 Y14.667 E1.29872
G1 X4.918 Y17.385 E1.37674
G1 X3.527 Y17.734 E1.41574
G1 X1.772 Y17.994 E1.46403
G1 X-0.000 Y18.081 E1.51230
G1 X-1.772 Y17.994 E1.56056
G1 X-3.527 Y17.734 E1.60885
G1 X-4.834 Y17.406 E1.64549
G1 X-5.417 Y17.857 F7800.000
G1 X-5.658 Y17.771 F540.000 E1.65245
G1 X-4.384 Y13.976 E1.76136
G1 X-2.857 Y14.358 E1.80421
G1 X-1.435 Y14.569 E1.84330
G1 X-0.000 Y14.640 E1.88240
G1 X1.435 Y14.569 E1.92150
G1 X2.857 Y14.358 E1.96059
G1 X4.384 Y13.976 E2.00343
G1 X5.658 Y17.771 E2.11235
G1 X5.417 Y17.857 E2.11930
G1 X3.640 Y18.302 E2.16913
G1 X1.829 Y18.571 E2.21896
G1 X-0.000 Y18.660 E2.26877
G1 X-1.829 Y18.571 E2.31859
G1 X-3.640 Y18.302 E2.36842
G1 X-5.333 Y17.878 E2.41588
G1 X-5.471 Y17.607 F7800.000
G1 F1800.000 E1.41588
G92 E0
G1 X-7.539 Y13.204 F7800.000
G1 F1800.000 E1.00000
G1 X-8.815 Y15.771 F540.000 E1.07800
G1 X-10.045 Y15.033 E1.11701
G1 X-11.471 Y13.977 E1.16528
G1 X-12.786 Y12.786 E1.21355
G1 X-13.977 Y11.471 E1.26183
G1 X-15.033 Y10.045 E1.31010
G1 X-15.771 Y8.815 E1.34911
G1 X-13.204 Y7.539 E1.42711
G1 X-12.654 Y8.455 E1.45617
G1 X-11.765 Y9.655 E1.49683
G1 X-10.761 Y10.761 E1.53746
G1 X-9.655 Y11.765 E1.57809
G1 X-8.455 Y12.654 E1.61874
G1 X-7.613 Y13.159 E1.64545
G1 X-6.901 Y13.221 F7800.000
G1 X-8.565 Y16.566 F540.000 E1.74711
G1 X-8.796 Y16.457 E1.75408
G1 X-10.367 Y15.515 E1.80390
G1 X-11.838 Y14.425 E1.85371
G1 X-13.195 Y13.195 E1.90354
G1 X-14.425 Y11.838 E1.95336
G1 X-15.515 Y10.367 E2.00318
G1 X-16.457 Y8.796 E2.05300
G1 X-16.566 Y8.565 E2.05996
G1 X-12.983 Y6.782 E2.16885
G1 X-12.173 Y8.133 E2.21170
G1 X-11.317 Y9.288 E2.25081
G1 X-10.352 Y10.352 E2.28989
G1 X-9.288 Y11.317 E2.32897
G1 X-8.133 Y12.173 E2.36808
G1 X-6.782 Y12.983 E2.41093
G1 X-6.862 Y13.143 E2.41579
G1 X-7.478 Y13.256 F7800.000
G1 F1800.000 E1.41579
G92 E0
G1 X-14.667 Y-4.006 F7800.000
G1 F1800.000 E1.00000
G1 X-14.926 Y-2.970 F540.000 E1.02907
G1 X-15.146 Y-1.492 E1.06970
G1 X-15.219 Y0.000 E1.11035
G1 X-15.146 Y1.492 E1.15100
G1 X-14.926 Y2.970 E1.19163
G1 X-14.667 Y4.006 E1.22070
G1 X-17.385 Y4.918 E1.29872
G1 X-17.734 Y3.527 E1.33772
G1 X-17.994 Y1.772 E1.38601
G1 X-18.081 Y-0.000 E1.43428
G1 X-17.994 Y-1.772 E1.48254
G1 X-17.734 Y-3.527 E1.53083
G1 X-17.385 Y-4.918 E1.56983
G1 X-14.749 Y-4.034 E1.64549
G1 X-14.228 Y-4.469 F7800.000
G1 X-13.976 Y-4.384 F540.000 E1.65273
G1 X-14.358 Y-2.857 E1.69557
G1 X-14.569 Y-1.435 E1.73466
G1 X-14.640 Y0.000 E1.77376
G1 X-14.569 Y1.435 E1.81286
G1 X-14.358 Y2.857 E1.85195
G1 X-13.976 Y4.384 E1.89480
G1 X-17.771 Y5.658 E2.00371
G1 X-17.857 Y5.417 E2.01067
G1 X-18.302 Y3.640 E2.06049
G1 X-18.571 Y1.829 E2.11033
G1 X-18.660 Y-0.000 E2.16014
G1 X-18.571 Y-1.829 E2.20995
G1 X-18.302 Y-3.640 E2.25978
G1 X-17.857 Y-5.417 E2.30961
G1 X-17.771 Y-5.658 E2.31657
G1 X-14.310 Y-4.496 E2.41588
G1 X-14.175 Y-4.208 F7800.000
G1 F1800.000 E1.41588
G92 E0
G1 X-7.539 Y-13.204 F7800.000
G1 F1800.000 E1.00000
G1 X-8.455 Y-12.654 F540.000 E1.02907
G1 X-9.655 Y-11.765 E1.06972
G1 X-10.761 Y-10.761 E1.11035
G1 X-11.765 Y-9.655 E1.15098
G1 X-12.654 Y-8.455 E1.19164
G1 X-13.204 Y-7.539 E1.22070
G1 X-15.771 Y-8.815 E1.29870
G1 X-15.033 Y-10.045 E1.33771
G1 X-13.977 Y-11.471 E1.38598
G1 X-12.786 Y-12.786 E1.43426
G1 X-11.471 Y-13.977 E1.48253
G1 X-10.045 Y-15.033 E1.53080
G1 X-8.815 Y-15.771 E1.56981
G1 X-7.577 Y-13.282 E1.64545
G1 X-6.941 Y-13.301 F7800.000
G1 X-6.782 Y-12.983 F540.000 E1.65511
G1 X-8.133 Y-12.173 E1.69796
G1 X-9.288 Y-11.317 E1.73707
G1 X-10.352 Y-10.352 E1.77615
G1 X-11.317 Y-9.288 E1.81523
G1 X-12.173 Y-8.133 E1.85434
G1 X-12.983 Y-6.782 E1.89719
G1 X-16.566 Y-8.565 E2.00607
G1 X-16.457 Y-8.796 E2.01304
G1 X-15.515 Y-10.367 E2.06286
G1 X-14.425 Y-11.838 E2.11268
G1 X-13.195 Y-13.195 E2.16250
G1 X-11.838 Y-14.425 E2.21233
G1 X-10.367 Y-15.515 E2.26214
G1 X-8.796 Y-16.457 E2.31196
G1 X-8.565 Y-16.566 E2.31893
G1 X-6.979 Y-13.379 E2.41579
G1 X-7.137 Y-13.005 F7800.000
G1 F1800.000 E1.41579
G92 E0
G1 X4.006 Y-14.667 F7800.000
G1 F1800.000 E1.00000
G1 X2.970 Y-14.926 F540.000 E1.02907
G1 X1.492 Y-15.146 E1.06970
G1 X-0.000 Y-15.219 E1.11035
G1 X-1.492 Y-15.146 E1.15100
G1 X-2.970 Y-14.926 E1.19163
G1 X-4.006 Y-14.667 E1.22070
G1 X-4.918 Y-17.385 E1.29872
G1 X-3.527 Y-17.734 E1.33772
G1 X-1.772 Y-17.994 E1.38601
G1 X-0.000 Y-18.081 E1.43428
G1 X1.772 Y-17.994 E1.48254
G1 X3.527 Y-17.734 E1.53083
G1 X4.918 Y-17.385 E1.56983
G1 X4.034 Y-14.749 E1.64549
G1 X4.384 Y-13.976 F7800.000
G1 X2.857 Y-14.358 F540.000 E1.68834
G1 X1.435 Y-14.569 E1.72743
G1 X-0.000 Y-14.640 E1.76653
G1 X-1.435 Y-14.569 E1.80563
G1 X-2.857 Y-14.358 E1.84472
G1 X-4.384 Y-13.976 E1.88756
G1 X-5.658 Y-17.771 E1.99648
G1 X-5.417 Y-17.857 E2.00343
G1 X-3.640 Y-18.302 E2.05326
G1 X-1.829 Y-18.571 E2.10309
G1 X-0.000 Y-18.660 E2.15291
G1 X1.829 Y-18.571 E2.20272
G1 X3.640 Y-18.302 E2.25255
G1 X5.417 Y-17.857 E2.30238
G1 X5.658 Y-17.771 E2.30933
G1 X4.412 Y-14.058 E2.41588
G1 X3.979 Y-14.389 F7800.000
G1 F1800.000 E1.41588
G92 E0
G1 X13.204 Y-7.539 F7800.000
G1 F1800.000 E1.00000
G1 X12.654 Y-8.455 F540.000 E1.02907
G1 X11.765 Y-9.655 E1.06972
G1 X10.761 Y-10.761 E1.11035
G1 X9.655 Y-11.765 E1.15098
G1 X8.455 Y-12.654 E1.19164
G1 X7.539 Y-13.204 E1.22070
G1 X8.815 Y-15.771 E1.29870
G1 X10.045 Y-15.033 E1.33771
G1 X11.471 Y-13.977 E1.38598
G1 X12.786 Y-12.786 E1.43426
G1 X13.977 Y-11.471 E1.48253
G1 X15.033 Y-10.045 E1.53080
G1 X15.771 Y-8.815 E1.56981
G1 X13.282 Y-7.577 E1.64545
G1 X12.983 Y-6.782 F7800.000
G1 X12.173 Y-8.133 F540.000 E1.68830
G1 X11.317 Y-9.288 E1.72740
G1 X10.352 Y-10.352 E1.76649
G1 X9.288 Y-11.317 E1.80557
G1 X8.133 Y-12.173 E1.84468
G1 X6.782 Y-12.983 E1.88753
G1 X8.565 Y-16.566 E1.99641
G1 X8.796 Y-16.457 E2.00338
G1 X10.367 Y-15.515 E2.05320
G1 X11.838 Y-14.425 E2.10302
G1 X13.195 Y-13.195 E2.15284
G1 X14.425 Y-11.838 E2.20266
G1 X15.515 Y-10.367 E2.25248
G1 X16.457 Y-8.796 E2.30230
G1 X16.566 Y-8.565 E2.30927
G1 X13.061 Y-6.821 E2.41579
G1 X12.988 Y-7.361 F7800.000
G1 F1800.000 E1.41579
G92 E0
G1 X14.667 Y4.006 F7800.000
G1 F1800.000 E1.00000
G1 X14.926 Y2.970 F540.000 E1.02907
G1 X15.146 Y1.492 E1.06970
G1 X15.219 Y0.000 E1.11035
G1 X15.146 Y-1.492 E1.15100
G1 X14.926 Y-2.970 E1.19163
G1 X14.667 Y-4.006 E1.22070
G1 X17.385 Y-4.918 E1.29872
G1 X17.734 Y-3.527 E1.33772
G1 X17.994 Y-1.772 E1.38601
G1 X18.081 Y-0.000 E1.43428
G1 X17.994 Y1.772 E1.48254
G1 X17.734 Y3.527 E1.53083
G1 X17.385 Y4.918 E1.56983
G1 X14.749 Y4.034 E1.64549
G1 X13.976 Y4.384 F7800.000
G1 X14.358 Y2.857 F540.000 E1.68834
G1 X14.569 Y1.435 E1.72743
G1 X14.640 Y0.000 E1.76653
G1 X14.569 Y-1.435 E1.80563
G1 X14.358 Y-2.857 E1.84472
G1 X13.976 Y-4.384 E1.88756
G1 X17.771 Y-5.658 E1.99648
G1 X17.857 Y-5.417 E2.00343
G1 X18.302 Y-3.640 E2.05326
G1 X18.571 Y-1.829 E2.10309
G1 X18.660 Y-0.000 E2.15291
G1 X18.571 Y1.829 E2.20272
G1 X18.302 Y3.640 E2.25255
G1 X17.857 Y5.417 E2.30238
G1 X17.771 Y5.658 E2.30933
G1 X14.058 Y4.412 E2.41588
G1 X14.389 Y3.979 F7800.000
G1 F1800.000 E1.41588
G92 E0
G1 X7.539 Y13.204 F7800.000
G1 F1800.000 E1.00000
G1 X8.455 Y12.654 F540.000 E1.02907
G1 X9.655 Y11.765 E1.06972
G1 X10.761 Y10.761 E1.11035
G1 X11.765 Y9.655 E1.15098
G1 X12.654 Y8.455 E1.19164
G1 X13.204 Y7.539 E1.22070
G1 X15.771 Y8.815 E1.29870
G1 X15.033 Y10.045 E1.33771
G1 X13.977 Y11.471 E1.38598
G1 X12.786 Y12.786 E1.43426
G1 X11.471 Y13.977 E1.48253
G1 X10.045 Y15.033 E1.53080
G1 X8.815 Y15.771 E1.56981
G1 X7.577 Y13.282 E1.64545
G1 X6.782 Y12.983 F7800.000
G1 X8.133 Y12.173 F540.000 E1.68830
G1 X9.288 Y11.317 E1.72740
G1 X10.352 Y10.352 E1.76649
G1 X11.317 Y9.288 E1.80557
G1 X12.173 Y8.133 E1.84468
G1 X12.983 Y6.782 E1.88753
G1 X16.566 Y8.565 E1.99641
G1 X16.457 Y8.796 E2.00338
G1 X15.515 Y10.367 E2.05320
G1 X14.425 Y11.838 E2.10302
G1 X13.195 Y13.195 E2.15284
G1 X11.838 Y14.425 E2.20266
G1 X10.367 Y15.515 E2.25248
G1 X8.796 Y16.457 E2.30230
G1 X8.565 Y16.566 E2.30927
G1 X6.821 Y13.061 E2.41579
G1 X7.361 Y12.988 F7800.000
G1 F1800.000 E1.41579
G92 E0
G1 X3.732 Y15.168 F7800.000
G1 F1800.000 E1.00000
G1 X4.154 Y16.426 F1080.000 E1.03688
G1 X3.063 Y15.335 E1.07974
G1 X2.337 Y15.444 E1.10016
G1 X4.060 Y17.168 E1.16792
G1 X3.387 Y17.330 E1.18716
G1 X1.609 Y15.552 E1.25705
G1 X0.819 Y15.598 E1.27903
G1 X2.657 Y17.436 E1.35123
G1 X1.926 Y17.541 E1.37175
G1 X0.023 Y15.638 E1.44654
G1 X-0.854 Y15.597 E1.47093
G1 X1.154 Y17.605 E1.54985
G1 X0.358 Y17.644 E1.57201
G1 X-1.756 Y15.530 E1.65507
G1 X-2.737 Y15.385 E1.68265
G1 X-0.484 Y17.638 E1.77120
G1 X-1.363 Y17.595 E1.79566
G1 X-3.746 Y15.211 E1.88932
G1 X-3.956 Y15.837 E1.90766
G1 X-2.302 Y17.492 E1.97269
G1 X-3.283 Y17.346 E2.00027
G1 X-4.166 Y16.463 E2.03498
G1 X-4.376 Y17.089 E2.05333
G1 F1800.000 E1.05333
G92 E0
G1 X-8.965 Y15.130 F7800.000
G1 F1800.000 E1.00000
G1 X-15.130 Y8.965 F1080.000 E1.25560
G1 X-14.542 Y8.672 F7800.000
G1 X-8.672 Y14.542 F1080.000 E1.49894
G1 X-8.380 Y13.953 E1.51821
G1 X-13.953 Y8.380 E1.74929
G1 X-13.364 Y8.087 E1.76857
G1 X-12.490 Y12.487 F7800.000
G1 X-12.487 Y12.490 F1080.000 E1.76869
G1 X-8.087 Y13.364 F7800.000
G1 X-8.087 Y13.364 F1080.000 E1.76870
G1 F1800.000 E0.76870
G92 E0
G1 X-17.089 Y4.376 F7800.000
G1 F1800.000 E1.00000
G1 X-16.463 Y4.166 F1080.000 E1.01834
G1 X-17.346 Y3.283 E1.05306
G1 X-17.492 Y2.302 E1.08063
G1 X-15.837 Y3.956 E1.14566
G1 X-15.211 Y3.746 E1.16400
G1 X-17.595 Y1.363 E1.25767
G1 X-17.638 Y0.484 E1.28212
G1 X-15.385 Y2.737 E1.37067
G1 X-15.530 Y1.756 E1.39825
G1 X-17.644 Y-0.358 E1.48131
G1 X-17.605 Y-1.154 E1.50348
G1 X-15.597 Y0.854 E1.58240
G1 X-15.638 Y-0.023 E1.60678
G1 X-17.547 Y-1.932 E1.68181
G1 X-17.439 Y-2.660 E1.70226
G1 X-15.598 Y-0.819 E1.77458
G1 X-15.552 Y-1.609 E1.79656
G1 X-17.331 Y-3.387 E1.86646
G1 X-17.168 Y-4.060 E1.88570
G1 X-15.444 Y-2.337 E1.95346
G1 X-15.335 Y-3.063 E1.97388
G1 X-16.426 Y-4.154 E2.01674
G1 X-15.168 Y-3.732 E2.05362
G1 F1800.000 E1.05362
G92 E0
G1 X-15.178 Y-8.989 F7800.000
G1 F1800.000 E1.00000
G1 X-14.869 Y-9.505 F1080.000 E1.01651
G1 X-13.535 Y-8.172 E1.06824
G1 X-13.087 Y-8.549 E1.08431
G1 X-14.542 Y-10.004 E1.14079
G1 X-14.191 Y-10.478 E1.15697
G1 X-12.747 Y-9.034 E1.21301
G1 X-12.396 Y-9.508 E1.22920
G1 X-13.840 Y-10.952 E1.28523
G1 X-13.470 Y-11.407 E1.30133
G1 X-12.039 Y-9.976 E1.35683
G1 X-11.647 Y-10.409 E1.37286
G1 X-13.077 Y-11.840 E1.42836
G1 X-12.685 Y-12.272 E1.44439
G1 X-11.254 Y-10.842 E1.49990
G1 X-10.842 Y-11.254 E1.51591
G1 X-12.272 Y-12.685 E1.57142
G1 X-11.839 Y-13.077 E1.58745
G1 X-10.409 Y-11.647 E1.64295
G1 X-9.976 Y-12.039 E1.65898
G1 X-11.407 Y-13.470 E1.71448
G1 X-10.952 Y-13.840 E1.73058
G1 X-9.508 Y-12.396 E1.78661
G1 X-9.034 Y-12.747 E1.80280
G1 X-10.478 Y-14.191 E1.85884
G1 X-10.004 Y-14.542 E1.87502
G1 X-8.549 Y-13.087 E1.93150
G1 X-8.172 Y-13.535 E1.94757
G1 X-9.505 Y-14.869 E1.99930
G1 X-8.989 Y-15.178 E2.01581
G1 F1800.000 E1.01581
G92 E0
G1 X-3.732 Y-15.168 F7800.000
G1 F1800.000 E1.00000
G1 X-3.063 Y-15.335 F1080.000 E1.01915
G1 X-4.154 Y-16.426 E1.06202
G1 X-4.060 Y-17.168 E1.08281
G1 X-2.337 Y-15.444 E1.15056
G1 X-1.609 Y-15.552 E1.17101
G1 X-3.387 Y-17.331 E1.24090
G1 X-2.660 Y-17.439 E1.26135
G1 X-0.819 Y-15.598 E1.33367
G1 X-0.023 Y-15.638 E1.35584
G1 X-1.932 Y-17.547 E1.43087
G1 X-1.154 Y-17.605 E1.45255
G1 X0.854 Y-15.597 E1.53146
G1 X1.756 Y-15.530 E1.55660
G1 X-0.358 Y-17.644 E1.63966
G1 X0.484 Y-17.638 E1.66306
G1 X2.737 Y-15.385 E1.75161
G1 X3.746 Y-15.211 E1.78006
