; generated by Slic3r 0.9.8 on 2013-04-26 at 21:12:33

; layer_height = 0.3
; perimeters = 2
; top_solid_layers = 3
; bottom_solid_layers = 3
; fill_density = 0.1
; perimeter_speed = 30
; infill_speed = 60
; travel_speed = 130
; scale = 1
; nozzle_diameter = 0.5
; filament_diameter = 2.85
; extrusion_multiplier = 1
; perimeters extrusion width = 0.70mm
; infill extrusion width = 0.70mm
; first layer extrusion width = 0.60mm

M107
M104 S210 ; set temperature
M104 S0
M83
M140 S80
G28
G1Y98F9000
M190 S80
G1X5Y98Z150F9000
M104 S210
G1X5Y98Z1F9000
G1Z0.05
M109 S210
G1Z5
G1X15
;G1E5F50
G90 ; use absolute coordinates
G21 ; set units to millimeters
G92 E0
M82 ; use absolute distances for extrusion
G1 F1800.000 E-1.00000
G92 E0
G1 Z0.300 F7800.000
G1 X-12.080 Y-9.607
G1 F1800.000 E1.00000
G1 X-11.320 Y-9.817 F540.000 E1.02145
G1 X-10.530 Y-9.927 E1.04315
G1 X-10.000 Y-9.947 E1.05758
G1 X10.000 Y-9.917 E1.60172
G1 X10.530 Y-9.897 E1.61615
G1 X11.060 Y-9.827 E1.63069
G1 X11.830 Y-9.657 E1.65214
G1 X12.580 Y-9.387 E1.67383
G1 X13.060 Y-9.157 E1.68831
G1 X13.510 Y-8.897 E1.70245
G1 X14.160 Y-8.427 E1.72427
G1 X14.550 Y-8.077 E1.73853
G1 X15.090 Y-7.497 E1.76009
G1 X15.410 Y-7.067 E1.77467
G1 X15.690 Y-6.617 E1.78909
G1 X15.940 Y-6.157 E1.80334
G1 X16.140 Y-5.667 E1.81774
G1 X16.310 Y-5.167 E1.83210
G1 X16.440 Y-4.647 E1.84669
G1 X16.550 Y-3.867 E1.86812
G1 X16.570 Y-3.337 E1.88255
G1 X16.570 Y3.363 E2.06483
G1 X16.550 Y3.893 E2.07926
G1 X16.440 Y4.683 E2.10096
G1 X16.310 Y5.193 E2.11528
G1 X16.140 Y5.693 E2.12965
G1 X15.820 Y6.423 E2.15134
G1 X15.550 Y6.883 E2.16585
G1 X15.250 Y7.313 E2.18011
G1 X15.090 Y7.523 E2.18730
G1 X14.730 Y7.923 E2.20194
G1 X14.150 Y8.463 E2.22350
G1 X13.940 Y8.623 E2.23068
G1 X13.510 Y8.923 E2.24494
G1 X13.050 Y9.193 E2.25946
G1 X12.320 Y9.513 E2.28114
G1 X11.820 Y9.683 E2.29551
G1 X11.310 Y9.813 E2.30983
G1 X10.520 Y9.923 E2.33153
G1 X9.990 Y9.943 E2.34596
G1 X3.270 Y9.943 E2.52879
G1 X-10.020 Y9.903 E2.89036
G1 X-10.550 Y9.883 E2.90479
G1 X-11.330 Y9.763 E2.92627
G1 X-11.850 Y9.633 E2.94085
G1 X-12.350 Y9.473 E2.95513
G1 X-12.830 Y9.263 E2.96939
G1 X-13.300 Y9.013 E2.98387
G1 X-13.750 Y8.733 E2.99829
G1 X-14.170 Y8.413 E3.01265
G1 X-14.560 Y8.063 E3.02691
G1 X-14.930 Y7.683 E3.04134
G1 X-15.420 Y7.053 E3.06305
G1 X-15.700 Y6.603 E3.07747
G1 X-15.950 Y6.143 E3.09172
G1 X-16.150 Y5.653 E3.10612
G1 X-16.320 Y5.153 E3.12049
G1 X-16.450 Y4.633 E3.13507
G1 X-16.560 Y3.853 E3.15650
G1 X-16.580 Y3.323 E3.17093
G1 X-16.580 Y-3.367 E3.35294
G1 X-16.560 Y-3.897 E3.36737
G1 X-16.450 Y-4.687 E3.38907
G1 X-16.390 Y-4.937 E3.39607
G1 X-16.240 Y-5.447 E3.41053
G1 X-16.050 Y-5.947 E3.42508
G1 X-15.830 Y-6.427 E3.43945
G1 X-15.700 Y-6.657 E3.44664
G1 X-15.410 Y-7.107 E3.46120
G1 X-15.100 Y-7.527 E3.47540
G1 X-14.560 Y-8.107 E3.49696
G1 X-14.160 Y-8.467 E3.51160
G1 X-13.740 Y-8.777 E3.52581
G1 X-13.060 Y-9.197 E3.54755
G1 X-12.580 Y-9.417 E3.56192
G1 X-12.162 Y-9.577 E3.57411
G1 X-12.080 Y-9.607 E3.57647
G1 F1800.000 E2.57647
G92 E0
G1 X2.143 Y-3.813 F7800.000
G1 F1800.000 E1.00000
G1 X2.821 Y-4.490 F540.000 E1.02608
G1 X10.479 Y-4.490 E1.23444
G1 X11.157 Y-3.813 E1.26052
G1 X11.157 Y3.846 E1.46889
G1 X10.479 Y4.524 E1.49496
G1 X2.821 Y4.524 E1.70333
G1 X2.143 Y3.846 E1.72941
G1 X2.143 Y-3.726 E1.93541
G1 X2.143 Y-3.813 E1.93777
G1 F1800.000 E0.93777
G92 E0
G1 X-2.143 Y-3.846 F7800.000
G1 F1800.000 E1.00000
G1 X-2.143 Y3.813 F540.000 E1.20836
G1 X-2.821 Y4.490 E1.23444
G1 X-10.479 Y4.490 E1.44281
G1 X-11.157 Y3.813 E1.46889
G1 X-11.157 Y-3.846 E1.67725
G1 X-10.479 Y-4.524 E1.70333
G1 X-2.821 Y-4.524 E1.91169
G1 X-2.204 Y-3.907 E1.93541
G1 X-2.143 Y-3.846 E1.93777
G1 F1800.000 E0.93777
G92 E0
G1 X2.721 Y-3.573 F7800.000
G1 F1800.000 E1.00000
G1 X3.060 Y-3.912 F540.000 E1.01304
G1 X10.240 Y-3.912 E1.20836
G1 X10.579 Y-3.573 E1.22140
G1 X10.579 Y3.606 E1.41673
G1 X10.240 Y3.945 E1.42977
G1 X3.060 Y3.945 E1.62509
G1 X2.721 Y3.606 E1.63813
G1 X2.721 Y-3.486 E1.83109
G1 X2.721 Y-3.573 E1.83345
G1 F1800.000 E0.83345
G92 E0
G1 X-2.721 Y-3.606 F7800.000
G1 F1800.000 E1.00000
G1 X-2.721 Y3.573 F540.000 E1.19532
G1 X-3.060 Y3.912 E1.20836
G1 X-10.240 Y3.912 E1.40369
G1 X-10.579 Y3.573 E1.41673
G1 X-10.579 Y-3.606 E1.61205
G1 X-10.240 Y-3.945 E1.62509
G1 X-3.060 Y-3.945 E1.82041
G1 X-2.783 Y-3.668 E1.83109
G1 X-2.721 Y-3.606 E1.83345
G1 F1800.000 E0.83345
G92 E0
G1 X-3.300 Y3.333 F7800.000
G1 F1800.000 E1.00000
G1 X-10.000 Y3.333 F540.000 E1.18228
G1 X-10.000 Y-3.367 E1.36457
G1 X-3.300 Y-3.367 E1.54685
G1 X-3.300 Y3.247 E1.72678
G1 X-3.300 Y3.333 E1.72914
G1 X-3.801 Y3.044 F7800.000
G1 F1800.000 E0.72914
G92 E0
G1 X-3.879 Y-2.788 F7800.000
G1 F1800.000 E1.00000
G1 X-3.879 Y2.755 F540.000 E1.15080
G1 X-9.421 Y2.755 E1.30161
G1 X-9.421 Y-2.788 E1.45241
G1 X-3.965 Y-2.788 E1.60086
G1 X-3.879 Y-2.788 E1.60322
G1 X-4.641 Y-2.394 F7800.000
G1 X-4.273 Y-2.025 F1080.000 E1.61841
G1 X-4.273 Y-1.148 E1.64400
G1 X-5.518 Y-2.394 E1.69538
G1 X-6.396 Y-2.394 E1.72096
G1 X-4.273 Y-0.271 E1.80852
G1 X-4.273 Y0.606 E1.83411
G1 X-7.273 Y-2.394 E1.95786
G1 X-8.150 Y-2.394 E1.98344
G1 X-4.273 Y1.483 E2.14338
G1 X-4.273 Y2.360 E2.16896
G1 X-9.027 Y-2.394 E2.36506
G1 X-9.027 Y-1.517 E2.39065
G1 X-5.150 Y2.360 E2.55058
G1 X-6.027 Y2.360 E2.57617
G1 X-9.027 Y-0.639 E2.69991
G1 X-9.027 Y0.238 E2.72550
G1 X-6.904 Y2.360 E2.81306
G1 X-7.782 Y2.360 E2.83864
G1 X-9.027 Y1.115 E2.89002
G1 X-9.027 Y1.992 E2.91561
G1 X-8.659 Y2.360 E2.93081
G1 F1800.000 E1.93081
G92 E0
G1 X10.000 Y3.367 F7800.000
G1 F1800.000 E1.00000
G1 X3.300 Y3.367 F540.000 E1.18228
G1 X3.300 Y-3.333 E1.36457
G1 X10.000 Y-3.333 E1.54685
G1 X10.000 Y3.280 E1.72678
G1 X10.000 Y3.367 E1.72914
G1 X9.499 Y3.077 F7800.000
G1 F1800.000 E0.72914
G92 E0
G1 X3.879 Y2.788 F7800.000
G1 F1800.000 E1.00000
G1 X3.879 Y-2.755 F540.000 E1.15080
G1 X9.421 Y-2.755 E1.30161
G1 X9.421 Y2.788 E1.45241
G1 X3.965 Y2.788 E1.60086
G1 X3.879 Y2.788 E1.60322
G1 X4.641 Y2.394 F7800.000
G1 X4.273 Y2.025 F1080.000 E1.61841
G1 X4.273 Y1.148 E1.64400
G1 X5.518 Y2.394 E1.69538
G1 X6.396 Y2.394 E1.72096
G1 X4.273 Y0.271 E1.80852
G1 X4.273 Y-0.606 E1.83411
G1 X7.273 Y2.394 E1.95786
G1 X8.150 Y2.394 E1.98344
G1 X4.273 Y-1.483 E2.14338
G1 X4.273 Y-2.360 E2.16896
G1 X9.027 Y2.394 E2.36506
G1 X9.027 Y1.517 E2.39065
G1 X5.150 Y-2.360 E2.55058
G1 X6.027 Y-2.360 E2.57616
G1 X9.027 Y0.639 E2.69991
G1 X9.027 Y-0.238 E2.72550
G1 X6.904 Y-2.360 E2.81306
G1 X7.782 Y-2.360 E2.83864
G1 X9.027 Y-1.115 E2.89002
G1 X9.027 Y-1.992 E2.91561
G1 X8.659 Y-2.360 E2.93081
M104 S200 ; set temperature
M140 S50 ; set bed temperature
G1 F1800.000 E1.93081
G92 E0
G1 Z0.600 F7800.000
G1 X-4.003 Y-2.664
G1 F1800.000 E1.00000
G1 X-4.003 Y2.630 F600.000 E1.16295
G1 X-9.297 Y2.630 E1.32590
G1 X-9.297 Y-2.664 E1.48885
G1 X-4.101 Y-2.664 E1.64878
G1 X-4.003 Y-2.664 E1.65181
G1 X-3.348 Y-3.318 F7800.000
G1 X-3.348 Y3.285 F600.000 E1.85505
G1 X-9.952 Y3.285 E2.05829
G1 X-9.952 Y-3.318 E2.26153
G1 X-3.447 Y-3.318 E2.46175
G1 X-3.348 Y-3.318 E2.46477
G1 X-3.676 Y-2.751 F7800.000
G1 F1800.000 E1.46477
G92 E0
G1 X-4.449 Y1.768 F7800.000
G1 F1800.000 E1.00000
G1 X-4.866 Y2.184 F1047.995 E1.01953
G1 X-5.862 Y2.184 E1.05253
G1 X-4.449 Y0.771 E1.11874
G1 X-4.449 Y-0.225 E1.15175
G1 X-6.858 Y2.184 E1.26464
G1 X-7.855 Y2.184 E1.29765
G1 X-4.449 Y-1.221 E1.45722
G1 X-4.449 Y-2.218 E1.49023
G1 X-8.851 Y2.184 E1.69648
G1 X-8.851 Y1.188 E1.72948
G1 X-5.445 Y-2.218 E1.88905
G1 X-6.442 Y-2.218 E1.92206
G1 X-8.851 Y0.192 E2.03495
G1 X-8.851 Y-0.805 E2.06796
G1 X-7.438 Y-2.218 E2.13417
G1 X-8.434 Y-2.218 E2.16718
G1 X-8.851 Y-1.801 E2.18670
G1 F1800.000 E1.18670
G92 E0
G1 X4.003 Y2.664 F7800.000
G1 F1800.000 E1.00000
G1 X4.003 Y-2.630 F600.000 E1.16295
G1 X9.297 Y-2.630 E1.32590
G1 X9.297 Y2.664 E1.48885
G1 X4.101 Y2.664 E1.64878
G1 X4.003 Y2.664 E1.65181
G1 X3.348 Y3.318 F7800.000
G1 X3.348 Y-3.285 F600.000 E1.85505
G1 X9.952 Y-3.285 E2.05829
G1 X9.952 Y3.318 E2.26153
G1 X3.447 Y3.318 E2.46175
G1 X3.348 Y3.318 E2.46477
G1 X3.676 Y2.751 F7800.000
G1 F1800.000 E1.46477
G92 E0
G1 X4.449 Y-1.768 F7800.000
G1 F1800.000 E1.00000
G1 X4.866 Y-2.184 F1047.995 E1.01952
G1 X5.862 Y-2.184 E1.05253
G1 X4.449 Y-0.771 E1.11874
G1 X4.449 Y0.225 E1.15175
G1 X6.858 Y-2.184 E1.26464
G1 X7.855 Y-2.184 E1.29765
G1 X4.449 Y1.221 E1.45722
G1 X4.449 Y2.218 E1.49023
G1 X8.851 Y-2.184 E1.69647
G1 X8.851 Y-1.188 E1.72948
G1 X5.445 Y2.218 E1.88905
G1 X6.442 Y2.218 E1.92206
G1 X8.851 Y-0.192 E2.03495
G1 X8.851 Y0.805 E2.06796
G1 X7.438 Y2.218 E2.13417
G1 X8.434 Y2.218 E2.16718
G1 X8.851 Y1.801 E2.18670
G1 F1800.000 E1.18670
G92 E0
G1 Z0.900 F7800.000
G1 X-4.003 Y-2.664
G1 F1800.000 E1.00000
G1 X-4.003 Y2.630 F600.000 E1.16295
G1 X-9.297 Y2.630 E1.32590
G1 X-9.297 Y-2.664 E1.48885
G1 X-4.101 Y-2.664 E1.64878
G1 X-4.003 Y-2.664 E1.65181
G1 X-3.348 Y-3.318 F7800.000
G1 X-3.348 Y3.285 F600.000 E1.85505
G1 X-9.952 Y3.285 E2.05829
G1 X-9.952 Y-3.318 E2.26153
G1 X-3.447 Y-3.318 E2.46175
G1 X-3.348 Y-3.318 E2.46477
G1 X-3.676 Y-2.751 F7800.000
G1 X-4.866 Y-2.218
G1 X-4.449 Y-1.801 F1047.995 E2.48429
G1 X-4.449 Y-0.805 E2.51730
G1 X-5.862 Y-2.218 E2.58351
G1 X-6.858 Y-2.218 E2.61652
G1 X-4.449 Y0.192 E2.72941
G1 X-4.449 Y1.188 E2.76242
G1 X-7.855 Y-2.218 E2.92199
G1 X-8.851 Y-2.218 E2.95499
G1 X-4.449 Y2.184 E3.16124
G1 X-5.445 Y2.184 E3.19425
G1 X-8.851 Y-1.221 E3.35382
G1 X-8.851 Y-0.225 E3.38683
G1 X-6.442 Y2.184 E3.49972
G1 X-7.438 Y2.184 E3.53273
G1 X-8.851 Y0.771 E3.59894
G1 X-8.851 Y1.768 E3.63195
G1 X-8.434 Y2.184 E3.65147
G1 F1800.000 E2.65147
G92 E0
G1 X9.297 Y-2.630 F7800.000
G1 F1800.000 E1.00000
G1 X9.297 Y2.664 F600.000 E1.16295
G1 X4.003 Y2.664 E1.32590
G1 X4.003 Y-2.630 E1.48885
G1 X9.199 Y-2.630 E1.64878
G1 X9.297 Y-2.630 E1.65181
G1 X9.952 Y-3.285 F7800.000
G1 X9.952 Y3.318 F600.000 E1.85505
G1 X3.348 Y3.318 E2.05829
G1 X3.348 Y-3.285 E2.26153
G1 X9.853 Y-3.285 E2.46175
G1 X9.952 Y-3.285 E2.46477
G1 X9.624 Y-2.718 F7800.000
G1 X8.434 Y-2.184
G1 X8.851 Y-1.768 F1047.995 E2.48429
G1 X8.851 Y-0.771 E2.51730
G1 X7.438 Y-2.184 E2.58351
G1 X6.442 Y-2.184 E2.61652
G1 X8.851 Y0.225 E2.72941
G1 X8.851 Y1.221 E2.76242
G1 X5.445 Y-2.184 E2.92199
G1 X4.449 Y-2.184 E2.95499
G1 X8.851 Y2.218 E3.16124
G1 X7.855 Y2.218 E3.19425
G1 X4.449 Y-1.188 E3.35382
G1 X4.449 Y-0.192 E3.38683
G1 X6.858 Y2.218 E3.49972
G1 X5.862 Y2.218 E3.53273
G1 X4.449 Y0.805 E3.59894
G1 X4.449 Y1.801 E3.63195
G1 X4.866 Y2.218 E3.65147
G1 F1800.000 E2.65147
G92 E0
G1 Z1.200 F7800.000
G1 X-4.003 Y2.630
G1 F1800.000 E1.00000
G1 X-9.297 Y2.630 F600.000 E1.16295
G1 X-9.297 Y-2.664 E1.32590
G1 X-4.003 Y-2.664 E1.48885
G1 X-4.003 Y2.532 E1.64878
G1 X-4.003 Y2.630 E1.65181
G1 X-3.348 Y3.285 F7800.000
G1 X-9.952 Y3.285 F600.000 E1.85505
G1 X-9.952 Y-3.318 E2.05829
G1 X-3.348 Y-3.318 E2.26153
G1 X-3.348 Y3.187 E2.46175
G1 X-3.348 Y3.285 E2.46477
G1 X-3.915 Y2.958 F7800.000
G1 X-4.449 Y1.768
G1 X-4.866 Y2.184 F1047.992 E2.48429
G1 X-5.862 Y2.184 E2.51730
G1 X-4.449 Y0.771 E2.58351
G1 X-4.449 Y-0.225 E2.61652
G1 X-6.858 Y2.184 E2.72941
G1 X-7.855 Y2.184 E2.76242
G1 X-4.449 Y-1.221 E2.92199
G1 X-4.449 Y-2.218 E2.95499
G1 X-8.851 Y2.184 E3.16123
G1 X-8.851 Y1.188 E3.19424
G1 X-5.445 Y-2.218 E3.35381
G1 X-6.442 Y-2.218 E3.38682
G1 X-8.851 Y0.192 E3.49971
G1 X-8.851 Y-0.805 E3.53272
G1 X-7.438 Y-2.218 E3.59892
G1 X-8.434 Y-2.218 E3.63193
G1 X-8.851 Y-1.801 E3.65145
G1 F1800.000 E2.65145
G92 E0
G1 X4.003 Y-2.630 F7800.000
G1 F1800.000 E1.00000
G1 X9.297 Y-2.630 F600.000 E1.16295
G1 X9.297 Y2.664 E1.32590
G1 X4.003 Y2.664 E1.48885
G1 X4.003 Y-2.532 E1.64878
G1 X4.003 Y-2.630 E1.65181
G1 X3.348 Y-3.285 F7800.000
G1 X9.952 Y-3.285 F600.000 E1.85505
G1 X9.952 Y3.318 E2.05829
G1 X3.348 Y3.318 E2.26153
G1 X3.348 Y-3.187 E2.46175
G1 X3.348 Y-3.285 E2.46477
G1 X3.915 Y-2.958 F7800.000
G1 X4.449 Y-1.768
G1 X4.866 Y-2.184 F1047.992 E2.48429
G1 X5.862 Y-2.184 E2.51730
G1 X4.449 Y-0.771 E2.58351
G1 X4.449 Y0.225 E2.61651
G1 X6.858 Y-2.184 E2.72940
G1 X7.855 Y-2.184 E2.76241
G1 X4.449 Y1.221 E2.92198
G1 X4.449 Y2.218 E2.95499
G1 X8.851 Y-2.184 E3.16123
G1 X8.851 Y-1.188 E3.19423
G1 X5.445 Y2.218 E3.35380
G1 X6.442 Y2.218 E3.38681
G1 X8.851 Y-0.192 E3.49970
G1 X8.851 Y0.805 E3.53271
G1 X7.438 Y2.218 E3.59892
G1 X8.434 Y2.218 E3.63193
G1 X8.851 Y1.801 E3.65145
M106 S255
G1 F1800.000 E2.65145
G92 E0
G1 Z1.500 F7800.000
G1 X-9.297 Y-2.664
G1 F1800.000 E1.00000
G1 X-4.003 Y-2.664 F600.000 E1.16295
G1 X-4.003 Y2.630 E1.32590
G1 X-9.297 Y2.630 E1.48885
G1 X-9.297 Y-2.566 E1.64878
G1 X-9.297 Y-2.664 E1.65181
G1 X-9.952 Y-3.318 F7800.000
G1 X-3.348 Y-3.318 F600.000 E1.85505
G1 X-3.348 Y3.285 E2.05829
G1 X-9.952 Y3.285 E2.26153
G1 X-9.952 Y-3.220 E2.46175
G1 X-9.952 Y-3.318 E2.46477
G1 X-9.385 Y-2.991 F7800.000
G1 F1800.000 E1.46477
G92 E0
G1 X-4.866 Y-2.218 F7800.000
G1 F1800.000 E1.00000
G1 X-4.449 Y-1.801 F1047.992 E1.01952
G1 X-4.449 Y-0.805 E1.05253
G1 X-5.862 Y-2.218 E1.11874
G1 X-6.858 Y-2.218 E1.15175
G1 X-4.449 Y0.192 E1.26464
G1 X-4.449 Y1.188 E1.29764
G1 X-7.855 Y-2.218 E1.45721
G1 X-8.851 Y-2.218 E1.49022
G1 X-4.449 Y2.184 E1.69646
G1 X-5.445 Y2.184 E1.72947
G1 X-8.851 Y-1.221 E1.88904
G1 X-8.851 Y-0.225 E1.92205
G1 X-6.442 Y2.184 E2.03494
G1 X-7.438 Y2.184 E2.06795
G1 X-8.851 Y0.771 E2.13415
G1 X-8.851 Y1.768 E2.16716
G1 X-8.434 Y2.184 E2.18669
G1 F1800.000 E1.18669
G92 E0
G1 X9.297 Y-2.630 F7800.000
G1 F1800.000 E1.00000
G1 X9.297 Y2.664 F600.000 E1.16295
G1 X4.003 Y2.664 E1.32590
G1 X4.003 Y-2.630 E1.48885
G1 X9.199 Y-2.630 E1.64878
G1 X9.297 Y-2.630 E1.65181
G1 X9.952 Y-3.285 F7800.000
G1 X9.952 Y3.318 F600.000 E1.85505
G1 X3.348 Y3.318 E2.05829
G1 X3.348 Y-3.285 E2.26153
G1 X9.853 Y-3.285 E2.46175
G1 X9.952 Y-3.285 E2.46477
G1 X9.624 Y-2.718 F7800.000
G1 X8.434 Y-2.184
G1 X8.851 Y-1.768 F1047.992 E2.48429
G1 X8.851 Y-0.771 E2.51730
G1 X7.438 Y-2.184 E2.58351
G1 X6.442 Y-2.184 E2.61651
G1 X8.851 Y0.225 E2.72940
G1 X8.851 Y1.221 E2.76241
G1 X5.445 Y-2.184 E2.92198
G1 X4.449 Y-2.184 E2.95499
G1 X8.851 Y2.218 E3.16123
G1 X7.855 Y2.218 E3.19423
G1 X4.449 Y-1.188 E3.35380
G1 X4.449 Y-0.192 E3.38681
G1 X6.858 Y2.218 E3.49970
G1 X5.862 Y2.218 E3.53271
G1 X4.449 Y0.805 E3.59892
G1 X4.449 Y1.801 E3.63193
G1 X4.866 Y2.218 E3.65145
G1 F1800.000 E2.65145
G92 E0
G1 Z1.800 F7800.000
G1 X-9.297 Y2.630
G1 F1800.000 E1.00000
G1 X-9.297 Y-2.664 F600.000 E1.16295
G1 X-4.003 Y-2.664 E1.32590
G1 X-4.003 Y2.630 E1.48885
G1 X-9.199 Y2.630 E1.64878
G1 X-9.297 Y2.630 E1.65181
G1 X-9.952 Y3.285 F7800.000
G1 X-9.952 Y-3.318 F600.000 E1.85505
G1 X-3.348 Y-3.318 E2.05829
G1 X-3.348 Y3.285 E2.26153
G1 X-9.853 Y3.285 E2.46175
G1 X-9.952 Y3.285 E2.46477
G1 X-9.624 Y2.718 F7800.000
G1 F1800.000 E1.46477
G92 E0
G1 X-8.851 Y-1.801 F7800.000
G1 F1800.000 E1.00000
G1 X-8.434 Y-2.218 F1047.992 E1.01952
G1 X-7.438 Y-2.218 E1.05253
G1 X-8.851 Y-0.805 E1.11874
G1 X-8.851 Y0.192 E1.15175
G1 X-6.442 Y-2.218 E1.26464
G1 X-5.445 Y-2.218 E1.29764
G1 X-8.851 Y1.188 E1.45721
G1 X-8.851 Y2.184 E1.49022
G1 X-4.449 Y-2.218 E1.69646
G1 X-4.449 Y-1.221 E1.72947
G1 X-7.855 Y2.184 E1.88904
G1 X-6.858 Y2.184 E1.92205
G1 X-4.449 Y-0.225 E2.03494
G1 X-4.449 Y0.771 E2.06795
G1 X-5.862 Y2.184 E2.13415
G1 X-4.866 Y2.184 E2.16716
G1 X-4.449 Y1.768 E2.18669
G1 F1800.000 E1.18669
G92 E0
G1 X9.297 Y-2.630 F7800.000
G1 F1800.000 E1.00000
G1 X9.297 Y2.664 F600.000 E1.16295
G1 X4.003 Y2.664 E1.32590
G1 X4.003 Y-2.630 E1.48885
G1 X9.199 Y-2.630 E1.64878
G1 X9.297 Y-2.630 E1.65181
G1 X9.952 Y-3.285 F7800.000
G1 X9.952 Y3.318 F600.000 E1.85505
G1 X3.348 Y3.318 E2.05829
G1 X3.348 Y-3.285 E2.26153
G1 X9.853 Y-3.285 E2.46175
G1 X9.952 Y-3.285 E2.46477
G1 X9.624 Y-2.718 F7800.000
G1 F1800.000 E1.46477
G92 E0
G1 X8.851 Y1.801 F7800.000
G1 F1800.000 E1.00000
G1 X8.434 Y2.218 F1047.992 E1.01953
G1 X7.438 Y2.218 E1.05253
G1 X8.851 Y0.805 E1.11874
G1 X8.851 Y-0.192 E1.15175
G1 X6.442 Y2.218 E1.26464
G1 X5.445 Y2.218 E1.29765
G1 X8.851 Y-1.188 E1.45722
G1 X8.851 Y-2.184 E1.49022
G1 X4.449 Y2.218 E1.69647
G1 X4.449 Y1.221 E1.72947
G1 X7.855 Y-2.184 E1.88904
G1 X6.858 Y-2.184 E1.92205
G1 X4.449 Y0.225 E2.03494
G1 X4.449 Y-0.771 E2.06795
G1 X5.862 Y-2.184 E2.13415
G1 X4.866 Y-2.184 E2.16716
G1 X4.449 Y-1.768 E2.18669
