; generated by Slic3r 0.9.8 on 2013-04-26 at 22:11:48

; layer_height = 0.3
; perimeters = 2
; top_solid_layers = 3
; bottom_solid_layers = 3
; fill_density = 0.1
; perimeter_speed = 30
; infill_speed = 60
; travel_speed = 130
; scale = 1
; nozzle_diameter = 0.5
; filament_diameter = 2.85
; extrusion_multiplier = 1
; perimeters extrusion width = 0.70mm
; infill extrusion width = 0.70mm
; first layer extrusion width = 0.60mm

M107
M104 S210 ; set temperature
M104 S0
M83
M140 S80
G28
G1Y98F9000
M190 S80
G1X5Y98Z150F9000
M104 S210
G1X5Y98Z1F9000
G1Z0.05
M109 S210
G1Z5
G1X15
;G1E5F50
G90 ; use absolute coordinates
G21 ; set units to millimeters
G92 E0
M82 ; use absolute distances for extrusion
G1 F1800.000 E-1.00000
G92 E0
G1 Z0.300 F7800.000
G1 X-36.547 Y-15.743
G1 F1800.000 E1.00000
G1 X-36.437 Y-16.283 F540.000 E1.01499
G1 X-36.277 Y-16.803 E1.02980
G1 X-36.067 Y-17.313 E1.04480
G1 X-35.827 Y-17.813 E1.05989
G1 X-35.537 Y-18.273 E1.07468
G1 X-35.217 Y-18.723 E1.08971
G1 X-34.857 Y-19.133 E1.10455
G1 X-34.247 Y-19.703 E1.12727
G1 X-33.807 Y-20.033 E1.14223
G1 X-18.047 Y-30.943 E1.66372
G1 X-17.217 Y-31.473 E1.69051
G1 X-16.697 Y-31.763 E1.70671
G1 X-15.697 Y-32.263 E1.73713
G1 X-15.067 Y-32.533 E1.75578
G1 X-14.467 Y-32.753 E1.77317
G1 X-13.807 Y-32.963 E1.79201
G1 X-13.167 Y-33.133 E1.81003
G1 X-12.497 Y-33.273 E1.82865
G1 X-11.997 Y-33.353 E1.84242
G1 X-11.307 Y-33.443 E1.86136
G1 X-10.747 Y-33.493 E1.87665
G1 X-10.067 Y-33.523 E1.89517
G1 X-9.487 Y-33.523 E1.91095
G1 X-8.797 Y-33.493 E1.92974
G1 X-8.237 Y-33.443 E1.94504
G1 X-7.047 Y-33.273 E1.97774
G1 X-6.377 Y-33.133 E1.99636
G1 X-5.737 Y-32.963 E2.01438
G1 X-5.077 Y-32.753 E2.03322
G1 X-4.477 Y-32.533 E2.05061
G1 X-3.417 Y-32.063 E2.08216
G1 X-2.527 Y-31.593 E2.10954
G1 X30.463 Y-12.553 E3.14585
G1 X31.323 Y-12.003 E3.17362
G1 X31.803 Y-11.663 E3.18962
G1 X32.343 Y-11.243 E3.20823
G1 X32.713 Y-10.943 E3.22119
G1 X33.223 Y-10.483 E3.23988
G1 X33.653 Y-10.043 E3.25662
G1 X34.493 Y-9.103 E3.29092
G1 X34.923 Y-8.543 E3.31012
G1 X35.253 Y-8.073 E3.32575
G1 X35.623 Y-7.493 E3.34447
G1 X35.933 Y-6.933 E3.36188
G1 X36.443 Y-5.903 E3.39315
G1 X36.713 Y-5.263 E3.41205
G1 X36.913 Y-4.723 E3.42772
G1 X37.123 Y-4.073 E3.44630
G1 X37.303 Y-3.383 E3.46570
G1 X37.523 Y-2.233 E3.49756
G1 X37.613 Y-1.553 E3.51622
G1 X37.663 Y-0.983 E3.53178
G1 X37.693 Y-0.293 E3.55058
G1 X37.693 Y0.287 E3.56635
G1 X37.663 Y0.977 E3.58515
G1 X37.613 Y1.547 E3.60071
G1 X37.523 Y2.227 E3.61937
G1 X37.443 Y2.717 E3.63288
G1 X37.303 Y3.387 E3.65150
G1 X37.133 Y4.027 E3.66952
G1 X36.923 Y4.687 E3.68836
G1 X36.713 Y5.257 E3.70489
G1 X36.443 Y5.897 E3.72379
G1 X35.933 Y6.927 E3.75506
G1 X35.623 Y7.487 E3.77247
G1 X35.253 Y8.067 E3.79119
G1 X34.923 Y8.537 E3.80681
G1 X34.493 Y9.097 E3.82602
G1 X34.073 Y9.587 E3.84358
G1 X33.273 Y10.417 E3.87495
G1 X32.763 Y10.887 E3.89381
G1 X31.803 Y11.657 E3.92730
G1 X31.263 Y12.037 E3.94526
G1 X30.463 Y12.537 E3.97093
G1 X-2.527 Y31.587 E5.00737
G1 X-3.417 Y32.057 E5.03475
G1 X-4.557 Y32.547 E5.06851
G1 X-5.077 Y32.737 E5.08357
G1 X-5.737 Y32.947 E5.10242
G1 X-6.287 Y33.097 E5.11793
G1 X-6.957 Y33.247 E5.13661
G1 X-8.257 Y33.437 E5.17235
G1 X-8.807 Y33.487 E5.18738
G1 X-9.487 Y33.517 E5.20590
G1 X-10.067 Y33.517 E5.22168
G1 X-10.747 Y33.487 E5.24019
G1 X-11.307 Y33.437 E5.25549
G1 X-11.997 Y33.347 E5.27442
G1 X-12.587 Y33.247 E5.29070
G1 X-13.257 Y33.097 E5.30938
G1 X-13.807 Y32.947 E5.32489
G1 X-14.467 Y32.737 E5.34374
G1 X-14.987 Y32.547 E5.35880
G1 X-16.167 Y32.037 E5.39377
G1 X-16.777 Y31.717 E5.41251
G1 X-17.807 Y31.087 E5.44536
G1 X-18.347 Y30.707 E5.46333
G1 X-19.257 Y29.987 E5.49490
G1 X-19.767 Y29.527 E5.51358
G1 X-34.647 Y15.527 E6.06943
G1 X-35.037 Y15.127 E6.08463
G1 X-35.397 Y14.687 E6.10010
G1 X-35.717 Y14.227 E6.11535
G1 X-36.117 Y13.477 E6.13847
G1 X-36.327 Y12.957 E6.15373
G1 X-36.567 Y12.137 E6.17697
G1 X-36.657 Y11.587 E6.19214
G1 X-36.717 Y10.737 E6.21532
G1 X-36.717 Y4.027 E6.39788
G1 X-36.647 Y-14.643 E6.90583
G1 X-36.617 Y-15.193 E6.92081
G1 X-36.559 Y-15.657 E6.93354
G1 X-36.547 Y-15.743 E6.93590
G1 F1800.000 E5.93590
G92 E0
G1 X-18.824 Y-19.059 F7800.000
G1 F1800.000 E1.00000
G1 X-18.787 Y-19.867 F540.000 E1.02202
G1 X-18.690 Y-20.600 E1.04214
G1 X-18.521 Y-21.372 E1.06364
G1 X-18.269 Y-22.174 E1.08651
G1 X-17.964 Y-22.903 E1.10800
G1 X-17.623 Y-23.559 E1.12812
G1 X-17.200 Y-24.227 E1.14962
G1 X-16.688 Y-24.893 E1.17249
G1 X-16.189 Y-25.439 E1.19261
G1 X-15.608 Y-25.974 E1.21411
G1 X-14.941 Y-26.486 E1.23698
G1 X-14.317 Y-26.883 E1.25710
G1 X-13.617 Y-27.250 E1.27860
G1 X-12.841 Y-27.572 E1.30146
G1 X-12.086 Y-27.807 E1.32296
G1 X-11.364 Y-27.967 E1.34309
G1 X-10.581 Y-28.073 E1.36458
G1 X-9.792 Y-28.109 E1.38608
G1 X-8.952 Y-28.073 E1.40895
G1 X-8.219 Y-27.976 E1.42907
G1 X-7.447 Y-27.807 E1.45057
G1 X-6.645 Y-27.555 E1.47343
G1 X-5.916 Y-27.250 E1.49493
G1 X-5.243 Y-26.899 E1.51558
G1 X27.767 Y-7.841 E2.55262
G1 X28.449 Y-7.404 E2.57464
G1 X29.074 Y-6.922 E2.59613
G1 X29.620 Y-6.422 E2.61626
G1 X30.145 Y-5.851 E2.63737
G1 X30.637 Y-5.217 E2.65921
G1 X31.089 Y-4.507 E2.68212
G1 X31.452 Y-3.805 E2.70361
G1 X31.735 Y-3.121 E2.72373
G1 X31.975 Y-2.368 E2.74523
G1 X32.157 Y-1.548 E2.76810
G1 X32.253 Y-0.815 E2.78822
G1 X32.290 Y-0.025 E2.80972
G1 X32.253 Y0.815 E2.83259
G1 X32.148 Y1.598 E2.85408
G1 X31.988 Y2.320 E2.87421
G1 X31.735 Y3.121 E2.89708
G1 X31.452 Y3.805 E2.91720
G1 X31.089 Y4.507 E2.93870
G1 X30.637 Y5.217 E2.96160
G1 X30.177 Y5.813 E2.98210
G1 X29.655 Y6.386 E3.00318
G1 X29.036 Y6.954 E3.02605
G1 X28.449 Y7.404 E3.04618
G1 X27.789 Y7.828 E3.06751
G1 X-5.243 Y26.899 E4.10524
G1 X-5.916 Y27.250 E4.12588
G1 X-6.645 Y27.555 E4.14738
G1 X-7.447 Y27.807 E4.17025
G1 X-8.220 Y27.976 E4.19178
G1 X-8.967 Y28.073 E4.21228
G1 X-9.741 Y28.109 E4.23336
G1 X-10.581 Y28.073 E4.25623
G1 X-11.364 Y27.967 E4.27772
G1 X-12.135 Y27.794 E4.29922
G1 X-12.888 Y27.554 E4.32072
G1 X-13.571 Y27.272 E4.34084
G1 X-14.273 Y26.909 E4.36234
G1 X-14.982 Y26.457 E4.38520
G1 X-15.569 Y26.007 E4.40533
G1 X-16.153 Y25.474 E4.42683
G1 X-16.721 Y24.855 E4.44970
G1 X-17.200 Y24.227 E4.47119
G1 X-17.597 Y23.603 E4.49131
G1 X-17.964 Y22.903 E4.51281
G1 X-18.269 Y22.174 E4.53431
G1 X-18.521 Y21.372 E4.55717
G1 X-18.690 Y20.600 E4.57867
G1 X-18.787 Y19.867 E4.59879
G1 X-18.824 Y19.059 E4.62081
G1 X-18.824 Y-18.972 E5.65549
G1 X-18.824 Y-19.059 E5.65786
G1 F1800.000 E4.65786
G92 E0
G1 X-22.954 Y2.890 F7800.000
G1 F1800.000 E1.00000
G1 X-22.276 Y3.568 F540.000 E1.02608
G1 X-22.276 Y11.227 E1.23444
G1 X-22.954 Y11.904 E1.26052
G1 X-30.613 Y11.904 E1.46889
G1 X-31.290 Y11.227 E1.49496
G1 X-31.290 Y3.568 E1.70333
G1 X-30.613 Y2.890 E1.72941
G1 X-23.041 Y2.890 E1.93541
G1 X-22.954 Y2.890 E1.93777
G1 F1800.000 E0.93777
G92 E0
G1 X-22.887 Y-6.762 F7800.000
G1 F1800.000 E1.00000
G1 X-30.546 Y-6.762 F540.000 E1.20836
G1 X-31.224 Y-7.440 E1.23444
G1 X-31.224 Y-15.099 E1.44281
G1 X-30.546 Y-15.776 E1.46889
G1 X-22.887 Y-15.776 E1.67725
G1 X-22.210 Y-15.099 E1.70333
G1 X-22.210 Y-7.440 E1.91169
G1 X-22.826 Y-6.824 E1.93541
G1 X-22.887 Y-6.762 E1.93777
G1 F1800.000 E0.93777
G92 E0
G1 X-18.245 Y-19.052 F7800.000
G1 F1800.000 E1.00000
G1 X-18.212 Y-19.804 F540.000 E1.02047
G1 X-18.114 Y-20.537 E1.04060
G1 X-17.959 Y-21.235 E1.06003
G1 X-17.729 Y-21.964 E1.08084
G1 X-17.445 Y-22.647 E1.10096
G1 X-17.115 Y-23.281 E1.12040
G1 X-16.719 Y-23.905 E1.14052
G1 X-16.253 Y-24.512 E1.16133
G1 X-15.753 Y-25.056 E1.18145
G1 X-15.226 Y-25.539 E1.20089
G1 X-14.619 Y-26.005 E1.22170
G1 X-13.995 Y-26.401 E1.24182
G1 X-13.338 Y-26.742 E1.26195
G1 X-12.678 Y-27.015 E1.28138
G1 X-11.949 Y-27.245 E1.30219
G1 X-11.226 Y-27.404 E1.32232
G1 X-10.518 Y-27.497 E1.34175
G1 X-9.779 Y-27.531 E1.36188
G1 X-9.015 Y-27.497 E1.38269
G1 X-8.307 Y-27.404 E1.40212
G1 X-7.585 Y-27.245 E1.42224
G1 X-6.855 Y-27.015 E1.44305
G1 X-6.172 Y-26.731 E1.46318
G1 X-5.527 Y-26.395 E1.48296
G1 X27.472 Y-7.343 E2.51966
G1 X28.086 Y-6.952 E2.53945
G1 X28.693 Y-6.487 E2.56026
G1 X29.219 Y-6.004 E2.57969
G1 X29.711 Y-5.470 E2.59944
G1 X30.171 Y-4.874 E2.61992
G1 X30.582 Y-4.228 E2.64075
G1 X30.912 Y-3.594 E2.66019
G1 X31.196 Y-2.912 E2.68031
G1 X31.419 Y-2.207 E2.70043
G1 X31.585 Y-1.460 E2.72124
G1 X31.680 Y-0.726 E2.74136
G1 X31.712 Y-0.013 E2.76080
G1 X31.678 Y0.752 E2.78161
G1 X31.581 Y1.485 E2.80173
G1 X31.426 Y2.182 E2.82117
G1 X31.196 Y2.912 E2.84198
G1 X30.912 Y3.594 E2.86210
G1 X30.582 Y4.228 E2.88154
G1 X30.171 Y4.874 E2.90237
G1 X29.726 Y5.451 E2.92217
G1 X29.237 Y5.986 E2.94190
G1 X28.673 Y6.503 E2.96271
G1 X28.107 Y6.938 E2.98215
G1 X27.483 Y7.336 E3.00228
G1 X-5.527 Y26.395 E4.03932
G1 X-6.172 Y26.731 E4.05911
G1 X-6.855 Y27.015 E4.07923
G1 X-7.585 Y27.245 E4.10004
G1 X-8.308 Y27.404 E4.12018
G1 X-9.030 Y27.498 E4.13999
G1 X-9.754 Y27.531 E4.15972
G1 X-10.518 Y27.497 E4.18053
G1 X-11.251 Y27.400 E4.20065
G1 X-11.973 Y27.239 E4.22078
G1 X-12.678 Y27.015 E4.24090
G1 X-13.338 Y26.742 E4.26034
G1 X-13.995 Y26.401 E4.28046
G1 X-14.640 Y25.990 E4.30127
G1 X-15.207 Y25.555 E4.32071
G1 X-15.753 Y25.056 E4.34083
G1 X-16.270 Y24.493 E4.36164
G1 X-16.719 Y23.905 E4.38176
G1 X-17.103 Y23.303 E4.40120
G1 X-17.445 Y22.647 E4.42132
G1 X-17.729 Y21.964 E4.44144
G1 X-17.959 Y21.235 E4.46225
G1 X-18.114 Y20.537 E4.48169
G1 X-18.212 Y19.804 E4.50181
G1 X-18.245 Y19.052 E4.52228
G1 X-18.245 Y-18.966 E5.55662
G1 X-18.245 Y-19.052 E5.55899
G1 F1800.000 E4.55899
G92 E0
G1 X-23.194 Y3.469 F7800.000
G1 F1800.000 E1.00000
G1 X-22.855 Y3.808 F540.000 E1.01304
G1 X-22.855 Y10.987 E1.20836
G1 X-23.194 Y11.326 E1.22140
G1 X-30.373 Y11.326 E1.41673
G1 X-30.712 Y10.987 E1.42977
G1 X-30.712 Y3.808 E1.62509
G1 X-30.373 Y3.469 E1.63813
G1 X-23.280 Y3.469 E1.83109
G1 X-23.194 Y3.469 E1.83345
G1 F1800.000 E0.83345
G92 E0
G1 X-23.127 Y-7.341 F7800.000
G1 F1800.000 E1.00000
G1 X-30.306 Y-7.341 F540.000 E1.19532
G1 X-30.645 Y-7.680 E1.20836
G1 X-30.645 Y-14.859 E1.40369
G1 X-30.306 Y-15.198 E1.41673
G1 X-23.127 Y-15.198 E1.61205
G1 X-22.788 Y-14.859 E1.62509
G1 X-22.788 Y-7.680 E1.82041
G1 X-23.066 Y-7.402 E1.83109
G1 X-23.127 Y-7.341 E1.83345
G1 F1800.000 E0.83345
G92 E0
G1 X-23.367 Y-7.919 F7800.000
G1 F1800.000 E1.00000
G1 X-30.067 Y-7.919 F540.000 E1.18228
G1 X-30.067 Y-14.619 E1.36457
G1 X-23.367 Y-14.619 E1.54685
G1 X-23.367 Y-8.006 E1.72678
G1 X-23.367 Y-7.919 E1.72914
G1 X-23.868 Y-8.209 F7800.000
G1 X-23.945 Y-8.498
G1 X-29.488 Y-8.498 F540.000 E1.87994
G1 X-29.488 Y-14.041 E2.03075
G1 X-23.945 Y-14.041 E2.18155
G1 X-23.945 Y-8.585 E2.32999
G1 X-23.945 Y-8.498 E2.33235
G1 F1800.000 E1.33235
G92 E0
G1 X-28.725 Y-8.892 F7800.000
G1 F1800.000 E1.00000
G1 X-29.094 Y-9.261 F1080.000 E1.01520
G1 X-29.094 Y-10.138 E1.04078
G1 X-27.848 Y-8.892 E1.09216
G1 X-26.971 Y-8.892 E1.11775
G1 X-29.094 Y-11.015 E1.20531
G1 X-29.094 Y-11.892 E1.23089
G1 X-26.094 Y-8.892 E1.35464
G1 X-25.217 Y-8.892 E1.38023
G1 X-29.094 Y-12.769 E1.54016
G1 X-29.094 Y-13.646 E1.56574
G1 X-24.340 Y-8.892 E1.76185
G1 X-24.340 Y-9.769 E1.78743
G1 X-28.217 Y-13.646 E1.94736
G1 X-27.339 Y-13.646 E1.97295
G1 X-24.340 Y-10.646 E2.09669
G1 X-24.340 Y-11.524 E2.12228
G1 X-26.462 Y-13.646 E2.20984
G1 X-25.585 Y-13.646 E2.23543
G1 X-24.340 Y-12.401 E2.28681
G1 X-24.340 Y-13.278 E2.31239
G1 X-24.708 Y-13.646 E2.32759
G1 F1800.000 E1.32759
G92 E0
G1 X-23.433 Y10.747 F7800.000
G1 F1800.000 E1.00000
G1 X-30.133 Y10.747 F540.000 E1.18228
G1 X-30.133 Y4.047 E1.36457
G1 X-23.433 Y4.047 E1.54685
G1 X-23.433 Y10.661 E1.72678
G1 X-23.433 Y10.747 E1.72914
G1 X-23.934 Y10.458 F7800.000
G1 X-24.012 Y10.169
G1 X-29.555 Y10.169 F540.000 E1.87994
G1 X-29.555 Y4.626 E2.03075
G1 X-24.012 Y4.626 E2.18155
G1 X-24.012 Y10.082 E2.32999
G1 X-24.012 Y10.169 E2.33235
G1 F1800.000 E1.33235
G92 E0
G1 X-28.792 Y9.775 F7800.000
G1 F1800.000 E1.00000
G1 X-29.160 Y9.406 F1080.000 E1.01520
G1 X-29.160 Y8.529 E1.04078
G1 X-27.915 Y9.775 E1.09216
G1 X-27.038 Y9.774 E1.11775
G1 X-29.160 Y7.652 E1.20531
G1 X-29.160 Y6.775 E1.23089
G1 X-26.161 Y9.775 E1.35464
G1 X-25.283 Y9.775 E1.38023
G1 X-29.160 Y5.897 E1.54016
G1 X-29.160 Y5.020 E1.56574
G1 X-24.406 Y9.774 E1.76185
G1 X-24.406 Y8.897 E1.78743
G1 X-28.283 Y5.020 E1.94736
G1 X-27.406 Y5.020 E1.97295
G1 X-24.406 Y8.020 E2.09669
G1 X-24.406 Y7.143 E2.12228
G1 X-26.529 Y5.020 E2.20984
G1 X-25.652 Y5.020 E2.23543
G1 X-24.406 Y6.266 E2.28681
G1 X-24.406 Y5.389 E2.31239
G1 X-24.775 Y5.020 E2.32759
G1 F1800.000 E1.32759
G92 E0
G1 X-7.065 Y-26.476 F7800.000
G1 F1800.000 E1.00000
G1 X-6.428 Y-26.212 F540.000 E1.01875
G1 X-5.811 Y-25.891 E1.03768
G1 X27.178 Y-6.845 E2.07403
G1 X27.764 Y-6.471 E2.09296
G1 X28.311 Y-6.052 E2.11171
G1 X28.819 Y-5.586 E2.13046
G1 X29.285 Y-5.078 E2.14921
G1 X29.704 Y-4.531 E2.16796
G1 X30.075 Y-3.950 E2.18671
G1 X30.393 Y-3.339 E2.20546
G1 X30.657 Y-2.702 E2.22421
G1 X30.864 Y-2.045 E2.24296
G1 X31.013 Y-1.372 E2.26171
G1 X31.103 Y-0.688 E2.28046
G1 X31.133 Y-0.000 E2.29921
G1 X31.103 Y0.688 E2.31796
G1 X31.013 Y1.372 E2.33671
G1 X30.864 Y2.045 E2.35546
G1 X30.657 Y2.702 E2.37421
G1 X30.393 Y3.339 E2.39296
G1 X30.075 Y3.950 E2.41171
G1 X29.704 Y4.531 E2.43046
G1 X29.285 Y5.078 E2.44921
G1 X28.819 Y5.586 E2.46796
G1 X28.311 Y6.052 E2.48671
G1 X27.764 Y6.471 E2.50546
G1 X27.178 Y6.845 E2.52438
G1 X-5.811 Y25.891 E3.56074
G1 X-6.428 Y26.212 E3.57967
G1 X-7.065 Y26.476 E3.59842
G1 X-7.722 Y26.683 E3.61717
G1 X-8.395 Y26.832 E3.63592
G1 X-9.078 Y26.922 E3.65467
G1 X-9.767 Y26.952 E3.67342
G1 X-10.455 Y26.922 E3.69217
G1 X-11.138 Y26.832 E3.71092
G1 X-11.811 Y26.683 E3.72967
G1 X-12.469 Y26.476 E3.74842
G1 X-13.105 Y26.212 E3.76717
G1 X-13.717 Y25.894 E3.78592
G1 X-14.298 Y25.524 E3.80467
G1 X-14.845 Y25.104 E3.82342
G1 X-15.353 Y24.638 E3.84217
G1 X-15.818 Y24.130 E3.86092
G1 X-16.238 Y23.584 E3.87966
G1 X-16.608 Y23.002 E3.89841
G1 X-16.926 Y22.391 E3.91717
G1 X-17.190 Y21.754 E3.93592
G1 X-17.397 Y21.097 E3.95466
G1 X-17.546 Y20.424 E3.97341
G1 X-17.636 Y19.741 E3.99217
G1 X-17.667 Y19.046 E4.01109
G1 X-17.667 Y-19.046 E5.04745
G1 X-17.636 Y-19.741 E5.06638
G1 X-17.546 Y-20.424 E5.08513
G1 X-17.397 Y-21.097 E5.10388
G1 X-17.190 Y-21.754 E5.12262
G1 X-16.926 Y-22.391 E5.14137
G1 X-16.608 Y-23.002 E5.16013
G1 X-16.238 Y-23.584 E5.17888
G1 X-15.818 Y-24.130 E5.19762
G1 X-15.353 Y-24.638 E5.21637
G1 X-14.845 Y-25.104 E5.23512
G1 X-14.298 Y-25.524 E5.25387
G1 X-13.717 Y-25.894 E5.27262
G1 X-13.105 Y-26.212 E5.29137
G1 X-12.469 Y-26.476 E5.31012
G1 X-11.811 Y-26.683 E5.32887
G1 X-11.138 Y-26.832 E5.34762
G1 X-10.455 Y-26.922 E5.36637
G1 X-9.767 Y-26.952 E5.38512
G1 X-9.078 Y-26.922 E5.40387
G1 X-8.395 Y-26.832 E5.42262
G1 X-7.722 Y-26.683 E5.44137
G1 X-7.148 Y-26.502 E5.45776
G1 X-7.065 Y-26.476 E5.46012
G1 X-6.973 Y-25.905 F7800.000
G1 F1800.000 E4.46012
G92 E0
G1 X-15.763 Y23.252 F7800.000
G1 F1800.000 E1.00000
G1 X-16.107 Y22.713 F540.000 E1.01738
G1 X-16.401 Y22.146 E1.03475
G1 X-16.646 Y21.556 E1.05213
G1 X-16.838 Y20.947 E1.06950
G1 X-16.976 Y20.324 E1.08688
G1 X-17.059 Y19.691 E1.10425
G1 X-17.088 Y19.033 E1.12215
G1 X-17.088 Y-19.033 E2.15782
G1 X-17.059 Y-19.691 E2.17572
G1 X-16.976 Y-20.324 E2.19309
G1 X-16.838 Y-20.947 E2.21047
G1 X-16.646 Y-21.556 E2.22784
G1 X-16.401 Y-22.146 E2.24522
G1 X-16.107 Y-22.713 E2.26259
G1 X-15.763 Y-23.252 E2.27997
G1 X-15.375 Y-23.758 E2.29734
G1 X-14.943 Y-24.229 E2.31472
G1 X-14.472 Y-24.660 E2.33209
G1 X-13.966 Y-25.049 E2.34947
G1 X-13.427 Y-25.392 E2.36685
G1 X-12.861 Y-25.687 E2.38422
G1 X-12.270 Y-25.932 E2.40160
G1 X-11.661 Y-26.124 E2.41897
G1 X-11.038 Y-26.262 E2.43635
G1 X-10.405 Y-26.345 E2.45372
G1 X-9.767 Y-26.373 E2.47110
G1 X-9.129 Y-26.345 E2.48847
G1 X-8.495 Y-26.262 E2.50585
G1 X-7.872 Y-26.124 E2.52322
G1 X-7.263 Y-25.932 E2.54060
G1 X-6.673 Y-25.687 E2.55797
G1 X-6.089 Y-25.384 E2.57587
G1 X26.877 Y-6.350 E3.61154
G1 X27.432 Y-5.997 E3.62944
G1 X27.939 Y-5.608 E3.64681
G1 X28.410 Y-5.176 E3.66419
G1 X28.841 Y-4.706 E3.68156
G1 X29.230 Y-4.199 E3.69894
G1 X29.573 Y-3.660 E3.71631
G1 X29.868 Y-3.094 E3.73369
G1 X30.112 Y-2.504 E3.75107
G1 X30.305 Y-1.895 E3.76844
G1 X30.443 Y-1.271 E3.78581
G1 X30.526 Y-0.638 E3.80319
G1 X30.554 Y-0.000 E3.82057
G1 X30.526 Y0.638 E3.83794
