; generated by Slic3r 0.9.9 on 2013-04-30 at 21:48:04

; layer_height = 0.3
; perimeters = 2
; top_solid_layers = 3
; bottom_solid_layers = 3
; fill_density = 0.1
; perimeter_speed = 30
; infill_speed = 60
; travel_speed = 130
; nozzle_diameter = 0.5
; filament_diameter = 2.85
; extrusion_multiplier = 1
; perimeters extrusion width = 0.70mm
; infill extrusion width = 0.70mm
; solid infill extrusion width = 0.70mm
; top infill extrusion width = 0.70mm
; first layer extrusion width = 0.60mm

G21 ; set units to millimeters
M107
M104 S0
M83
M140 S80
G28
G1Y98F9000
M190 S80
G1X5Y98Z150F9000
M104 S210
G1X5Y98Z1F9000
G1Z0.05
M109 S210
G1Z5
G1X15
;G1E5F50
G90 ; use absolute coordinates
G92 E0
M82 ; use absolute distances for extrusion
G1 F1800.000 E-1.00000
G92 E0
G1 Z0.300 F7800.000
G1 X-1.677 Y42.963
G1 F1800.000 E1.00000
G1 X-48.357 Y37.973 F540.000 E2.27724
G1 X-48.617 Y37.943 E2.28436
G1 X-49.147 Y37.843 E2.29904
G1 X-50.127 Y37.553 E2.32684
G1 X-51.017 Y37.193 E2.35296
G1 X-51.877 Y36.733 E2.37950
G1 X-52.097 Y36.593 E2.38659
G1 X-52.517 Y36.303 E2.40048
G1 X-53.097 Y35.843 E2.42062
G1 X-53.877 Y35.083 E2.45025
G1 X-59.607 Y28.563 E2.68640
G1 X-59.787 Y28.353 E2.69393
G1 X-60.107 Y27.923 E2.70851
G1 X-60.527 Y27.223 E2.73072
G1 X-60.847 Y26.473 E2.75290
G1 X-61.017 Y25.953 E2.76779
G1 X-61.137 Y25.423 E2.78257
G1 X-61.217 Y24.883 E2.79742
G1 X-61.247 Y24.343 E2.81214
G1 X-61.907 Y-12.467 E3.81378
G1 X-61.907 Y-18.087 E3.96668
G1 X-61.847 Y-18.937 E3.98986
G1 X-61.807 Y-19.217 E3.99756
G1 X-61.687 Y-19.777 E4.01314
G1 X-61.517 Y-20.317 E4.02854
G1 X-61.297 Y-20.847 E4.04415
G1 X-61.037 Y-21.357 E4.05973
G1 X-60.737 Y-21.837 E4.07513
G1 X-48.487 Y-37.967 E4.62618
G1 X-47.897 Y-38.637 E4.65047
G1 X-45.857 Y-40.667 E4.72877
G1 X-45.647 Y-40.857 E4.73647
G1 X-45.187 Y-41.207 E4.75220
G1 X-44.457 Y-41.657 E4.77553
G1 X-43.937 Y-41.897 E4.79111
G1 X-43.117 Y-42.167 E4.81460
G1 X-40.287 Y-42.917 E4.89425
G1 X-39.947 Y-42.987 E4.90369
G1 X-39.257 Y-43.057 E4.92256
G1 X-6.617 Y-43.067 E5.81059
G1 X-6.087 Y-43.047 E5.82502
G1 X-5.287 Y-42.927 E5.84703
G1 X48.983 Y-31.727 E7.35465
G1 X49.533 Y-31.587 E7.37009
G1 X50.253 Y-31.367 E7.39057
G1 X50.993 Y-31.067 E7.41229
G1 X51.873 Y-30.597 E7.43944
G1 X52.303 Y-30.317 E7.45340
G1 X52.713 Y-30.017 E7.46722
G1 X53.093 Y-29.707 E7.48056
G1 X53.873 Y-28.947 E7.51019
G1 X59.783 Y-22.217 E7.75387
G1 X60.103 Y-21.787 E7.76845
G1 X60.523 Y-21.087 E7.79066
G1 X60.843 Y-20.337 E7.81285
G1 X61.013 Y-19.817 E7.82773
G1 X61.133 Y-19.287 E7.84252
G1 X61.213 Y-18.747 E7.85737
G1 X61.243 Y-18.207 E7.87208
G1 X61.913 Y18.603 E8.87372
G1 X61.913 Y24.223 E9.02663
G1 X61.863 Y25.063 E9.04952
G1 X61.703 Y25.883 E9.07225
G1 X61.433 Y26.673 E9.09496
G1 X61.073 Y27.433 E9.11784
G1 X60.623 Y28.133 E9.14048
G1 X60.273 Y28.573 E9.15578
G1 X54.523 Y35.103 E9.39250
G1 X53.723 Y35.863 E9.42252
G1 X53.353 Y36.163 E9.43548
G1 X52.743 Y36.603 E9.45594
G1 X52.313 Y36.853 E9.46948
G1 X51.673 Y37.193 E9.48919
G1 X51.013 Y37.473 E9.50870
G1 X50.313 Y37.703 E9.52874
G1 X49.803 Y37.843 E9.54313
G1 X49.273 Y37.943 E9.55781
G1 X2.303 Y42.963 E10.84298
G1 X0.593 Y43.043 E10.88955
G1 X0.083 Y43.043 E10.90343
G1 X-1.590 Y42.969 E10.94900
G1 F1800.000 E9.94900
G92 E0
G1 X-1.069 Y37.289 F7800.000
G1 F1800.000 E1.00000
G1 X-2.441 Y37.107 F540.000 E1.03766
G1 X-3.792 Y36.806 E1.07532
G1 X-5.112 Y36.388 E1.11299
G1 X-6.390 Y35.856 E1.15065
G1 X-7.617 Y35.216 E1.18831
G1 X-8.784 Y34.471 E1.22597
G1 X-9.881 Y33.627 E1.26363
G1 X-10.874 Y32.717 E1.30027
G1 X-11.211 Y32.351 E1.31381
G1 X-47.188 Y32.351 E2.29262
G1 X-47.782 Y32.295 E2.30885
G1 X-48.416 Y32.112 E2.32681
G1 X-49.002 Y31.808 E2.34478
G1 X-49.578 Y31.335 E2.36505
G1 X-49.944 Y30.890 E2.38071
G1 X-50.262 Y30.312 E2.39867
G1 X-50.462 Y29.682 E2.41664
G1 X-50.534 Y29.005 E2.43518
G1 X-50.534 Y25.101 E2.54138
G1 X-50.549 Y25.101 E2.54177
G1 X-50.549 Y26.843 E2.58915
G1 X-51.057 Y27.351 E2.60871
G1 X-52.327 Y27.351 E2.64327
G1 X-52.628 Y27.236 E2.65202
G1 X-55.384 Y24.755 E2.75292
G1 X-55.534 Y24.418 E2.76296
G1 X-55.534 Y18.549 E2.92264
G1 X-55.384 Y18.212 E2.93268
G1 X-52.628 Y15.731 E3.03358
G1 X-52.327 Y15.616 E3.04233
G1 X-51.057 Y15.616 E3.07689
G1 X-50.549 Y16.124 E3.09645
G1 X-50.549 Y17.866 E3.14383
G1 X-50.534 Y17.866 E3.14422
G1 X-50.534 Y13.962 E3.25042
G1 X-50.478 Y13.368 E3.26666
G1 X-50.295 Y12.734 E3.28462
G1 X-49.991 Y12.148 E3.30259
G1 X-49.518 Y11.572 E3.32286
G1 X-49.073 Y11.206 E3.33852
G1 X-48.495 Y10.888 E3.35647
G1 X-47.865 Y10.688 E3.37445
G1 X-47.188 Y10.616 E3.39298
G1 X-11.211 Y10.616 E4.37180
G1 X-10.874 Y10.250 E4.38534
G1 X-9.881 Y9.340 E4.42197
G1 X-8.784 Y8.496 E4.45963
G1 X-7.584 Y7.732 E4.49832
G1 X-6.356 Y7.094 E4.53598
G1 X-5.076 Y6.566 E4.57365
G1 X-3.755 Y6.151 E4.61131
G1 X-2.441 Y5.860 E4.64794
G1 X-1.069 Y5.678 E4.68560
G1 X0.314 Y5.616 E4.72326
G1 X1.697 Y5.674 E4.76093
G1 X3.107 Y5.860 E4.79962
G1 X4.459 Y6.161 E4.83728
G1 X5.743 Y6.566 E4.87391
G1 X7.022 Y7.094 E4.91157
G1 X8.251 Y7.732 E4.94924
G1 X9.450 Y8.496 E4.98793
G1 X10.547 Y9.340 E5.02559
G1 X11.540 Y10.250 E5.06222
G1 X11.878 Y10.616 E5.07576
G1 X47.855 Y10.616 E6.05457
G1 X48.532 Y10.688 E6.07311
G1 X49.162 Y10.888 E6.09108
G1 X49.740 Y11.206 E6.10904
G1 X50.185 Y11.572 E6.12470
G1 X50.658 Y12.148 E6.14497
G1 X50.962 Y12.734 E6.16294
G1 X51.145 Y13.368 E6.18090
G1 X51.201 Y13.962 E6.19714
G1 X51.201 Y17.866 E6.30334
G1 X51.216 Y17.866 E6.30373
G1 X51.216 Y16.124 E6.35111
G1 X51.724 Y15.616 E6.37067
G1 X52.994 Y15.616 E6.40523
G1 X53.294 Y15.731 E6.41398
G1 X56.051 Y18.212 E6.51488
G1 X56.201 Y18.549 E6.52492
G1 X56.201 Y24.418 E6.68460
G1 X56.051 Y24.755 E6.69464
G1 X53.294 Y27.236 E6.79554
G1 X52.994 Y27.351 E6.80429
G1 X51.724 Y27.351 E6.83885
G1 X51.216 Y26.843 E6.85840
G1 X51.216 Y25.101 E6.90579
G1 X51.201 Y25.101 E6.90618
G1 X51.201 Y29.005 E7.01238
G1 X51.128 Y29.682 E7.03092
G1 X50.929 Y30.312 E7.04889
G1 X50.657 Y30.820 E7.06457
G1 X50.234 Y31.345 E7.08292
G1 X49.669 Y31.808 E7.10277
G1 X49.083 Y32.112 E7.12074
G1 X48.449 Y32.295 E7.13870
G1 X47.855 Y32.351 E7.15494
G1 X11.878 Y32.351 E8.13375
G1 X11.540 Y32.717 E8.14729
G1 X10.547 Y33.627 E8.18392
G1 X9.419 Y34.492 E8.22261
G1 X8.251 Y35.235 E8.26027
G1 X7.057 Y35.856 E8.29691
G1 X5.778 Y36.388 E8.33457
G1 X4.422 Y36.815 E8.37326
G1 X3.069 Y37.114 E8.41095
G1 X1.669 Y37.294 E8.44935
G1 X0.352 Y37.351 E8.48521
G1 X-0.982 Y37.295 E8.52154
G1 F1800.000 E7.52154
G92 E0
G1 X0.158 Y-9.807 F7800.000
G1 X-6.446 Y6.670
G1 F1800.000 E1.00000
G1 X-6.559 Y6.684 F540.000 E1.00310
G1 X-38.972 Y6.684 E1.88497
G1 X-39.085 Y6.670 E1.88806
G1 X-41.750 Y5.955 E1.96313
G1 X-41.948 Y5.841 E1.96935
G1 X-43.940 Y3.850 E2.04598
G1 X-44.054 Y3.652 E2.05219
G1 X-44.768 Y0.986 E2.12727
G1 X-44.783 Y0.874 E2.13036
G1 X-44.783 Y-4.466 E2.27562
G1 X-47.855 Y-4.466 E2.35918
G1 X-48.449 Y-4.522 E2.37541
G1 X-49.162 Y-4.738 E2.39569
G1 X-49.740 Y-5.056 E2.41365
G1 X-50.245 Y-5.482 E2.43162
G1 X-50.658 Y-5.998 E2.44959
G1 X-50.929 Y-6.507 E2.46529
G1 X-51.145 Y-7.218 E2.48551
G1 X-51.201 Y-7.812 E2.50174
G1 X-51.201 Y-11.716 E2.60794
G1 X-51.216 Y-11.716 E2.60833
G1 X-51.216 Y-9.974 E2.65571
G1 X-51.724 Y-9.466 E2.67527
G1 X-52.994 Y-9.466 E2.70983
G1 X-53.294 Y-9.581 E2.71858
G1 X-56.051 Y-12.062 E2.81948
G1 X-56.201 Y-12.399 E2.82952
G1 X-56.201 Y-18.268 E2.98920
G1 X-56.051 Y-18.605 E2.99924
G1 X-53.294 Y-21.086 E3.10014
G1 X-52.994 Y-21.201 E3.10889
G1 X-51.724 Y-21.201 E3.14345
G1 X-51.216 Y-20.693 E3.16301
G1 X-51.216 Y-18.951 E3.21039
G1 X-51.201 Y-18.951 E3.21078
G1 X-51.201 Y-22.855 E3.31698
G1 X-51.128 Y-23.532 E3.33552
G1 X-50.962 Y-24.083 E3.35118
G1 X-50.658 Y-24.669 E3.36914
G1 X-50.245 Y-25.185 E3.38711
G1 X-49.740 Y-25.610 E3.40508
G1 X-49.162 Y-25.929 E3.42304
G1 X-48.449 Y-26.145 E3.44331
G1 X-47.855 Y-26.201 E3.45954
G1 X-44.783 Y-26.201 E3.54311
G1 X-44.783 Y-31.540 E3.68836
G1 X-44.768 Y-31.653 E3.69146
G1 X-44.054 Y-34.318 E3.76653
G1 X-43.940 Y-34.516 E3.77275
G1 X-41.948 Y-36.508 E3.84938
G1 X-41.750 Y-36.622 E3.85559
G1 X-39.085 Y-37.336 E3.93066
G1 X-38.972 Y-37.351 E3.93376
G1 X-6.559 Y-37.351 E4.81563
G1 X-6.446 Y-37.336 E4.81873
G1 X-3.780 Y-36.622 E4.89380
G1 X-3.583 Y-36.508 E4.90001
G1 X-1.591 Y-34.516 E4.97664
G1 X-1.477 Y-34.318 E4.98286
G1 X-0.762 Y-31.653 E5.05793
G1 X-0.748 Y-31.184 E5.07070
G1 X-0.314 Y-31.201 E5.08250
G1 X1.031 Y-31.142 E5.11913
G1 X2.441 Y-30.957 E5.15782
G1 X3.792 Y-30.656 E5.19548
G1 X5.112 Y-30.238 E5.23314
G1 X6.356 Y-29.722 E5.26978
G1 X7.591 Y-29.079 E5.30767
G1 X8.783 Y-28.321 E5.34612
G1 X9.881 Y-27.477 E5.38379
G1 X10.874 Y-26.567 E5.42042
G1 X11.211 Y-26.201 E5.43396
G1 X47.188 Y-26.201 E6.41277
G1 X47.782 Y-26.145 E6.42901
G1 X48.495 Y-25.929 E6.44928
G1 X49.073 Y-25.610 E6.46724
G1 X49.518 Y-25.245 E6.48290
G1 X49.991 Y-24.669 E6.50317
G1 X50.295 Y-24.083 E6.52114
G1 X50.478 Y-23.449 E6.53910
G1 X50.534 Y-22.855 E6.55533
G1 X50.534 Y-18.951 E6.66153
G1 X50.549 Y-18.951 E6.66192
G1 X50.549 Y-20.693 E6.70931
G1 X51.057 Y-21.201 E6.72887
G1 X52.327 Y-21.201 E6.76343
G1 X52.628 Y-21.086 E6.77218
G1 X55.384 Y-18.605 E6.87308
G1 X55.534 Y-18.268 E6.88312
G1 X55.534 Y-12.399 E7.04279
G1 X55.384 Y-12.062 E7.05283
G1 X52.628 Y-9.581 E7.15373
G1 X52.327 Y-9.466 E7.16248
G1 X51.057 Y-9.466 E7.19704
G1 X50.549 Y-9.974 E7.21660
G1 X50.549 Y-11.716 E7.26399
G1 X50.534 Y-11.716 E7.26438
G1 X50.534 Y-7.812 E7.37058
G1 X50.462 Y-7.135 E7.38912
G1 X50.262 Y-6.505 E7.40709
G1 X49.990 Y-5.997 E7.42277
G1 X49.567 Y-5.472 E7.44111
G1 X49.002 Y-5.009 E7.46097
G1 X48.416 Y-4.705 E7.47894
G1 X47.782 Y-4.522 E7.49690
G1 X47.188 Y-4.466 E7.51313
G1 X11.211 Y-4.466 E8.49194
G1 X10.874 Y-4.100 E8.50549
G1 X9.881 Y-3.190 E8.54212
G1 X8.783 Y-2.346 E8.57979
G1 X7.591 Y-1.587 E8.61823
G1 X6.356 Y-0.944 E8.65613
G1 X5.076 Y-0.416 E8.69379
G1 X3.792 Y-0.011 E8.73042
G1 X2.441 Y0.290 E8.76809
G1 X1.031 Y0.476 E8.80678
G1 X-0.314 Y0.534 E8.84341
G1 X-0.748 Y0.517 E8.85521
G1 X-0.762 Y0.986 E8.86798
G1 X-1.477 Y3.652 E8.94305
G1 X-1.591 Y3.850 E8.94927
G1 X-3.583 Y5.841 E9.02589
G1 X-3.780 Y5.955 E9.03211
G1 X-6.362 Y6.647 E9.10482
G1 X-6.122 Y7.624 F7800.000
G1 X-4.890 Y7.114 F540.000 E9.14111
G1 X-3.618 Y6.713 E9.17740
G1 X-2.328 Y6.427 E9.21334
G1 X-1.006 Y6.253 E9.24963
G1 X0.340 Y6.194 E9.28626
G1 X1.672 Y6.253 E9.32255
G1 X2.994 Y6.427 E9.35884
G1 X4.284 Y6.713 E9.39479
G1 X5.557 Y7.114 E9.43108
G1 X6.789 Y7.624 E9.46736
G1 X7.972 Y8.239 E9.50365
G1 X9.098 Y8.955 E9.53994
G1 X10.156 Y9.767 E9.57623
G1 X11.140 Y10.668 E9.61252
G1 X11.623 Y11.194 E9.63196
G1 X47.840 Y11.194 E10.61731
G1 X48.392 Y11.250 E10.63238
G1 X48.914 Y11.412 E10.64726
G1 X49.395 Y11.672 E10.66213
G1 X49.796 Y12.001 E10.67624
G1 X50.161 Y12.445 E10.69189
G1 X50.416 Y12.929 E10.70677
G1 X50.572 Y13.453 E10.72164
G1 X50.623 Y13.976 E10.73595
G1 X50.623 Y18.444 E10.85750
G1 X51.794 Y18.444 E10.88937
G1 X51.794 Y16.364 E10.94598
G1 X51.964 Y16.194 E10.95250
G1 X52.887 Y16.194 E10.97762
G1 X52.987 Y16.232 E10.98054
G1 X55.573 Y18.559 E11.07517
G1 X55.623 Y18.672 E11.07852
G1 X55.623 Y24.295 E11.23150
G1 X55.573 Y24.407 E11.23485
G1 X52.987 Y26.734 E11.32949
G1 X52.887 Y26.773 E11.33241
G1 X51.964 Y26.773 E11.35753
G1 X51.794 Y26.603 E11.36405
G1 X51.794 Y24.523 E11.42065
G1 X50.623 Y24.523 E11.45252
G1 X50.623 Y28.990 E11.57408
G1 X50.572 Y29.514 E11.58838
G1 X50.416 Y30.038 E11.60326
G1 X50.144 Y30.546 E11.61893
G1 X49.786 Y30.974 E11.63412
G1 X49.371 Y31.311 E11.64866
G1 X48.914 Y31.555 E11.66276
G1 X48.392 Y31.716 E11.67764
G1 X47.840 Y31.773 E11.69271
G1 X11.623 Y31.773 E12.67806
G1 X11.140 Y32.299 E12.69750
G1 X10.166 Y33.192 E12.73345
G1 X9.108 Y34.004 E12.76973
G1 X7.983 Y34.721 E12.80602
G1 X6.789 Y35.343 E12.84265
G1 X5.557 Y35.853 E12.87894
G1 X4.284 Y36.253 E12.91523
G1 X2.982 Y36.541 E12.95153
G1 X1.644 Y36.715 E12.98824
G1 X0.340 Y36.773 E13.02375
G1 X-0.993 Y36.715 E13.06004
G1 X-2.328 Y36.539 E13.09667
G1 X-3.630 Y36.250 E13.13296
G1 X-4.902 Y35.848 E13.16925
G1 X-6.122 Y35.343 E13.20520
G1 X-7.317 Y34.721 E13.24183
G1 X-8.441 Y34.004 E13.27812
G1 X-9.499 Y33.192 E13.31440
G1 X-10.473 Y32.299 E13.35035
G1 X-10.956 Y31.773 E13.36979
G1 X-47.174 Y31.773 E14.35514
G1 X-47.725 Y31.716 E14.37021
G1 X-48.247 Y31.555 E14.38509
G1 X-48.728 Y31.295 E14.39996
G1 X-49.129 Y30.966 E14.41407
G1 X-49.494 Y30.521 E14.42972
G1 X-49.749 Y30.038 E14.44460
G1 X-49.905 Y29.514 E14.45947
G1 X-49.956 Y28.990 E14.47378
G1 X-49.956 Y24.523 E14.59533
G1 X-51.127 Y24.523 E14.62720
G1 X-51.127 Y26.603 E14.68381
G1 X-51.297 Y26.773 E14.69033
G1 X-52.220 Y26.773 E14.71545
G1 X-52.320 Y26.734 E14.71837
G1 X-54.906 Y24.407 E14.81301
G1 X-54.956 Y24.295 E14.81635
G1 X-54.956 Y18.672 E14.96933
G1 X-54.906 Y18.559 E14.97268
G1 X-52.320 Y16.232 E15.06732
G1 X-52.220 Y16.194 E15.07024
G1 X-51.297 Y16.194 E15.09536
G1 X-51.127 Y16.364 E15.10188
G1 X-51.127 Y18.444 E15.15848
G1 X-49.956 Y18.444 E15.19036
G1 X-49.956 Y13.976 E15.31191
G1 X-49.900 Y13.425 E15.32698
G1 X-49.738 Y12.903 E15.34186
G1 X-49.478 Y12.422 E15.35673
G1 X-49.149 Y12.021 E15.37084
G1 X-48.705 Y11.656 E15.38649
G1 X-48.221 Y11.401 E15.40137
G1 X-47.697 Y11.245 E15.41624
G1 X-47.174 Y11.194 E15.43055
G1 X-10.956 Y11.194 E16.41590
G1 X-10.473 Y10.668 E16.43534
G1 X-9.499 Y9.775 E16.47128
G1 X-8.441 Y8.963 E16.50757
G1 X-7.317 Y8.246 E16.54386
G1 X-6.200 Y7.663 E16.57813
G1 X-6.559 Y6.101 F7800.000
G1 X-38.934 Y6.106 F540.000 E17.45896
G1 X-41.527 Y5.416 E17.53195
G1 X-41.593 Y5.378 E17.53402
G1 X-43.477 Y3.494 E17.60651
G1 X-43.515 Y3.428 E17.60858
G1 X-44.205 Y0.836 E17.68157
G1 X-44.205 Y-5.044 E17.84154
G1 X-47.840 Y-5.044 E17.94045
G1 X-48.364 Y-5.095 E17.95476
G1 X-48.914 Y-5.262 E17.97040
G1 X-49.395 Y-5.522 E17.98528
G1 X-49.816 Y-5.871 E18.00016
G1 X-50.161 Y-6.296 E18.01504
G1 X-50.406 Y-6.754 E18.02919
G1 X-50.572 Y-7.303 E18.04478
G1 X-50.623 Y-7.826 E18.05909
G1 X-50.623 Y-12.294 E18.18064
G1 X-51.794 Y-12.294 E18.21252
G1 X-51.794 Y-10.214 E18.26912
G1 X-51.964 Y-10.044 E18.27564
G1 X-52.887 Y-10.044 E18.30076
G1 X-52.987 Y-10.082 E18.30368
G1 X-55.573 Y-12.409 E18.39832
G1 X-55.623 Y-12.522 E18.40166
G1 X-55.623 Y-18.145 E18.55465
G1 X-55.573 Y-18.257 E18.55799
G1 X-52.987 Y-20.584 E18.65263
G1 X-52.887 Y-20.623 E18.65555
G1 X-51.964 Y-20.623 E18.68067
G1 X-51.794 Y-20.453 E18.68719
G1 X-51.794 Y-18.373 E18.74380
G1 X-50.623 Y-18.373 E18.77567
G1 X-50.623 Y-22.840 E18.89722
G1 X-50.572 Y-23.364 E18.91153
G1 X-50.405 Y-23.914 E18.92717
G1 X-50.145 Y-24.395 E18.94204
G1 X-49.816 Y-24.796 E18.95616
G1 X-49.395 Y-25.145 E18.97104
G1 X-48.914 Y-25.405 E18.98591
G1 X-48.364 Y-25.572 E19.00156
G1 X-47.840 Y-25.623 E19.01586
G1 X-44.205 Y-25.623 E19.11478
G1 X-44.200 Y-31.540 E19.27577
G1 X-43.515 Y-34.095 E19.34773
G1 X-43.477 Y-34.161 E19.34981
G1 X-41.593 Y-36.045 E19.42229
G1 X-41.527 Y-36.083 E19.42436
G1 X-38.934 Y-36.773 E19.49735
G1 X-6.559 Y-36.768 E20.37818
G1 X-4.004 Y-36.083 E20.45015
G1 X-3.938 Y-36.045 E20.45222
G1 X-2.054 Y-34.161 E20.52471
G1 X-2.016 Y-34.095 E20.52678
G1 X-1.331 Y-31.540 E20.59875
G1 X-1.326 Y-30.580 E20.62488
G1 X-0.327 Y-30.623 E20.65209
G1 X0.993 Y-30.565 E20.68803
G1 X2.315 Y-30.391 E20.72432
G1 X3.630 Y-30.100 E20.76095
G1 X4.902 Y-29.698 E20.79724
G1 X6.122 Y-29.193 E20.83319
G1 X7.281 Y-28.590 E20.86871
G1 X8.431 Y-27.861 E20.90575
G1 X9.499 Y-27.042 E20.94239
G1 X10.473 Y-26.149 E20.97834
G1 X10.956 Y-25.623 E20.99778
G1 X47.174 Y-25.623 E21.98313
G1 X47.697 Y-25.572 E21.99743
G1 X48.221 Y-25.416 E22.01231
G1 X48.728 Y-25.145 E22.02795
G1 X49.129 Y-24.816 E22.04206
G1 X49.478 Y-24.395 E22.05694
G1 X49.749 Y-23.888 E22.07259
G1 X49.905 Y-23.364 E22.08746
G1 X49.956 Y-22.840 E22.10176
G1 X49.956 Y-18.373 E22.22332
G1 X51.127 Y-18.373 E22.25519
G1 X51.127 Y-20.453 E22.31180
G1 X51.297 Y-20.623 E22.31832
G1 X52.220 Y-20.623 E22.34344
G1 X52.320 Y-20.584 E22.34635
G1 X54.906 Y-18.257 E22.44099
G1 X54.956 Y-18.145 E22.44434
G1 X54.956 Y-12.522 E22.59732
G1 X54.906 Y-12.409 E22.60067
G1 X52.320 Y-10.082 E22.69531
G1 X52.220 Y-10.044 E22.69822
G1 X51.297 Y-10.044 E22.72335
G1 X51.127 Y-10.214 E22.72987
G1 X51.127 Y-12.294 E22.78647
