; generated by Slic3r 0.9.9 on 2013-04-27 at 13:46:44

; layer_height = 0.3
; perimeters = 2
; top_solid_layers = 3
; bottom_solid_layers = 3
; fill_density = 0.1
; perimeter_speed = 30
; infill_speed = 60
; travel_speed = 130
; nozzle_diameter = 0.5
; filament_diameter = 2.85
; extrusion_multiplier = 1
; perimeters extrusion width = 0.70mm
; infill extrusion width = 0.70mm
; solid infill extrusion width = 0.70mm
; top infill extrusion width = 0.70mm
; first layer extrusion width = 0.60mm

G21 ; set units to millimeters
M107
M104 S0
M83
M140 S80
G28
G1Y98F9000
M190 S80
G1X5Y98Z150F9000
M104 S210
G1X5Y98Z1F9000
G1Z0.05
M109 S210
G1Z5
G1X15
;G1E5F50
G90 ; use absolute coordinates
G92 E0
M82 ; use absolute distances for extrusion
G1 F1800.000 E-1.00000
G92 E0
G1 Z0.300 F7800.000
G1 X0.610 Y42.090
G1 F1800.000 E1.00000
G1 X-0.000 Y42.120 F540.000 E1.01662
G1 X-3.400 Y41.970 E1.10921
G1 X-3.950 Y41.920 E1.12423
G1 X-7.030 Y41.520 E1.20873
G1 X-7.630 Y41.420 E1.22528
G1 X-10.650 Y40.740 E1.30950
G1 X-11.170 Y40.600 E1.32416
G1 X-14.130 Y39.670 E1.40857
G1 X-14.670 Y39.470 E1.42424
G1 X-17.530 Y38.290 E1.50841
G1 X-18.070 Y38.040 E1.52460
G1 X-20.820 Y36.600 E1.60905
G1 X-21.290 Y36.330 E1.62380
G1 X-23.910 Y34.670 E1.70819
G1 X-24.400 Y34.330 E1.72441
G1 X-26.860 Y32.440 E1.80881
G1 X-27.280 Y32.080 E1.82386
G1 X-29.570 Y29.990 E1.90821
G1 X-30.000 Y29.560 E1.92476
G1 X-32.090 Y27.270 E2.00911
G1 X-32.450 Y26.850 E2.02416
G1 X-34.340 Y24.390 E2.10856
G1 X-34.670 Y23.910 E2.12441
G1 X-36.330 Y21.300 E2.20856
G1 X-36.610 Y20.820 E2.22368
G1 X-38.050 Y18.070 E2.30813
G1 X-38.300 Y17.520 E2.32457
G1 X-39.480 Y14.650 E2.40900
G1 X-39.680 Y14.120 E2.42441
G1 X-40.610 Y11.160 E2.50882
G1 X-40.750 Y10.640 E2.52347
G1 X-41.430 Y7.620 E2.60769
G1 X-41.530 Y7.020 E2.62424
G1 X-41.930 Y3.940 E2.70874
G1 X-41.980 Y3.370 E2.72431
G1 X-42.110 Y0.280 E2.80845
G1 X-42.110 Y-0.280 E2.82369
G1 X-41.980 Y-3.380 E2.90810
G1 X-41.930 Y-3.950 E2.92367
G1 X-41.530 Y-7.030 E3.00817
G1 X-41.430 Y-7.630 E3.02472
G1 X-40.750 Y-10.650 E3.10894
G1 X-40.610 Y-11.170 E3.12359
G1 X-39.680 Y-14.130 E3.20801
G1 X-39.480 Y-14.670 E3.22367
G1 X-38.300 Y-17.530 E3.30785
G1 X-38.050 Y-18.070 E3.32404
G1 X-36.610 Y-20.820 E3.40849
G1 X-36.340 Y-21.290 E3.42324
G1 X-34.660 Y-23.940 E3.50860
G1 X-34.310 Y-24.430 E3.52499
G1 X-32.440 Y-26.860 E3.60841
G1 X-32.090 Y-27.280 E3.62328
G1 X-30.000 Y-29.570 E3.70763
G1 X-29.570 Y-30.000 E3.72418
G1 X-27.280 Y-32.090 E3.80853
G1 X-26.860 Y-32.450 E3.82358
G1 X-24.400 Y-34.340 E3.90798
G1 X-23.910 Y-34.680 E3.92420
G1 X-21.290 Y-36.340 E4.00859
G1 X-20.820 Y-36.610 E4.02334
G1 X-18.070 Y-38.050 E4.10779
G1 X-17.530 Y-38.300 E4.12398
G1 X-14.670 Y-39.480 E4.20815
G1 X-14.130 Y-39.680 E4.22382
G1 X-11.170 Y-40.610 E4.30823
G1 X-10.650 Y-40.750 E4.32288
G1 X-7.630 Y-41.430 E4.40711
G1 X-7.030 Y-41.530 E4.42365
G1 X-3.950 Y-41.930 E4.50816
G1 X-3.380 Y-41.980 E4.52372
G1 X-0.280 Y-42.110 E4.60814
G1 X0.280 Y-42.110 E4.62337
G1 X3.370 Y-41.980 E4.70752
G1 X3.940 Y-41.930 E4.72308
G1 X7.020 Y-41.530 E4.80758
G1 X7.620 Y-41.430 E4.82413
G1 X10.640 Y-40.750 E4.90835
G1 X11.160 Y-40.610 E4.92300
G1 X14.150 Y-39.670 E5.00828
G1 X14.690 Y-39.470 E5.02394
G1 X17.530 Y-38.300 E5.10751
G1 X18.070 Y-38.050 E5.12370
G1 X20.820 Y-36.610 E5.20816
G1 X21.300 Y-36.330 E5.22327
G1 X23.910 Y-34.670 E5.30743
G1 X24.390 Y-34.340 E5.32328
G1 X26.850 Y-32.450 E5.40768
G1 X27.270 Y-32.090 E5.42273
G1 X29.560 Y-30.000 E5.50708
G1 X29.990 Y-29.570 E5.52362
G1 X32.080 Y-27.280 E5.60797
G1 X32.440 Y-26.860 E5.62302
G1 X34.330 Y-24.400 E5.70742
G1 X34.670 Y-23.910 E5.72365
G1 X36.330 Y-21.290 E5.80803
G1 X36.600 Y-20.820 E5.82278
G1 X38.040 Y-18.070 E5.90724
G1 X38.290 Y-17.530 E5.92343
G1 X39.470 Y-14.670 E6.00760
G1 X39.670 Y-14.130 E6.02327
G1 X40.600 Y-11.170 E6.10768
G1 X40.740 Y-10.650 E6.12233
G1 X41.420 Y-7.630 E6.20655
G1 X41.520 Y-7.030 E6.22310
G1 X41.920 Y-3.950 E6.30760
G1 X41.970 Y-3.400 E6.32263
G1 X42.110 Y-0.300 E6.40705
G1 X42.110 Y0.300 E6.42338
G1 X41.970 Y3.390 E6.50753
G1 X41.920 Y3.940 E6.52256
G1 X41.520 Y7.020 E6.60706
G1 X41.420 Y7.620 E6.62361
G1 X40.740 Y10.640 E6.70783
G1 X40.600 Y11.160 E6.72248
G1 X39.670 Y14.120 E6.80689
G1 X39.470 Y14.660 E6.82256
G1 X38.300 Y17.490 E6.90587
G1 X38.060 Y18.010 E6.92146
G1 X36.610 Y20.800 E7.00700
G1 X36.320 Y21.300 E7.02273
G1 X34.660 Y23.910 E7.10688
G1 X34.330 Y24.390 E7.12273
G1 X32.440 Y26.850 E7.20713
G1 X32.080 Y27.270 E7.22218
G1 X29.990 Y29.560 E7.30653
G1 X29.560 Y29.990 E7.32308
G1 X27.270 Y32.080 E7.40743
G1 X26.850 Y32.440 E7.42248
G1 X24.390 Y34.330 E7.50688
G1 X23.910 Y34.660 E7.52272
G1 X21.300 Y36.320 E7.60688
G1 X20.820 Y36.600 E7.62200
G1 X18.070 Y38.040 E7.70645
G1 X17.520 Y38.290 E7.72289
G1 X14.650 Y39.470 E7.80731
G1 X14.120 Y39.670 E7.82273
G1 X11.160 Y40.600 E7.90714
G1 X10.640 Y40.740 E7.92179
G1 X7.620 Y41.420 E8.00601
G1 X7.020 Y41.520 E8.02256
G1 X3.940 Y41.920 E8.10706
G1 X3.370 Y41.970 E8.12263
G1 X0.697 Y42.088 E8.19543
G1 F1800.000 E7.19543
G92 E0
G1 X0.074 Y36.406 F7800.000
G1 F1800.000 E1.00000
G1 X-3.154 Y36.271 F540.000 E1.08790
G1 X-6.304 Y35.858 E1.17431
G1 X-9.405 Y35.172 E1.26072
G1 X-12.470 Y34.206 E1.34817
G1 X-15.404 Y32.989 E1.43458
G1 X-18.220 Y31.521 E1.52099
G1 X-20.898 Y29.813 E1.60741
G1 X-23.417 Y27.878 E1.69382
G1 X-25.731 Y25.758 E1.77920
G1 X-27.878 Y23.417 E1.86562
G1 X-29.835 Y20.867 E1.95306
G1 X-31.540 Y18.188 E2.03947
G1 X-33.005 Y15.369 E2.12589
G1 X-34.219 Y12.434 E2.21230
G1 X-35.172 Y9.405 E2.29871
G1 X-35.852 Y6.341 E2.38410
G1 X-36.268 Y3.192 E2.47051
G1 X-36.408 Y0.019 E2.55692
G1 X-36.268 Y-3.192 E2.64437
G1 X-35.852 Y-6.341 E2.73078
G1 X-35.163 Y-9.441 E2.81719
G1 X-34.206 Y-12.470 E2.90361
G1 X-32.989 Y-15.404 E2.99002
G1 X-31.520 Y-18.221 E3.07645
G1 X-29.812 Y-20.896 E3.16280
G1 X-27.902 Y-23.388 E3.24823
G1 X-25.758 Y-25.731 E3.33464
G1 X-23.417 Y-27.878 E3.42105
G1 X-20.867 Y-29.835 E3.50850
G1 X-18.188 Y-31.540 E3.59491
G1 X-15.369 Y-33.005 E3.68132
G1 X-12.435 Y-34.219 E3.76773
G1 X-9.405 Y-35.172 E3.85415
G1 X-6.341 Y-35.852 E3.93953
G1 X-3.192 Y-36.268 E4.02595
G1 X-0.019 Y-36.408 E4.11236
G1 X3.192 Y-36.268 E4.19980
G1 X6.341 Y-35.852 E4.28622
G1 X9.442 Y-35.162 E4.37265
G1 X12.503 Y-34.192 E4.46002
G1 X15.404 Y-32.989 E4.54545
G1 X18.188 Y-31.540 E4.63084
G1 X20.867 Y-29.835 E4.71725
G1 X23.388 Y-27.902 E4.80367
G1 X25.731 Y-25.758 E4.89008
G1 X27.878 Y-23.417 E4.97649
G1 X29.813 Y-20.898 E5.06290
G1 X31.540 Y-18.188 E5.15035
G1 X33.005 Y-15.369 E5.23676
G1 X34.219 Y-12.435 E5.32317
G1 X35.172 Y-9.405 E5.40959
G1 X35.852 Y-6.341 E5.49497
G1 X36.268 Y-3.192 E5.58138
G1 X36.408 Y-0.019 E5.66780
G1 X36.268 Y3.192 E5.75524
G1 X35.852 Y6.341 E5.84165
G1 X35.163 Y9.441 E5.92807
G1 X34.206 Y12.470 E6.01448
G1 X33.003 Y15.370 E6.09990
G1 X31.521 Y18.220 E6.18730
G1 X29.813 Y20.898 E6.27372
G1 X27.878 Y23.417 E6.36013
G1 X25.758 Y25.731 E6.44551
G1 X23.417 Y27.878 E6.53193
G1 X20.867 Y29.835 E6.61937
G1 X18.188 Y31.540 E6.70578
G1 X15.369 Y33.005 E6.79220
G1 X12.435 Y34.219 E6.87861
G1 X9.405 Y35.172 E6.96502
G1 X6.304 Y35.858 E7.05144
G1 X3.192 Y36.268 E7.13682
G1 X0.160 Y36.402 E7.21939
G1 X0.048 Y35.828 F7800.000
G1 X-3.116 Y35.694 F540.000 E7.30557
G1 X-6.215 Y35.286 E7.39061
G1 X-9.279 Y34.607 E7.47599
G1 X-12.260 Y33.666 E7.56103
G1 X-15.148 Y32.470 E7.64607
G1 X-17.920 Y31.026 E7.73111
G1 X-20.556 Y29.346 E7.81615
G1 X-23.036 Y27.443 E7.90119
G1 X-25.331 Y25.340 E7.98589
G1 X-27.443 Y23.036 E8.07093
G1 X-29.353 Y20.546 E8.15631
G1 X-31.032 Y17.909 E8.24135
G1 X-32.475 Y15.136 E8.32639
G1 X-33.671 Y12.248 E8.41143
G1 X-34.610 Y9.267 E8.49647
G1 X-35.284 Y6.228 E8.58117
G1 X-35.693 Y3.129 E8.66621
G1 X-35.829 Y0.006 E8.75125
G1 X-35.693 Y-3.129 E8.83663
G1 X-35.284 Y-6.228 E8.92167
G1 X-34.607 Y-9.279 E9.00671
G1 X-33.666 Y-12.260 E9.09176
G1 X-32.470 Y-15.148 E9.17679
G1 X-31.026 Y-17.920 E9.26184
G1 X-29.324 Y-20.585 E9.34785
G1 X-27.443 Y-23.036 E9.43191
G1 X-25.340 Y-25.331 E9.51661
G1 X-23.036 Y-27.443 E9.60165
G1 X-20.546 Y-29.353 E9.68703
G1 X-17.909 Y-31.032 E9.77207
G1 X-15.136 Y-32.475 E9.85711
G1 X-12.249 Y-33.671 E9.94215
G1 X-9.267 Y-34.610 E10.02719
G1 X-6.228 Y-35.284 E10.11189
G1 X-3.129 Y-35.693 E10.19693
G1 X-0.006 Y-35.829 E10.28197
G1 X3.129 Y-35.693 E10.36735
G1 X6.228 Y-35.284 E10.45239
G1 X9.280 Y-34.607 E10.53744
G1 X12.293 Y-33.653 E10.62345
G1 X15.148 Y-32.470 E10.70751
G1 X17.909 Y-31.032 E10.79221
G1 X20.546 Y-29.353 E10.87725
G1 X23.026 Y-27.451 E10.96229
G1 X25.331 Y-25.340 E11.04733
G1 X27.443 Y-23.036 E11.13237
G1 X29.353 Y-20.546 E11.21775
G1 X31.032 Y-17.909 E11.30279
G1 X32.475 Y-15.136 E11.38783
G1 X33.671 Y-12.249 E11.47287
G1 X34.610 Y-9.267 E11.55791
G1 X35.284 Y-6.228 E11.64261
G1 X35.693 Y-3.129 E11.72765
G1 X35.829 Y-0.006 E11.81269
G1 X35.693 Y3.129 E11.89807
G1 X35.284 Y6.228 E11.98311
G1 X34.607 Y9.279 E12.06815
G1 X33.666 Y12.260 E12.15319
G1 X32.484 Y15.115 E12.23725
G1 X31.026 Y17.920 E12.32327
G1 X29.346 Y20.556 E12.40831
G1 X27.443 Y23.036 E12.49335
G1 X25.340 Y25.331 E12.57805
G1 X23.036 Y27.443 E12.66309
G1 X20.546 Y29.353 E12.74847
G1 X17.909 Y31.032 E12.83351
G1 X15.136 Y32.475 E12.91855
G1 X12.249 Y33.671 E13.00359
G1 X9.267 Y34.610 E13.08863
G1 X6.215 Y35.286 E13.17367
G1 X3.129 Y35.693 E13.25837
G1 X0.135 Y35.824 E13.33990
G1 X0.023 Y35.250 F7800.000
G1 X-3.072 Y35.116 F540.000 E13.42420
G1 X-6.121 Y34.715 E13.50786
G1 X-9.124 Y34.050 E13.59153
G1 X-12.056 Y33.125 E13.67520
G1 X-14.898 Y31.948 E13.75886
G1 X-17.625 Y30.528 E13.84253
G1 X-20.219 Y28.876 E13.92620
G1 X-22.659 Y27.003 E14.00986
G1 X-24.926 Y24.926 E14.09353
G1 X-27.003 Y22.659 E14.17719
G1 X-28.876 Y20.219 E14.26086
G1 X-30.528 Y17.625 E14.34453
G1 X-31.948 Y14.898 E14.42819
G1 X-33.125 Y12.056 E14.51186
G1 X-34.050 Y9.124 E14.59553
G1 X-34.715 Y6.121 E14.67919
G1 X-35.116 Y3.072 E14.76286
G1 X-35.251 Y-0.000 E14.84653
G1 X-35.116 Y-3.072 E14.93019
G1 X-34.715 Y-6.121 E15.01386
G1 X-34.050 Y-9.124 E15.09753
G1 X-33.125 Y-12.056 E15.18119
G1 X-31.948 Y-14.898 E15.26486
G1 X-30.528 Y-17.625 E15.34853
G1 X-28.862 Y-20.237 E15.43282
G1 X-27.003 Y-22.659 E15.51586
G1 X-24.926 Y-24.926 E15.59952
G1 X-22.659 Y-27.003 E15.68319
G1 X-20.219 Y-28.876 E15.76686
G1 X-17.625 Y-30.528 E15.85052
G1 X-14.898 Y-31.948 E15.93419
G1 X-12.056 Y-33.125 E16.01785
G1 X-9.124 Y-34.050 E16.10152
G1 X-6.121 Y-34.715 E16.18519
G1 X-3.072 Y-35.116 E16.26885
G1 X-0.000 Y-35.251 E16.35252
G1 X3.072 Y-35.116 E16.43619
G1 X6.121 Y-34.715 E16.51985
G1 X9.124 Y-34.050 E16.60352
G1 X12.078 Y-33.116 E16.68781
G1 X14.898 Y-31.948 E16.77085
G1 X17.625 Y-30.528 E16.85452
G1 X20.219 Y-28.876 E16.93818
G1 X22.659 Y-27.003 E17.02185
G1 X24.926 Y-24.926 E17.10551
G1 X27.003 Y-22.659 E17.18918
G1 X28.876 Y-20.219 E17.27285
G1 X30.528 Y-17.625 E17.35651
G1 X31.948 Y-14.898 E17.44018
G1 X33.125 Y-12.056 E17.52385
G1 X34.050 Y-9.124 E17.60751
G1 X34.715 Y-6.121 E17.69118
G1 X35.116 Y-3.072 E17.77485
G1 X35.251 Y-0.000 E17.85851
G1 X35.116 Y3.072 E17.94218
G1 X34.715 Y6.121 E18.02585
G1 X34.050 Y9.124 E18.10951
G1 X33.125 Y12.056 E18.19318
G1 X31.957 Y14.876 E18.27621
G1 X30.528 Y17.625 E18.36051
G1 X28.876 Y20.219 E18.44418
G1 X27.003 Y22.659 E18.52784
G1 X24.926 Y24.926 E18.61151
G1 X22.659 Y27.003 E18.69517
G1 X20.219 Y28.876 E18.77884
G1 X17.625 Y30.528 E18.86251
G1 X14.898 Y31.948 E18.94617
G1 X12.056 Y33.125 E19.02984
G1 X9.124 Y34.050 E19.11351
G1 X6.121 Y34.715 E19.19717
G1 X3.072 Y35.116 E19.28084
G1 X0.110 Y35.246 E19.36152
G1 X-0.259 Y34.745 F7800.000
G1 X0.003 Y35.039
G1 X3.553 Y17.057
G1 X4.883 Y14.359
G1 X24.767 Y-24.783
G1 X22.286 Y-26.560
G1 X24.516 Y-24.516 F540.000 E19.44381
G1 X26.560 Y-22.286 E19.52610
G1 X28.401 Y-19.887 E19.60839
G1 X30.026 Y-17.336 E19.69068
G1 X31.423 Y-14.653 E19.77297
G1 X32.581 Y-11.858 E19.85526
G1 X33.490 Y-8.974 E19.93756
G1 X34.145 Y-6.021 E20.01985
G1 X34.540 Y-3.022 E20.10214
G1 X34.672 Y-0.000 E20.18443
G1 X34.540 Y3.022 E20.26673
G1 X34.145 Y6.021 E20.34902
G1 X33.490 Y8.974 E20.43131
G1 X32.581 Y11.858 E20.51360
G1 X31.423 Y14.653 E20.59589
G1 X30.026 Y17.336 E20.67818
G1 X28.401 Y19.887 E20.76048
G1 X26.560 Y22.286 E20.84277
G1 X24.516 Y24.516 E20.92506
G1 X22.286 Y26.560 E21.00735
G1 X19.887 Y28.401 E21.08964
G1 X17.336 Y30.026 E21.17194
G1 X14.653 Y31.423 E21.25423
G1 X11.858 Y32.581 E21.33652
G1 X8.974 Y33.490 E21.41881
G1 X6.021 Y34.145 E21.50110
G1 X3.022 Y34.540 E21.58340
G1 X0.000 Y34.672 E21.66569
G1 X-3.022 Y34.540 E21.74798
G1 X-6.021 Y34.145 E21.83027
G1 X-8.974 Y33.490 E21.91256
G1 X-11.858 Y32.581 E21.99486
G1 X-14.653 Y31.423 E22.07715
G1 X-17.336 Y30.026 E22.15944
G1 X-19.887 Y28.401 E22.24173
G1 X-22.286 Y26.560 E22.32402
G1 X-24.516 Y24.516 E22.40632
G1 X-26.560 Y22.286 E22.48861
G1 X-28.401 Y19.887 E22.57090
G1 X-30.026 Y17.336 E22.65319
G1 X-31.423 Y14.653 E22.73548
G1 X-32.581 Y11.858 E22.81778
G1 X-33.490 Y8.974 E22.90007
G1 X-34.145 Y6.021 E22.98236
G1 X-34.540 Y3.022 E23.06465
G1 X-34.672 Y-0.000 E23.14694
G1 X-34.540 Y-3.022 E23.22924
G1 X-34.145 Y-6.021 E23.31153
G1 X-33.490 Y-8.974 E23.39382
G1 X-32.581 Y-11.858 E23.47611
G1 X-31.423 Y-14.653 E23.55840
G1 X-30.026 Y-17.336 E23.64070
G1 X-28.401 Y-19.887 E23.72299
G1 X-26.560 Y-22.286 E23.80528
G1 X-24.516 Y-24.516 E23.88757
G1 X-22.286 Y-26.560 E23.96986
G1 X-19.887 Y-28.401 E24.05216
G1 X-17.336 Y-30.026 E24.13445
G1 X-14.653 Y-31.423 E24.21674
G1 X-11.858 Y-32.581 E24.29903
G1 X-8.974 Y-33.490 E24.38132
G1 X-6.021 Y-34.145 E24.46361
G1 X-3.022 Y-34.540 E24.54591
G1 X-0.000 Y-34.672 E24.62820
G1 X3.022 Y-34.540 E24.71049
G1 X6.021 Y-34.145 E24.79278
G1 X8.974 Y-33.490 E24.87507
G1 X11.858 Y-32.581 E24.95737
G1 X14.653 Y-31.423 E25.03966
G1 X17.336 Y-30.026 E25.12195
G1 X19.887 Y-28.401 E25.20424
G1 X22.218 Y-26.613 E25.28417
G1 X20.105 Y-28.695 F7800.000
G1 X18.644 Y-18.046
G1 X14.877 Y-2.950
G1 X14.290 Y0.000
G1 X12.995 Y11.605
G1 X12.940 Y11.813
G1 X15.563 Y13.106 F540.000 E25.36374
G1 X17.491 Y15.305 E25.44330
G1 X18.431 Y18.074 E25.52286
G1 X18.240 Y20.992 E25.60243
G1 X16.946 Y23.615 E25.68199
G1 X14.747 Y25.543 E25.76155
G1 X11.978 Y26.483 E25.84111
G1 X9.060 Y26.292 E25.92067
G1 X6.437 Y24.999 E26.00024
G1 X4.509 Y22.800 E26.07980
G1 X3.569 Y20.031 E26.15936
G1 X3.760 Y17.113 E26.23892
G1 X5.054 Y14.490 E26.31849
G1 X7.253 Y12.562 E26.39805
G1 X10.022 Y11.622 E26.47761
G1 X12.853 Y11.807 E26.55481
G1 X13.375 Y11.432 F7800.000
G1 X13.342 Y11.366
G1 X15.922 Y12.638 F540.000 E26.63308
G1 X18.002 Y15.010 E26.71890
G1 X19.016 Y17.997 E26.80472
G1 X18.809 Y21.145 E26.89055
G1 X17.414 Y23.974 E26.97637
G1 X15.042 Y26.054 E27.06220
G1 X12.055 Y27.068 E27.14802
G1 X8.907 Y26.862 E27.23385
G1 X6.078 Y25.467 E27.31967
G1 X3.998 Y23.095 E27.40549
G1 X2.984 Y20.108 E27.49132
G1 X3.191 Y16.960 E27.57714
G1 X4.586 Y14.131 E27.66297
G1 X6.958 Y12.051 E27.74879
G1 X9.945 Y11.037 E27.83461
G1 X13.092 Y11.243 E27.92044
G1 X13.264 Y11.328 E27.92564
G1 X16.836 Y5.390 F7800.000
G1 X16.700 Y5.300 F540.000 E27.93007
G1 X15.076 Y2.868 E28.00963
G1 X14.505 Y0.000 E28.08920
G1 X15.076 Y-2.868 E28.16876
G1 X16.700 Y-5.300 E28.24832
G1 X19.132 Y-6.924 E28.32788
G1 X22.000 Y-7.495 E28.40745
G1 X24.868 Y-6.924 E28.48701
G1 X27.300 Y-5.300 E28.56657
G1 X28.924 Y-2.868 E28.64613
G1 X29.495 Y0.000 E28.72570
G1 X28.924 Y2.868 E28.80526
G1 X27.300 Y5.300 E28.88482
G1 X24.868 Y6.924 E28.96438
G1 X22.000 Y7.495 E29.04395
G1 X19.132 Y6.924 E29.12351
G1 X16.908 Y5.438 E29.19628
G1 X16.690 Y5.462 F7800.000
G1 X16.514 Y5.871
G1 X16.283 Y5.717 F540.000 E29.20384
G1 X14.531 Y3.094 E29.28966
G1 X13.915 Y0.000 E29.37549
G1 X14.531 Y-3.094 E29.46131
G1 X16.283 Y-5.717 E29.54714
G1 X18.906 Y-7.469 E29.63296
G1 X22.000 Y-8.085 E29.71879
G1 X25.094 Y-7.469 E29.80461
G1 X27.717 Y-5.717 E29.89044
G1 X29.469 Y-3.094 E29.97626
G1 X30.085 Y0.000 E30.06208
G1 X29.469 Y3.094 E30.14791
G1 X27.717 Y5.717 E30.23373
G1 X25.094 Y7.469 E30.31956
G1 X22.000 Y8.085 E30.40538
G1 X18.906 Y7.469 E30.49120
G1 X16.586 Y5.919 E30.56711
G1 X16.550 Y5.455 F7800.000
G1 X5.600 Y-5.600
G1 X12.995 Y-11.605
G1 X12.940 Y-11.813
