; generated by Slic3r 0.9.9 on 2013-05-03 at 14:39:48

; layer_height = 0.3
; perimeters = 2
; top_solid_layers = 3
; bottom_solid_layers = 3
; fill_density = 0.15
; perimeter_speed = 30
; infill_speed = 60
; travel_speed = 130
; nozzle_diameter = 0.5
; filament_diameter = 2.85
; extrusion_multiplier = 1
; perimeters extrusion width = 0.70mm
; infill extrusion width = 0.70mm
; solid infill extrusion width = 0.70mm
; top infill extrusion width = 0.70mm
; first layer extrusion width = 0.60mm

G21 ; set units to millimeters
M107
M104 S0
M83
M140 S80
G28
G1Y98F9000
M190 S80
G1X5Y98Z150F9000
M104 S210
G1X5Y98Z1F9000
G1Z0.05
M109 S210
G1Z5
G1X15
;G1E5F50
G90 ; use absolute coordinates
G92 E0
M82 ; use absolute distances for extrusion
G1 F1800.000 E-1.00000
G92 E0
G1 Z0.300 F7800.000
G1 X2.000 Y-27.590
G1 F1800.000 E1.00000
G1 X48.680 Y-22.600 F540.000 E2.27724
G1 X49.390 Y-22.490 E2.29679
G1 X49.630 Y-22.430 E2.30352
G1 X50.600 Y-22.140 E2.33106
G1 X51.140 Y-21.920 E2.34693
G1 X51.400 Y-21.800 E2.35472
G1 X52.290 Y-21.310 E2.38236
G1 X52.670 Y-21.060 E2.39474
G1 X53.420 Y-20.470 E2.42070
G1 X54.190 Y-19.720 E2.44994
G1 X60.110 Y-13.000 E2.69360
G1 X60.450 Y-12.550 E2.70894
G1 X60.870 Y-11.830 E2.73162
G1 X61.100 Y-11.320 E2.74684
G1 X61.370 Y-10.520 E2.76981
G1 X61.530 Y-9.700 E2.79254
G1 X61.580 Y-8.860 E2.81544
G1 X61.580 Y-3.360 E2.96507
G1 X61.530 Y-2.520 E2.98797
G1 X61.370 Y-1.700 E3.01070
G1 X61.200 Y-1.170 E3.02584
G1 X60.990 Y-0.650 E3.04110
G1 X60.600 Y0.090 E3.06386
G1 X60.290 Y0.550 E3.07895
G1 X59.940 Y0.990 E3.09424
G1 X54.200 Y7.510 E3.33058
G1 X53.420 Y8.260 E3.36002
G1 X53.040 Y8.570 E3.37336
G1 X52.420 Y9.010 E3.39404
G1 X52.200 Y9.150 E3.40114
G1 X51.340 Y9.610 E3.42767
G1 X50.450 Y9.970 E3.45379
G1 X49.620 Y10.220 E3.47738
G1 X-14.880 Y26.850 E5.28959
G1 X-16.570 Y27.220 E5.33666
G1 X-17.130 Y27.310 E5.35209
G1 X-18.890 Y27.540 E5.40038
G1 X-19.470 Y27.590 E5.41622
G1 X-21.170 Y27.660 E5.46251
G1 X-21.710 Y27.660 E5.47720
G1 X-23.440 Y27.590 E5.52431
G1 X-24.040 Y27.540 E5.54069
G1 X-25.760 Y27.310 E5.58790
G1 X-26.290 Y27.220 E5.60253
G1 X-27.990 Y26.850 E5.64986
G1 X-28.600 Y26.680 E5.66709
G1 X-30.740 Y25.980 E5.72835
G1 X-32.350 Y25.320 E5.77569
G1 X-32.880 Y25.070 E5.79163
G1 X-34.420 Y24.270 E5.83885
G1 X-34.920 Y23.980 E5.85457
G1 X-36.380 Y23.050 E5.90167
G1 X-36.860 Y22.720 E5.91752
G1 X-38.240 Y21.660 E5.96486
G1 X-38.580 Y21.370 E5.97702
G1 X-53.620 Y8.090 E6.52289
G1 X-54.210 Y7.500 E6.54559
G1 X-60.120 Y0.770 E6.78927
G1 X-60.600 Y0.090 E6.81191
G1 X-60.880 Y-0.400 E6.82727
G1 X-61.000 Y-0.650 E6.83481
G1 X-61.110 Y-0.910 E6.84249
G1 X-61.370 Y-1.700 E6.86512
G1 X-61.530 Y-2.530 E6.88812
G1 X-61.570 Y-3.080 E6.90312
G1 X-61.580 Y-8.860 E7.06038
G1 X-61.530 Y-9.700 E7.08327
G1 X-61.430 Y-10.250 E7.09848
G1 X-61.290 Y-10.790 E7.11366
G1 X-60.990 Y-11.570 E7.13639
G1 X-60.600 Y-12.310 E7.15915
G1 X-60.290 Y-12.770 E7.17424
G1 X-59.940 Y-13.210 E7.18954
G1 X-54.210 Y-19.720 E7.42549
G1 X-53.430 Y-20.470 E7.45493
G1 X-52.680 Y-21.060 E7.48089
G1 X-52.300 Y-21.310 E7.49327
G1 X-51.670 Y-21.660 E7.51287
G1 X-51.410 Y-21.800 E7.52091
G1 X-50.880 Y-22.040 E7.53674
G1 X-50.610 Y-22.140 E7.54457
G1 X-49.640 Y-22.430 E7.57212
G1 X-49.400 Y-22.490 E7.57885
G1 X-48.690 Y-22.600 E7.59839
G1 X-2.010 Y-27.590 E8.87563
G1 X-0.260 Y-27.670 E8.92330
G1 X0.240 Y-27.670 E8.93690
G1 X1.913 Y-27.596 E8.98247
G1 F1800.000 E7.98247
G92 E0
G1 X1.402 Y-21.906 F7800.000
G1 F1800.000 E1.00000
G1 X2.774 Y-21.723 F540.000 E1.03766
G1 X4.125 Y-21.422 E1.07532
G1 X5.445 Y-21.004 E1.11299
G1 X6.723 Y-20.473 E1.15065
G1 X7.950 Y-19.832 E1.18831
G1 X9.117 Y-19.087 E1.22597
G1 X10.214 Y-18.243 E1.26363
G1 X11.207 Y-17.334 E1.30027
G1 X11.544 Y-16.968 E1.31381
G1 X47.521 Y-16.968 E2.29262
G1 X48.115 Y-16.911 E2.30885
G1 X48.749 Y-16.728 E2.32681
G1 X49.336 Y-16.424 E2.34478
G1 X49.912 Y-15.951 E2.36505
G1 X50.277 Y-15.507 E2.38071
G1 X50.595 Y-14.928 E2.39867
G1 X50.795 Y-14.299 E2.41664
G1 X50.868 Y-13.621 E2.43518
G1 X50.868 Y-9.718 E2.54138
G1 X50.882 Y-9.718 E2.54177
G1 X50.882 Y-11.459 E2.58915
G1 X51.391 Y-11.968 E2.60871
G1 X52.661 Y-11.968 E2.64327
G1 X52.961 Y-11.853 E2.65202
G1 X55.718 Y-9.372 E2.75292
G1 X55.868 Y-9.035 E2.76296
G1 X55.868 Y-3.165 E2.92264
G1 X55.718 Y-2.828 E2.93268
G1 X52.961 Y-0.347 E3.03358
G1 X52.661 Y-0.232 E3.04233
G1 X51.391 Y-0.232 E3.07689
G1 X50.882 Y-0.741 E3.09645
G1 X50.882 Y-2.482 E3.14383
G1 X50.868 Y-2.482 E3.14422
G1 X50.868 Y1.421 E3.25042
G1 X50.811 Y2.015 E3.26666
G1 X50.628 Y2.649 E3.28462
G1 X50.324 Y3.236 E3.30259
G1 X49.851 Y3.812 E3.32286
G1 X49.407 Y4.177 E3.33852
G1 X48.828 Y4.495 E3.35647
G1 X48.115 Y4.711 E3.37675
G1 X47.521 Y4.768 E3.39298
G1 X11.544 Y4.768 E4.37179
G1 X11.207 Y5.134 E4.38534
G1 X10.214 Y6.043 E4.42197
G1 X9.085 Y6.910 E4.46069
G1 X7.924 Y7.646 E4.49808
G1 X6.723 Y8.273 E4.53495
G1 X5.409 Y8.817 E4.57364
G1 X4.089 Y9.232 E4.61130
G1 X2.774 Y9.523 E4.64794
G1 X1.402 Y9.706 E4.68560
G1 X-0.019 Y9.768 E4.72429
G1 X-1.364 Y9.709 E4.76092
G1 X-2.440 Y9.569 E4.79045
G1 X-2.618 Y9.994 E4.80298
G1 X-3.456 Y11.600 E4.85227
G1 X-4.431 Y13.127 E4.90157
G1 X-5.535 Y14.564 E4.95086
G1 X-6.760 Y15.898 E5.00015
G1 X-8.097 Y17.121 E5.04944
G1 X-9.536 Y18.223 E5.09873
G1 X-11.065 Y19.195 E5.14802
G1 X-12.638 Y20.014 E5.19629
G1 X-14.311 Y20.709 E5.24558
G1 X-16.075 Y21.265 E5.29590
G1 X-17.846 Y21.656 E5.34522
G1 X-19.642 Y21.889 E5.39449
G1 X-21.413 Y21.968 E5.44274
G1 X-23.223 Y21.890 E5.49203
G1 X-25.020 Y21.656 E5.54133
G1 X-26.789 Y21.265 E5.59062
G1 X-28.517 Y20.722 E5.63991
G1 X-30.192 Y20.030 E5.68920
G1 X-31.800 Y19.195 E5.73849
G1 X-33.360 Y18.201 E5.78882
G1 X-34.796 Y17.097 E5.83811
G1 X-36.131 Y15.872 E5.88740
G1 X-37.329 Y14.564 E5.93566
G1 X-38.433 Y13.127 E5.98495
G1 X-39.408 Y11.600 E6.03424
G1 X-40.262 Y9.960 E6.08456
G1 X-40.954 Y8.285 E6.13386
G1 X-41.497 Y6.557 E6.18315
G1 X-41.890 Y4.768 E6.23298
G1 X-47.564 Y4.766 E6.38734
G1 X-48.199 Y4.695 E6.40472
G1 X-48.749 Y4.528 E6.42038
G1 X-49.336 Y4.224 E6.43834
G1 X-49.851 Y3.812 E6.45631
G1 X-50.277 Y3.307 E6.47428
G1 X-50.595 Y2.728 E6.49224
G1 X-50.795 Y2.099 E6.51021
G1 X-50.868 Y1.421 E6.52875
G1 X-50.868 Y-2.482 E6.63495
G1 X-50.882 Y-2.482 E6.63534
G1 X-50.882 Y-0.741 E6.68272
G1 X-51.391 Y-0.232 E6.70228
G1 X-52.661 Y-0.232 E6.73684
G1 X-52.961 Y-0.347 E6.74559
G1 X-55.718 Y-2.828 E6.84649
G1 X-55.868 Y-3.165 E6.85653
G1 X-55.868 Y-9.035 E7.01621
G1 X-55.718 Y-9.372 E7.02625
G1 X-52.961 Y-11.853 E7.12715
G1 X-52.661 Y-11.968 E7.13590
G1 X-51.391 Y-11.968 E7.17046
G1 X-50.882 Y-11.459 E7.19002
G1 X-50.882 Y-9.718 E7.23740
G1 X-50.868 Y-9.718 E7.23779
G1 X-50.868 Y-13.621 E7.34399
G1 X-50.795 Y-14.299 E7.36253
G1 X-50.595 Y-14.928 E7.38050
G1 X-50.277 Y-15.507 E7.39846
G1 X-49.912 Y-15.951 E7.41412
G1 X-49.336 Y-16.424 E7.43439
G1 X-48.749 Y-16.728 E7.45236
G1 X-48.115 Y-16.911 E7.47032
G1 X-47.521 Y-16.968 E7.48655
G1 X-31.467 Y-16.968 E7.92332
G1 X-30.192 Y-17.630 E7.96243
G1 X-28.553 Y-18.309 E8.01069
G1 X-26.789 Y-18.865 E8.06101
G1 X-25.020 Y-19.256 E8.11030
G1 X-23.223 Y-19.490 E8.15959
G1 X-21.451 Y-19.568 E8.20786
G1 X-19.603 Y-19.487 E8.25818
G1 X-17.844 Y-19.256 E8.30644
G1 X-16.075 Y-18.865 E8.35573
G1 X-14.311 Y-18.309 E8.40605
G1 X-12.672 Y-17.630 E8.45432
G1 X-11.497 Y-17.020 E8.49036
G1 X-11.207 Y-17.334 E8.50198
G1 X-10.214 Y-18.243 E8.53861
G1 X-9.086 Y-19.109 E8.57730
G1 X-7.917 Y-19.851 E8.61496
G1 X-6.723 Y-20.473 E8.65160
G1 X-5.445 Y-21.004 E8.68926
G1 X-4.089 Y-21.432 E8.72795
G1 X-2.737 Y-21.730 E8.76561
G1 X-1.364 Y-21.909 E8.80327
G1 X-0.019 Y-21.968 E8.83990
G1 X1.315 Y-21.911 E8.87624
G1 X1.326 Y-21.332 F7800.000
G1 X2.649 Y-21.158 F540.000 E8.91252
G1 X3.951 Y-20.870 E8.94881
G1 X5.223 Y-20.469 E8.98510
G1 X6.467 Y-19.954 E9.02173
G1 X7.650 Y-19.338 E9.05802
G1 X8.775 Y-18.621 E9.09431
G1 X9.833 Y-17.808 E9.13060
G1 X10.807 Y-16.916 E9.16655
G1 X11.290 Y-16.389 E9.18598
G1 X47.507 Y-16.389 E10.17133
G1 X48.030 Y-16.338 E10.18564
G1 X48.554 Y-16.183 E10.20051
G1 X49.038 Y-15.927 E10.21539
G1 X49.483 Y-15.562 E10.23104
G1 X49.812 Y-15.162 E10.24515
G1 X50.072 Y-14.681 E10.26002
G1 X50.233 Y-14.158 E10.27490
G1 X50.289 Y-13.607 E10.28997
G1 X50.289 Y-9.139 E10.41153
G1 X51.461 Y-9.139 E10.44340
G1 X51.461 Y-11.220 E10.50000
G1 X51.630 Y-11.389 E10.50652
G1 X52.554 Y-11.389 E10.53165
G1 X52.654 Y-11.351 E10.53456
G1 X55.239 Y-9.024 E10.62920
G1 X55.289 Y-8.912 E10.63255
G1 X55.289 Y-3.288 E10.78553
G1 X55.239 Y-3.176 E10.78888
G1 X52.654 Y-0.849 E10.88352
G1 X52.554 Y-0.811 E10.88643
G1 X51.630 Y-0.811 E10.91155
G1 X51.461 Y-0.980 E10.91807
G1 X51.461 Y-3.061 E10.97468
G1 X50.289 Y-3.061 E11.00655
G1 X50.289 Y1.407 E11.12811
G1 X50.238 Y1.930 E11.14241
G1 X50.083 Y2.454 E11.15728
G1 X49.812 Y2.962 E11.17293
G1 X49.462 Y3.383 E11.18781
G1 X49.062 Y3.712 E11.20192
G1 X48.581 Y3.972 E11.21679
G1 X48.030 Y4.138 E11.23244
G1 X47.507 Y4.189 E11.24674
G1 X11.290 Y4.189 E12.23209
G1 X10.807 Y4.716 E12.25153
G1 X9.833 Y5.608 E12.28748
G1 X8.764 Y6.428 E12.32412
G1 X7.625 Y7.151 E12.36083
G1 X6.467 Y7.754 E12.39634
G1 X5.223 Y8.269 E12.43297
G1 X3.951 Y8.670 E12.46926
G1 X2.661 Y8.956 E12.50521
G1 X1.326 Y9.132 E12.54184
G1 X0.006 Y9.189 E12.57778
G1 X-1.326 Y9.132 E12.61407
G1 X-2.800 Y8.925 E12.65455
G1 X-3.137 Y9.738 E12.67850
G1 X-3.951 Y11.300 E12.72642
G1 X-4.898 Y12.785 E12.77434
G1 X-5.962 Y14.173 E12.82191
G1 X-7.152 Y15.471 E12.86983
G1 X-8.450 Y16.662 E12.91775
G1 X-9.857 Y17.742 E12.96601
G1 X-11.343 Y18.688 E13.01393
G1 X-12.894 Y19.495 E13.06151
G1 X-14.533 Y20.174 E13.10977
G1 X-16.201 Y20.700 E13.15734
G1 X-17.920 Y21.082 E13.20526
G1 X-19.704 Y21.314 E13.25420
G1 X-21.426 Y21.389 E13.30110
G1 X-23.185 Y21.313 E13.34901
G1 X-24.932 Y21.084 E13.39693
G1 X-26.651 Y20.703 E13.44485
G1 X-28.331 Y20.174 E13.49277
G1 X-29.959 Y19.500 E13.54069
G1 X-31.521 Y18.688 E13.58861
G1 X-33.017 Y17.734 E13.63687
G1 X-34.414 Y16.662 E13.68479
G1 X-35.704 Y15.480 E13.73236
G1 X-36.894 Y14.182 E13.78028
G1 X-37.967 Y12.785 E13.82820
G1 X-38.913 Y11.300 E13.87612
G1 X-39.727 Y9.738 E13.92404
G1 X-40.406 Y8.099 E13.97230
G1 X-40.935 Y6.419 E14.02022
G1 X-41.314 Y4.712 E14.06779
G1 X-41.383 Y4.189 E14.08214
G1 X-47.521 Y4.189 E14.24914
G1 X-48.058 Y4.133 E14.26383
G1 X-48.554 Y3.983 E14.27794
G1 X-49.038 Y3.727 E14.29281
G1 X-49.462 Y3.383 E14.30769
G1 X-49.827 Y2.938 E14.32334
G1 X-50.083 Y2.454 E14.33822
G1 X-50.238 Y1.930 E14.35309
G1 X-50.289 Y1.407 E14.36740
G1 X-50.289 Y-3.061 E14.48895
G1 X-51.461 Y-3.061 E14.52082
G1 X-51.461 Y-0.980 E14.57743
G1 X-51.630 Y-0.811 E14.58395
G1 X-52.554 Y-0.811 E14.60907
G1 X-52.654 Y-0.849 E14.61199
G1 X-55.239 Y-3.176 E14.70663
G1 X-55.289 Y-3.288 E14.70997
G1 X-55.289 Y-8.912 E14.86296
G1 X-55.239 Y-9.024 E14.86630
G1 X-52.654 Y-11.351 E14.96094
G1 X-52.554 Y-11.389 E14.96386
G1 X-51.630 Y-11.389 E14.98898
G1 X-51.461 Y-11.220 E14.99550
G1 X-51.461 Y-9.139 E15.05210
G1 X-50.289 Y-9.139 E15.08398
G1 X-50.289 Y-13.607 E15.20553
G1 X-50.233 Y-14.158 E15.22060
G1 X-50.072 Y-14.681 E15.23548
G1 X-49.812 Y-15.162 E15.25035
G1 X-49.483 Y-15.562 E15.26446
G1 X-49.038 Y-15.927 E15.28011
G1 X-48.554 Y-16.183 E15.29499
G1 X-48.030 Y-16.338 E15.30986
G1 X-47.507 Y-16.389 E15.32417
G1 X-31.326 Y-16.389 E15.76440
G1 X-29.959 Y-17.100 E15.80633
G1 X-28.343 Y-17.770 E15.85391
G1 X-26.651 Y-18.303 E15.90217
G1 X-24.932 Y-18.684 E15.95009
G1 X-23.198 Y-18.912 E15.99766
G1 X-21.438 Y-18.989 E16.04558
G1 X-19.666 Y-18.912 E16.09384
G1 X-17.932 Y-18.684 E16.14142
G1 X-16.213 Y-18.303 E16.18934
G1 X-14.521 Y-17.770 E16.23760
G1 X-12.905 Y-17.100 E16.28517
G1 X-11.538 Y-16.389 E16.32710
G1 X-11.290 Y-16.389 E16.33386
G1 X-10.807 Y-16.916 E16.35330
G1 X-9.833 Y-17.808 E16.38925
G1 X-8.764 Y-18.628 E16.42588
G1 X-7.639 Y-19.344 E16.46217
G1 X-6.456 Y-19.959 E16.49845
G1 X-5.235 Y-20.465 E16.53440
G1 X-3.951 Y-20.870 E16.57103
G1 X-2.649 Y-21.158 E16.60732
G1 X-1.326 Y-21.332 E16.64361
G1 X-0.006 Y-21.389 E16.67955
G1 X1.240 Y-21.335 E16.71348
G1 X1.267 Y-20.755 F7800.000
G1 X2.554 Y-20.587 F540.000 E16.74882
G1 X3.807 Y-20.309 E16.78373
G1 X5.031 Y-19.923 E16.81864
G1 X6.217 Y-19.432 E16.85356
G1 X7.355 Y-18.840 E16.88847
G1 X8.438 Y-18.150 E16.92339
G1 X9.456 Y-17.369 E16.95830
G1 X10.402 Y-16.502 E16.99322
G1 X11.035 Y-15.811 E17.01872
G1 X47.486 Y-15.811 E18.01042
G1 X47.931 Y-15.767 E18.02260
G1 X48.346 Y-15.641 E18.03438
G1 X48.728 Y-15.437 E18.04616
G1 X49.062 Y-15.162 E18.05795
G1 X49.337 Y-14.828 E18.06974
G1 X49.541 Y-14.446 E18.08151
G1 X49.667 Y-14.031 E18.09329
G1 X49.711 Y-13.586 E18.10548
G1 X49.711 Y-8.561 E18.24219
G1 X52.039 Y-8.561 E18.30554
G1 X52.039 Y-10.811 E18.36676
G1 X52.389 Y-10.811 E18.37627
G1 X54.711 Y-8.721 E18.46125
G1 X54.711 Y-3.479 E18.60388
G1 X52.389 Y-1.389 E18.68886
G1 X52.039 Y-1.389 E18.69838
G1 X52.039 Y-3.639 E18.75959
G1 X49.711 Y-3.639 E18.82294
G1 X49.711 Y1.386 E18.95966
G1 X49.667 Y1.831 E18.97184
G1 X49.541 Y2.246 E18.98362
G1 X49.337 Y2.627 E18.99540
G1 X49.062 Y2.962 E19.00719
G1 X48.728 Y3.237 E19.01897
G1 X48.346 Y3.441 E19.03075
G1 X47.931 Y3.567 E19.04253
G1 X47.486 Y3.611 E19.05471
G1 X11.035 Y3.611 E20.04641
G1 X10.402 Y4.302 E20.07191
G1 X9.456 Y5.169 E20.10683
G1 X8.438 Y5.950 E20.14174
G1 X7.355 Y6.640 E20.17666
G1 X6.217 Y7.232 E20.21157
G1 X5.031 Y7.723 E20.24649
G1 X3.792 Y8.113 E20.28182
G1 X2.554 Y8.387 E20.31632
G1 X1.282 Y8.554 E20.35123
G1 X0.000 Y8.610 E20.38615
G1 X-1.282 Y8.554 E20.42106
G1 X-2.554 Y8.387 E20.45598
G1 X-3.149 Y8.255 E20.47253
G1 X-3.659 Y9.488 E20.50883
G1 X-4.449 Y11.005 E20.55537
G1 X-5.368 Y12.448 E20.60192
G1 X-6.410 Y13.805 E20.64846
G1 X-7.565 Y15.067 E20.69500
G1 X-8.827 Y16.222 E20.74155
G1 X-10.184 Y17.264 E20.78809
G1 X-11.627 Y18.183 E20.83464
G1 X-13.144 Y18.973 E20.88118
G1 X-14.725 Y19.628 E20.92773
G1 X-16.357 Y20.142 E20.97427
G1 X-18.027 Y20.513 E21.02082
G1 X-19.723 Y20.736 E21.06736
G1 X-21.432 Y20.810 E21.11391
G1 X-23.141 Y20.736 E21.16045
G1 X-24.837 Y20.513 E21.20700
G1 X-26.508 Y20.142 E21.25354
G1 X-28.139 Y19.628 E21.30009
G1 X-29.720 Y18.973 E21.34663
G1 X-31.237 Y18.183 E21.39318
G1 X-32.680 Y17.264 E21.43973
G1 X-34.037 Y16.222 E21.48627
G1 X-35.299 Y15.067 E21.53281
G1 X-36.455 Y13.805 E21.57936
G1 X-37.496 Y12.448 E21.62590
G1 X-38.415 Y11.005 E21.67245
G1 X-39.205 Y9.488 E21.71899
G1 X-39.860 Y7.907 E21.76554
G1 X-40.374 Y6.276 E21.81208
G1 X-40.745 Y4.605 E21.85863
G1 X-40.876 Y3.611 E21.88592
G1 X-47.486 Y3.611 E22.06576
G1 X-47.931 Y3.567 E22.07794
G1 X-48.346 Y3.441 E22.08972
G1 X-48.727 Y3.237 E22.10150
G1 X-49.062 Y2.962 E22.11329
G1 X-49.337 Y2.627 E22.12508
G1 X-49.541 Y2.246 E22.13685
G1 X-49.667 Y1.831 E22.14863
G1 X-49.711 Y1.386 E22.16081
G1 X-49.711 Y-3.639 E22.29753
G1 X-52.039 Y-3.639 E22.36088
G1 X-52.039 Y-1.389 E22.42210
G1 X-52.389 Y-1.389 E22.43161
G1 X-54.711 Y-3.479 E22.51659
G1 X-54.711 Y-8.721 E22.65922
G1 X-52.389 Y-10.811 E22.74420
G1 X-52.039 Y-10.811 E22.75372
G1 X-52.039 Y-8.561 E22.81493
G1 X-49.711 Y-8.561 E22.87828
G1 X-49.711 Y-13.586 E23.01500
G1 X-49.667 Y-14.031 E23.02718
G1 X-49.541 Y-14.446 E23.03896
G1 X-49.337 Y-14.827 E23.05074
G1 X-49.062 Y-15.162 E23.06253
G1 X-48.728 Y-15.437 E23.07431
G1 X-48.346 Y-15.641 E23.08609
G1 X-47.931 Y-15.767 E23.09787
G1 X-47.486 Y-15.811 E23.11005
G1 X-31.184 Y-15.811 E23.55356
G1 X-29.720 Y-16.573 E23.59848
G1 X-28.139 Y-17.228 E23.64502
G1 X-26.508 Y-17.742 E23.69157
G1 X-24.837 Y-18.113 E23.73811
G1 X-23.141 Y-18.336 E23.78466
G1 X-21.432 Y-18.410 E23.83120
G1 X-19.723 Y-18.336 E23.87775
G1 X-18.027 Y-18.113 E23.92429
G1 X-16.357 Y-17.742 E23.97084
G1 X-14.725 Y-17.228 E24.01738
G1 X-13.144 Y-16.573 E24.06393
G1 X-11.680 Y-15.811 E24.10885
G1 X-11.035 Y-15.811 E24.12639
G1 X-10.402 Y-16.502 E24.15189
G1 X-9.456 Y-17.369 E24.18681
G1 X-8.438 Y-18.150 E24.22172
G1 X-7.355 Y-18.840 E24.25664
G1 X-6.217 Y-19.432 E24.29155
G1 X-5.031 Y-19.923 E24.32647
G1 X-3.807 Y-20.309 E24.36138
G1 X-2.554 Y-20.587 E24.39630
G1 X-1.282 Y-20.754 E24.43121
G1 X-0.000 Y-20.810 E24.46613
G1 X1.180 Y-20.759 E24.49826
G1 X1.504 Y-20.227 F7800.000
G1 F1800.000 E23.49826
G92 E0
