; generated by Slic3r 0.9.9 on 2013-05-03 at 12:27:40

; layer_height = 0.3
; perimeters = 2
; top_solid_layers = 3
; bottom_solid_layers = 3
; fill_density = 0.15
; perimeter_speed = 30
; infill_speed = 60
; travel_speed = 130
; nozzle_diameter = 0.5
; filament_diameter = 2.85
; extrusion_multiplier = 1
; perimeters extrusion width = 0.70mm
; infill extrusion width = 0.70mm
; solid infill extrusion width = 0.70mm
; top infill extrusion width = 0.70mm
; first layer extrusion width = 0.60mm

G21 ; set units to millimeters
M107
M104 S0
M83
M140 S80
G28
G1Y98F9000
M190 S80
G1X5Y98Z150F9000
M104 S210
G1X5Y98Z1F9000
G1Z0.05
M109 S210
G1Z5
G1X15
;G1E5F50
G90 ; use absolute coordinates
G92 E0
M82 ; use absolute distances for extrusion
G1 F1800.000 E-1.00000
G92 E0
G1 Z0.300 F7800.000
G1 X-2.000 Y-31.680
G1 F1800.000 E1.00000
G1 X-0.260 Y-31.761 F540.000 E1.04739
G1 X0.240 Y-31.761 E1.06099
G1 X2.000 Y-31.680 E1.10893
G1 X48.680 Y-26.691 E2.38617
G1 X49.390 Y-26.581 E2.40571
G1 X49.630 Y-26.520 E2.41245
G1 X50.600 Y-26.230 E2.43999
G1 X50.870 Y-26.131 E2.44782
G1 X51.400 Y-25.890 E2.46365
G1 X51.660 Y-25.750 E2.47169
G1 X52.290 Y-25.401 E2.49129
G1 X52.670 Y-25.151 E2.50367
G1 X53.420 Y-24.561 E2.52963
G1 X54.190 Y-23.811 E2.55888
G1 X60.110 Y-17.090 E2.80253
G1 X60.450 Y-16.641 E2.81788
G1 X60.870 Y-15.921 E2.84055
G1 X61.100 Y-15.411 E2.85577
G1 X61.370 Y-14.611 E2.87875
G1 X61.530 Y-13.790 E2.90148
G1 X61.580 Y-12.950 E2.92437
G1 X61.580 Y-7.451 E3.07401
G1 X61.530 Y-6.611 E3.09690
G1 X61.370 Y-5.791 E3.11963
G1 X61.200 Y-5.261 E3.13477
G1 X60.990 Y-4.741 E3.15003
G1 X60.600 Y-4.001 E3.17279
G1 X60.290 Y-3.541 E3.18788
G1 X59.940 Y-3.101 E3.20318
G1 X54.200 Y3.419 E3.43951
G1 X32.110 Y26.679 E4.31225
G1 X31.100 Y27.619 E4.34978
G1 X30.660 Y27.989 E4.36542
G1 X29.940 Y28.539 E4.39007
G1 X28.750 Y29.329 E4.42894
G1 X28.160 Y29.669 E4.44746
G1 X27.350 Y30.079 E4.47216
G1 X26.110 Y30.619 E4.50896
G1 X25.500 Y30.839 E4.52660
G1 X24.630 Y31.109 E4.55138
G1 X23.260 Y31.439 E4.58972
G1 X22.620 Y31.559 E4.60744
G1 X21.660 Y31.679 E4.63376
G1 X20.310 Y31.759 E4.67055
G1 X19.710 Y31.759 E4.68688
G1 X18.800 Y31.719 E4.71166
G1 X18.220 Y31.669 E4.72750
G1 X16.970 Y31.489 E4.76186
G1 X-27.290 Y23.130 E5.98732
G1 X-28.990 Y22.759 E6.03465
G1 X-29.600 Y22.590 E6.05188
G1 X-31.740 Y21.889 E6.11314
G1 X-33.350 Y21.229 E6.16048
G1 X-33.880 Y20.979 E6.17642
G1 X-35.420 Y20.179 E6.22363
G1 X-35.920 Y19.889 E6.23936
G1 X-37.380 Y18.959 E6.28646
G1 X-37.860 Y18.630 E6.30230
G1 X-39.240 Y17.569 E6.34965
G1 X-39.670 Y17.209 E6.36490
G1 X-40.950 Y16.039 E6.41208
G1 X-53.800 Y3.839 E6.89416
G1 X-54.210 Y3.409 E6.91032
G1 X-60.120 Y-3.321 E7.15400
G1 X-60.600 Y-4.001 E7.17665
G1 X-60.880 Y-4.491 E7.19200
G1 X-61.000 Y-4.741 E7.19955
G1 X-61.110 Y-5.001 E7.20723
G1 X-61.370 Y-5.791 E7.22985
G1 X-61.530 Y-6.620 E7.25285
G1 X-61.570 Y-7.171 E7.26785
G1 X-61.580 Y-12.950 E7.42511
G1 X-61.530 Y-13.790 E7.44800
G1 X-61.430 Y-14.341 E7.46321
G1 X-61.290 Y-14.881 E7.47839
G1 X-60.990 Y-15.661 E7.50113
G1 X-60.600 Y-16.401 E7.52388
G1 X-60.290 Y-16.861 E7.53898
G1 X-59.940 Y-17.300 E7.55427
G1 X-54.210 Y-23.811 E7.79022
G1 X-53.430 Y-24.561 E7.81966
G1 X-52.680 Y-25.151 E7.84562
G1 X-52.300 Y-25.401 E7.85800
G1 X-51.410 Y-25.890 E7.88564
G1 X-51.150 Y-26.011 E7.89343
G1 X-50.610 Y-26.230 E7.90930
G1 X-49.640 Y-26.520 E7.93684
G1 X-49.170 Y-26.620 E7.94991
G1 X-48.700 Y-26.691 E7.96284
G1 X-24.880 Y-29.261 E8.61467
G1 X-2.086 Y-31.671 E9.23826
G1 F1800.000 E8.23826
G92 E0
G1 X15.229 Y4.623 F7800.000
G1 F1800.000 E1.00000
G1 X16.156 Y4.239 F540.000 E1.02729
G1 X17.107 Y3.939 E1.05442
G1 X18.065 Y3.728 E1.08113
G1 X19.038 Y3.602 E1.10782
G1 X20.019 Y3.561 E1.13452
G1 X20.999 Y3.605 E1.16122
G1 X21.935 Y3.728 E1.18689
G1 X22.893 Y3.939 E1.21359
G1 X23.830 Y4.233 E1.24029
G1 X24.737 Y4.607 E1.26699
G1 X25.608 Y5.058 E1.29369
G1 X26.437 Y5.584 E1.32039
G1 X27.245 Y6.205 E1.34811
G1 X27.968 Y6.869 E1.37481
G1 X28.629 Y7.593 E1.40151
G1 X29.225 Y8.373 E1.42821
G1 X29.732 Y9.169 E1.45388
G1 X30.187 Y10.038 E1.48058
G1 X30.571 Y10.965 E1.50787
G1 X30.870 Y11.916 E1.53500
G1 X31.081 Y12.875 E1.56170
G1 X31.208 Y13.848 E1.58840
G1 X31.249 Y14.791 E1.61407
G1 X31.208 Y15.771 E1.64077
G1 X31.081 Y16.744 E1.66747
G1 X30.870 Y17.703 E1.69417
G1 X30.571 Y18.654 E1.72130
G1 X30.187 Y19.581 E1.74859
G1 X29.732 Y20.450 E1.77529
G1 X29.204 Y21.277 E1.80199
G1 X28.605 Y22.055 E1.82869
G1 X27.941 Y22.777 E1.85539
G1 X27.216 Y23.439 E1.88209
G1 X26.437 Y24.035 E1.90878
G1 X25.608 Y24.561 E1.93548
G1 X24.771 Y24.996 E1.96115
G1 X23.830 Y25.386 E1.98888
G1 X22.893 Y25.680 E2.01558
G1 X21.931 Y25.891 E2.04237
G1 X20.901 Y26.020 E2.07061
G1 X19.981 Y26.058 E2.09567
G1 X19.038 Y26.017 E2.12134
G1 X18.065 Y25.891 E2.14804
G1 X17.107 Y25.680 E2.17475
G1 X16.156 Y25.380 E2.20187
G1 X15.229 Y24.996 E2.22916
G1 X14.359 Y24.542 E2.25586
G1 X13.532 Y24.013 E2.28256
G1 X12.755 Y23.414 E2.30926
G1 X12.032 Y22.750 E2.33596
G1 X11.371 Y22.026 E2.36266
G1 X10.796 Y21.277 E2.38833
G1 X10.268 Y20.450 E2.41503
G1 X9.813 Y19.581 E2.44172
G1 X9.436 Y18.675 E2.46842
G1 X9.139 Y17.739 E2.49512
G1 X8.919 Y16.744 E2.52285
G1 X8.792 Y15.771 E2.54955
G1 X8.751 Y14.791 E2.57625
G1 X8.796 Y13.810 E2.60295
G1 X8.919 Y12.875 E2.62862
G1 X9.130 Y11.916 E2.65531
G1 X9.423 Y10.980 E2.68201
G1 X9.797 Y10.073 E2.70871
G1 X10.249 Y9.201 E2.73541
G1 X10.775 Y8.373 E2.76211
G1 X11.385 Y7.577 E2.78940
G1 X12.059 Y6.842 E2.81653
G1 X12.784 Y6.180 E2.84323
G1 X13.563 Y5.584 E2.86993
G1 X14.359 Y5.077 E2.89560
G1 X15.152 Y4.663 E2.91994
G1 F1800.000 E1.91994
G92 E0
G1 X11.234 Y1.016 F7800.000
G1 F1800.000 E1.00000
G1 X10.185 Y1.977 F540.000 E1.03869
G1 X9.086 Y2.819 E1.07635
G1 X7.950 Y3.542 E1.11299
G1 X6.689 Y4.199 E1.15168
G1 X5.445 Y4.714 E1.18831
G1 X4.125 Y5.132 E1.22597
G1 X2.737 Y5.440 E1.26466
G1 X1.364 Y5.619 E1.30232
G1 X0.019 Y5.677 E1.33896
G1 X-1.402 Y5.615 E1.37765
G1 X-2.737 Y5.440 E1.41428
G1 X-3.367 Y5.302 E1.43183
G1 X-3.618 Y5.904 E1.44958
G1 X-4.437 Y7.477 E1.49784
G1 X-5.409 Y9.006 E1.54713
G1 X-6.511 Y10.444 E1.59642
G1 X-7.734 Y11.781 E1.64572
G1 X-9.069 Y13.005 E1.69499
G1 X-10.535 Y14.132 E1.74531
G1 X-12.065 Y15.104 E1.79462
G1 X-13.672 Y15.939 E1.84391
G1 X-15.347 Y16.631 E1.89320
G1 X-17.075 Y17.175 E1.94249
G1 X-18.844 Y17.565 E1.99178
G1 X-20.603 Y17.797 E2.04005
G1 X-22.413 Y17.877 E2.08934
G1 X-24.223 Y17.800 E2.13863
G1 X-26.057 Y17.559 E2.18895
G1 X-27.789 Y17.175 E2.23721
G1 X-29.517 Y16.631 E2.28651
G1 X-31.192 Y15.939 E2.33580
G1 X-32.800 Y15.104 E2.38509
G1 X-34.329 Y14.132 E2.43438
G1 X-35.767 Y13.031 E2.48367
G1 X-37.131 Y11.781 E2.53399
G1 X-38.329 Y10.473 E2.58226
G1 X-39.433 Y9.037 E2.63155
G1 X-40.408 Y7.510 E2.68084
G1 X-41.246 Y5.904 E2.73013
G1 X-41.941 Y4.230 E2.77942
G1 X-42.487 Y2.503 E2.82872
G1 X-42.890 Y0.677 E2.87958
G1 X-47.521 Y0.677 E3.00557
G1 X-48.115 Y0.621 E3.02181
G1 X-48.828 Y0.405 E3.04208
G1 X-49.407 Y0.086 E3.06004
G1 X-49.912 Y-0.339 E3.07801
G1 X-50.277 Y-0.784 E3.09367
G1 X-50.595 Y-1.362 E3.11162
G1 X-50.811 Y-2.075 E3.13190
G1 X-50.868 Y-2.669 E3.14813
G1 X-50.868 Y-6.573 E3.25433
G1 X-50.882 Y-6.573 E3.25472
G1 X-50.882 Y-4.831 E3.30211
G1 X-51.391 Y-4.323 E3.32167
G1 X-52.661 Y-4.323 E3.35623
G1 X-52.961 Y-4.438 E3.36497
G1 X-55.718 Y-6.919 E3.46588
G1 X-55.868 Y-7.256 E3.47592
G1 X-55.868 Y-13.125 E3.63559
G1 X-55.718 Y-13.462 E3.64563
G1 X-52.961 Y-15.943 E3.74653
G1 X-52.661 Y-16.058 E3.75528
G1 X-51.391 Y-16.058 E3.78984
G1 X-50.882 Y-15.550 E3.80940
G1 X-50.882 Y-13.808 E3.85678
G1 X-50.868 Y-13.808 E3.85718
G1 X-50.868 Y-17.712 E3.96338
G1 X-50.811 Y-18.306 E3.97961
G1 X-50.628 Y-18.940 E3.99757
G1 X-50.324 Y-19.526 E4.01554
G1 X-49.851 Y-20.102 E4.03581
G1 X-49.407 Y-20.467 E4.05147
G1 X-48.828 Y-20.786 E4.06943
G1 X-48.199 Y-20.985 E4.08740
G1 X-47.521 Y-21.058 E4.10594
G1 X-32.467 Y-21.058 E4.51550
G1 X-31.192 Y-21.721 E4.55460
G1 X-29.553 Y-22.399 E4.60287
G1 X-27.788 Y-22.956 E4.65322
G1 X-26.019 Y-23.345 E4.70249
G1 X-24.261 Y-23.578 E4.75074
G1 X-22.451 Y-23.658 E4.80003
G1 X-20.603 Y-23.578 E4.85035
G1 X-18.844 Y-23.346 E4.89862
G1 X-17.075 Y-22.956 E4.94791
G1 X-15.311 Y-22.399 E4.99823
G1 X-13.672 Y-21.721 E5.04649
G1 X-12.397 Y-21.058 E5.08559
G1 X-11.544 Y-21.058 E5.10879
G1 X-11.207 Y-21.424 E5.12233
G1 X-10.214 Y-22.334 E5.15896
G1 X-9.117 Y-23.178 E5.19663
G1 X-7.924 Y-23.937 E5.23508
G1 X-6.689 Y-24.580 E5.27297
G1 X-5.408 Y-25.108 E5.31067
G1 X-4.061 Y-25.529 E5.34907
G1 X-2.737 Y-25.821 E5.38595
G1 X-1.402 Y-25.996 E5.42259
G1 X-0.019 Y-26.058 E5.46025
G1 X1.364 Y-26.000 E5.49791
G1 X2.774 Y-25.814 E5.53660
G1 X4.125 Y-25.513 E5.57426
G1 X5.445 Y-25.095 E5.61193
G1 X6.689 Y-24.580 E5.64856
G1 X7.917 Y-23.942 E5.68622
G1 X9.117 Y-23.178 E5.72491
G1 X10.214 Y-22.334 E5.76257
G1 X11.207 Y-21.424 E5.79921
G1 X11.544 Y-21.058 E5.81275
G1 X47.521 Y-21.058 E6.79156
G1 X48.199 Y-20.985 E6.81010
G1 X48.828 Y-20.786 E6.82807
G1 X49.407 Y-20.467 E6.84603
G1 X49.851 Y-20.102 E6.86168
G1 X50.324 Y-19.526 E6.88196
G1 X50.628 Y-18.940 E6.89993
G1 X50.811 Y-18.306 E6.91789
G1 X50.868 Y-17.712 E6.93412
G1 X50.868 Y-13.808 E7.04032
G1 X50.882 Y-13.808 E7.04071
G1 X50.882 Y-15.550 E7.08810
G1 X51.391 Y-16.058 E7.10765
G1 X52.661 Y-16.058 E7.14221
G1 X52.961 Y-15.943 E7.15096
G1 X55.718 Y-13.462 E7.25186
G1 X55.868 Y-13.125 E7.26190
G1 X55.868 Y-7.256 E7.42158
G1 X55.718 Y-6.919 E7.43162
G1 X52.961 Y-4.438 E7.53252
G1 X52.661 Y-4.323 E7.54127
G1 X51.391 Y-4.323 E7.57583
G1 X50.882 Y-4.831 E7.59539
G1 X50.882 Y-6.573 E7.64277
G1 X50.868 Y-6.573 E7.64316
G1 X50.868 Y-2.669 E7.74936
G1 X50.795 Y-1.992 E7.76790
G1 X50.595 Y-1.362 E7.78587
G1 X50.277 Y-0.784 E7.80383
G1 X49.912 Y-0.339 E7.81949
G1 X49.336 Y0.134 E7.83976
G1 X48.749 Y0.438 E7.85773
G1 X48.115 Y0.621 E7.87569
G1 X47.521 Y0.677 E7.89193
G1 X11.544 Y0.677 E8.87074
G1 X11.292 Y0.952 E8.88089
G1 F1800.000 E7.88089
G92 E0
G1 X14.659 Y5.572 F7800.000
G1 F1800.000 E1.00000
G1 X15.485 Y5.142 F540.000 E1.02533
G1 X16.342 Y4.786 E1.05058
G1 X17.244 Y4.501 E1.07632
G1 X18.153 Y4.300 E1.10165
G1 X19.076 Y4.179 E1.12697
G1 X19.994 Y4.139 E1.15195
G1 X20.924 Y4.179 E1.17728
G1 X21.847 Y4.300 E1.20260
G1 X22.756 Y4.501 E1.22793
G1 X23.655 Y4.785 E1.25360
G1 X24.515 Y5.142 E1.27892
G1 X25.341 Y5.572 E1.30425
G1 X26.125 Y6.073 E1.32958
G1 X26.864 Y6.640 E1.35490
G1 X27.550 Y7.269 E1.38023
G1 X28.178 Y7.956 E1.40555
G1 X28.744 Y8.694 E1.43088
G1 X29.238 Y9.469 E1.45586
G1 X29.668 Y10.294 E1.48119
G1 X30.023 Y11.152 E1.50644
G1 X30.308 Y12.054 E1.53218
G1 X30.509 Y12.963 E1.55751
G1 X30.630 Y13.886 E1.58283
G1 X30.670 Y14.803 E1.60781
G1 X30.630 Y15.733 E1.63314
G1 X30.509 Y16.656 E1.65846
G1 X30.308 Y17.565 E1.68379
G1 X30.023 Y18.467 E1.70953
G1 X29.668 Y19.325 E1.73478
G1 X29.238 Y20.150 E1.76011
G1 X28.737 Y20.935 E1.78543
G1 X28.170 Y21.673 E1.81076
G1 X27.541 Y22.359 E1.83608
G1 X26.854 Y22.987 E1.86141
G1 X26.125 Y23.546 E1.88639
G1 X25.341 Y24.047 E1.91172
G1 X24.515 Y24.477 E1.93704
G1 X23.643 Y24.838 E1.96271
G1 X22.756 Y25.118 E1.98804
G1 X21.845 Y25.319 E2.01340
G1 X20.876 Y25.441 E2.03998
G1 X20.006 Y25.480 E2.06367
G1 X19.076 Y25.440 E2.08899
G1 X18.153 Y25.319 E2.11432
G1 X17.244 Y25.118 E2.13965
G1 X16.342 Y24.833 E2.16539
G1 X15.485 Y24.477 E2.19064
G1 X14.659 Y24.047 E2.21596
G1 X13.875 Y23.546 E2.24129
G1 X13.136 Y22.979 E2.26661
G1 X12.450 Y22.350 E2.29194
G1 X11.822 Y21.663 E2.31726
G1 X11.263 Y20.935 E2.34225
G1 X10.762 Y20.150 E2.36757
G1 X10.332 Y19.325 E2.39290
G1 X9.975 Y18.465 E2.41822
G1 X9.695 Y17.577 E2.44355
G1 X9.491 Y16.656 E2.46922
G1 X9.370 Y15.733 E2.49454
G1 X9.330 Y14.803 E2.51987
G1 X9.371 Y13.873 E2.54520
G1 X9.491 Y12.963 E2.57018
G1 X9.692 Y12.054 E2.59550
G1 X9.975 Y11.154 E2.62117
G1 X10.332 Y10.294 E2.64650
G1 X10.762 Y9.469 E2.67182
G1 X11.263 Y8.684 E2.69715
G1 X11.821 Y7.958 E2.72206
G1 X12.459 Y7.260 E2.74780
G1 X13.146 Y6.632 E2.77312
G1 X13.875 Y6.073 E2.79811
G1 X14.586 Y5.619 E2.82107
G1 F1800.000 E1.82107
G92 E0
G1 X10.807 Y0.625 F7800.000
G1 F1800.000 E1.00000
G1 X9.823 Y1.526 F540.000 E1.03629
G1 X8.775 Y2.330 E1.07223
G1 X7.650 Y3.047 E1.10852
G1 X6.456 Y3.669 E1.14515
G1 X5.235 Y4.175 E1.18110
G1 X3.963 Y4.576 E1.21739
G1 X2.649 Y4.868 E1.25402
G1 X1.326 Y5.041 E1.29031
G1 X0.006 Y5.099 E1.32626
G1 X-1.339 Y5.040 E1.36289
G1 X-2.649 Y4.868 E1.39883
G1 X-3.716 Y4.632 E1.42856
G1 X-4.137 Y5.648 E1.45849
G1 X-4.945 Y7.199 E1.50606
G1 X-5.890 Y8.684 E1.55398
G1 X-6.962 Y10.082 E1.60190
G1 X-8.152 Y11.381 E1.64982
G1 X-9.432 Y12.554 E1.69706
G1 X-10.857 Y13.651 E1.74599
G1 X-12.343 Y14.597 E1.79391
G1 X-13.905 Y15.410 E1.84183
G1 X-15.533 Y16.083 E1.88975
G1 X-17.201 Y16.609 E1.93733
G1 X-18.920 Y16.991 E1.98524
G1 X-20.666 Y17.221 E2.03316
G1 X-22.426 Y17.299 E2.08108
G1 X-24.185 Y17.223 E2.12900
G1 X-25.944 Y16.991 E2.17726
G1 X-27.664 Y16.609 E2.22518
G1 X-29.343 Y16.079 E2.27310
G1 X-30.970 Y15.404 E2.32102
G1 X-32.521 Y14.597 E2.36859
G1 X-34.007 Y13.651 E2.41651
G1 X-35.405 Y12.579 E2.46443
G1 X-36.713 Y11.381 E2.51269
G1 X-37.902 Y10.082 E2.56061
G1 X-38.974 Y8.684 E2.60853
G1 X-39.920 Y7.199 E2.65645
G1 X-40.727 Y5.648 E2.70402
G1 X-41.402 Y4.021 E2.75194
G1 X-41.932 Y2.341 E2.79986
G1 X-42.314 Y0.622 E2.84778
G1 X-42.383 Y0.099 E2.86213
G1 X-47.507 Y0.099 E3.00154
G1 X-48.030 Y0.048 E3.01584
G1 X-48.581 Y-0.119 E3.03149
G1 X-49.062 Y-0.379 E3.04636
G1 X-49.483 Y-0.728 E3.06124
G1 X-49.812 Y-1.129 E3.07535
G1 X-50.072 Y-1.610 E3.09023
G1 X-50.238 Y-2.160 E3.10587
G1 X-50.289 Y-2.683 E3.12018
G1 X-50.289 Y-7.151 E3.24173
G1 X-51.461 Y-7.151 E3.27360
G1 X-51.461 Y-5.071 E3.33021
G1 X-51.630 Y-4.901 E3.33673
G1 X-52.554 Y-4.901 E3.36185
G1 X-52.654 Y-4.940 E3.36477
G1 X-55.239 Y-7.267 E3.45941
G1 X-55.289 Y-7.379 E3.46275
G1 X-55.289 Y-13.002 E3.61573
G1 X-55.239 Y-13.114 E3.61908
G1 X-52.654 Y-15.441 E3.71372
G1 X-52.554 Y-15.480 E3.71664
G1 X-51.630 Y-15.480 E3.74176
G1 X-51.461 Y-15.310 E3.74828
G1 X-51.461 Y-13.230 E3.80488
G1 X-50.289 Y-13.230 E3.83676
G1 X-50.289 Y-17.698 E3.95831
G1 X-50.238 Y-18.221 E3.97261
G1 X-50.083 Y-18.745 E3.98749
G1 X-49.827 Y-19.228 E4.00236
G1 X-49.462 Y-19.673 E4.01801
G1 X-49.062 Y-20.002 E4.03213
G1 X-48.581 Y-20.262 E4.04700
G1 X-48.058 Y-20.423 E4.06187
G1 X-47.507 Y-20.480 E4.07695
G1 X-32.326 Y-20.480 E4.48998
G1 X-30.959 Y-21.191 E4.53190
G1 X-29.343 Y-21.860 E4.57948
G1 X-27.651 Y-22.394 E4.62775
G1 X-25.907 Y-22.777 E4.67634
G1 X-24.198 Y-23.002 E4.72323
G1 X-22.438 Y-23.080 E4.77115
G1 X-20.666 Y-23.002 E4.81941
G1 X-18.932 Y-22.774 E4.86699
G1 X-17.213 Y-22.393 E4.91491
G1 X-15.521 Y-21.860 E4.96317
G1 X-13.905 Y-21.191 E5.01074
G1 X-12.538 Y-20.480 E5.05267
G1 X-11.290 Y-20.480 E5.08664
G1 X-10.807 Y-21.006 E5.10608
G1 X-9.833 Y-21.899 E5.14202
G1 X-8.775 Y-22.711 E5.17831
G1 X-7.625 Y-23.441 E5.21537
G1 X-6.456 Y-24.050 E5.25123
G1 X-5.223 Y-24.560 E5.28753
G1 X-3.924 Y-24.967 E5.32457
G1 X-2.649 Y-25.249 E5.36009
G1 X-1.339 Y-25.421 E5.39604
G1 X-0.006 Y-25.480 E5.43232
G1 X1.326 Y-25.422 E5.46861
G1 X2.661 Y-25.246 E5.50525
G1 X3.963 Y-24.957 E5.54153
G1 X5.235 Y-24.556 E5.57782
G1 X6.456 Y-24.050 E5.61377
G1 X7.650 Y-23.428 E5.65040
G1 X8.775 Y-22.711 E5.68669
G1 X9.833 Y-21.899 E5.72298
G1 X10.807 Y-21.006 E5.75892
G1 X11.290 Y-20.480 E5.77836
G1 X47.507 Y-20.480 E6.76371
G1 X48.058 Y-20.423 E6.77879
G1 X48.581 Y-20.262 E6.79366
G1 X49.062 Y-20.002 E6.80853
G1 X49.462 Y-19.673 E6.82265
G1 X49.827 Y-19.228 E6.83830
G1 X50.083 Y-18.745 E6.85317
G1 X50.238 Y-18.221 E6.86804
G1 X50.289 Y-17.698 E6.88235
G1 X50.289 Y-13.230 E7.00390
G1 X51.461 Y-13.230 E7.03578
G1 X51.461 Y-15.310 E7.09238
G1 X51.630 Y-15.480 E7.09890
G1 X52.554 Y-15.480 E7.12402
G1 X52.654 Y-15.441 E7.12694
G1 X55.239 Y-13.114 E7.22158
G1 X55.289 Y-13.002 E7.22493
G1 X55.289 Y-7.379 E7.37791
G1 X55.239 Y-7.267 E7.38125
G1 X52.654 Y-4.940 E7.47589
G1 X52.554 Y-4.901 E7.47881
G1 X51.630 Y-4.901 E7.50393
G1 X51.461 Y-5.071 E7.51045
G1 X51.461 Y-7.151 E7.56706
G1 X50.289 Y-7.151 E7.59893
G1 X50.289 Y-2.683 E7.72048
G1 X50.233 Y-2.132 E7.73556
G1 X50.072 Y-1.610 E7.75043
G1 X49.812 Y-1.129 E7.76531
