; generated by Slic3r 0.9.9 on 2013-05-01 at 14:24:00

; layer_height = 0.3
; perimeters = 2
; top_solid_layers = 3
; bottom_solid_layers = 3
; fill_density = 0.1
; perimeter_speed = 30
; infill_speed = 60
; travel_speed = 130
; nozzle_diameter = 0.5
; filament_diameter = 2.85
; extrusion_multiplier = 1
; perimeters extrusion width = 0.70mm
; infill extrusion width = 0.70mm
; solid infill extrusion width = 0.70mm
; top infill extrusion width = 0.70mm
; first layer extrusion width = 0.60mm

G21 ; set units to millimeters
M107
M104 S0
M83
M140 S80
G28
G1Y98F9000
M190 S80
G1X5Y98Z150F9000
M104 S210
G1X5Y98Z1F9000
G1Z0.05
M109 S210
G1Z5
G1X15
;G1E5F50
G90 ; use absolute coordinates
G92 E0
M82 ; use absolute distances for extrusion
G1 F1800.000 E-1.00000
G92 E0
G1 Z0.300 F7800.000
G1 X19.990 Y10.570
G1 F1800.000 E1.00000
G1 X-20.010 Y10.570 F540.000 E2.08827
G1 X-20.880 Y10.510 E2.11199
G1 X-22.260 Y10.320 E2.14989
G1 X-22.590 Y10.250 E2.15907
G1 X-23.240 Y10.060 E2.17749
G1 X-24.780 Y9.430 E2.22276
G1 X-25.310 Y9.150 E2.23907
G1 X-26.060 Y8.650 E2.26359
G1 X-27.130 Y7.800 E2.30077
G1 X-27.610 Y7.340 E2.31886
G1 X-27.830 Y7.100 E2.32772
G1 X-28.680 Y6.010 E2.36532
G1 X-29.090 Y5.420 E2.38487
G1 X-29.260 Y5.120 E2.39425
G1 X-29.570 Y4.480 E2.41360
G1 X-30.080 Y3.210 E2.45083
G1 X-30.270 Y2.570 E2.46900
G1 X-30.340 Y2.240 E2.47818
G1 X-30.530 Y0.870 E2.51581
G1 X-30.590 Y0.160 E2.53519
G1 X-30.570 Y-0.540 E2.55424
G1 X-30.340 Y-2.260 E2.60146
G1 X-30.180 Y-2.910 E2.61967
G1 X-29.960 Y-3.540 E2.63782
G1 X-29.570 Y-4.490 E2.66576
G1 X-29.260 Y-5.130 E2.68511
G1 X-29.090 Y-5.430 E2.69449
G1 X-28.680 Y-6.020 E2.71404
G1 X-27.830 Y-7.110 E2.75164
G1 X-27.370 Y-7.590 E2.76973
G1 X-26.880 Y-8.020 E2.78747
G1 X-26.060 Y-8.660 E2.81577
G1 X-25.570 Y-9.000 E2.83200
G1 X-25.050 Y-9.300 E2.84833
G1 X-24.510 Y-9.560 E2.86463
G1 X-23.560 Y-9.950 E2.89257
G1 X-22.630 Y-10.250 E2.91916
G1 X-22.310 Y-10.320 E2.92807
G1 X-20.940 Y-10.520 E2.96574
G1 X-20.010 Y-10.590 E2.99111
G1 X19.990 Y-10.590 E4.07938
G1 X20.870 Y-10.530 E4.10338
G1 X22.250 Y-10.340 E4.14128
G1 X22.580 Y-10.260 E4.15051
G1 X23.240 Y-10.070 E4.16920
G1 X24.830 Y-9.400 E4.21614
G1 X25.440 Y-9.070 E4.23501
G1 X26.010 Y-8.680 E4.25380
G1 X26.840 Y-8.040 E4.28232
G1 X27.340 Y-7.610 E4.30026
G1 X27.570 Y-7.380 E4.30911
G1 X28.010 Y-6.880 E4.32723
G1 X28.860 Y-5.770 E4.36527
G1 X29.230 Y-5.160 E4.38468
G1 X29.400 Y-4.840 E4.39453
G1 X29.540 Y-4.520 E4.40404
G1 X30.070 Y-3.220 E4.44223
G1 X30.260 Y-2.550 E4.46118
G1 X30.390 Y-1.860 E4.48028
G1 X30.550 Y-0.510 E4.51727
G1 X30.570 Y0.150 E4.53523
G1 X30.520 Y0.810 E4.55324
G1 X30.390 Y1.850 E4.58176
G1 X30.260 Y2.550 E4.60113
G1 X30.170 Y2.890 E4.61069
G1 X29.930 Y3.560 E4.63006
G1 X29.390 Y4.830 E4.66760
G1 X29.060 Y5.440 E4.68647
G1 X28.670 Y6.010 E4.70526
G1 X27.820 Y7.100 E4.74287
G1 X27.350 Y7.590 E4.76134
G1 X26.840 Y8.030 E4.77967
G1 X25.720 Y8.880 E4.81792
G1 X25.120 Y9.250 E4.83710
G1 X24.480 Y9.550 E4.85633
G1 X23.180 Y10.070 E4.89442
G1 X22.850 Y10.180 E4.90389
G1 X22.520 Y10.260 E4.91312
G1 X21.840 Y10.390 E4.93196
G1 X20.820 Y10.520 E4.95993
G1 X20.077 Y10.565 E4.98020
G1 F1800.000 E3.98020
G92 E0
G1 X4.244 Y2.385 F7800.000
G1 F1800.000 E1.00000
G1 X4.187 Y2.483 F540.000 E1.00309
G1 X3.482 Y3.402 E1.03460
G1 X3.402 Y3.482 E1.03769
G1 X2.482 Y4.188 E1.06923
G1 X2.382 Y4.246 E1.07238
G1 X1.292 Y4.691 E1.10440
G1 X1.184 Y4.719 E1.10744
G1 X0.056 Y4.868 E1.13841
G1 X-0.060 Y4.868 E1.14156
G1 X-1.226 Y4.708 E1.17358
G1 X-1.334 Y4.679 E1.17662
G1 X-2.385 Y4.244 E1.20756
G1 X-2.483 Y4.187 E1.21066
G1 X-3.402 Y3.482 E1.24216
G1 X-3.482 Y3.402 E1.24526
G1 X-4.187 Y2.483 E1.27676
G1 X-4.244 Y2.385 E1.27985
G1 X-4.687 Y1.315 E1.31136
G1 X-4.717 Y1.205 E1.31445
G1 X-4.868 Y0.057 E1.34596
G1 X-4.868 Y-0.057 E1.34905
G1 X-4.717 Y-1.205 E1.38056
G1 X-4.687 Y-1.315 E1.38365
G1 X-4.244 Y-2.385 E1.41516
G1 X-4.187 Y-2.483 E1.41825
G1 X-3.482 Y-3.402 E1.44976
G1 X-3.402 Y-3.482 E1.45285
G1 X-2.483 Y-4.187 E1.48436
G1 X-2.385 Y-4.244 E1.48745
G1 X-1.334 Y-4.679 E1.51839
G1 X-1.226 Y-4.708 E1.52143
G1 X-0.060 Y-4.868 E1.55345
G1 X0.056 Y-4.868 E1.55660
G1 X1.205 Y-4.717 E1.58814
G1 X1.315 Y-4.687 E1.59123
G1 X2.385 Y-4.244 E1.62274
G1 X2.483 Y-4.187 E1.62583
G1 X3.402 Y-3.482 E1.65734
G1 X3.482 Y-3.402 E1.66043
G1 X4.187 Y-2.483 E1.69193
G1 X4.244 Y-2.385 E1.69503
G1 X4.687 Y-1.315 E1.72653
G1 X4.717 Y-1.205 E1.72963
G1 X4.868 Y-0.057 E1.76113
G1 X4.868 Y0.057 E1.76423
G1 X4.717 Y1.205 E1.79573
G1 X4.687 Y1.315 E1.79883
G1 X4.277 Y2.304 E1.82797
G1 F1800.000 E0.82797
G92 E0
G1 X4.415 Y4.225 F7800.000
G1 X1.668 Y5.798
G1 X-0.270 Y6.053
G1 X-4.359 Y4.359
G1 X-13.835 Y-0.000
G1 X-15.132 Y0.057
G1 F1800.000 E1.00000
G1 X-15.283 Y1.205 F540.000 E1.03150
G1 X-15.313 Y1.315 E1.03460
G1 X-15.756 Y2.385 E1.06610
G1 X-15.813 Y2.483 E1.06920
G1 X-16.518 Y3.402 E1.10070
G1 X-16.598 Y3.482 E1.10380
G1 X-17.518 Y4.188 E1.13533
G1 X-17.618 Y4.246 E1.13848
G1 X-18.708 Y4.691 E1.17050
G1 X-18.815 Y4.719 E1.17354
G1 X-19.944 Y4.868 E1.20451
G1 X-20.060 Y4.868 E1.20766
G1 X-21.226 Y4.708 E1.23968
G1 X-21.334 Y4.679 E1.24272
G1 X-22.385 Y4.244 E1.27366
G1 X-22.483 Y4.187 E1.27676
G1 X-23.403 Y3.482 E1.30829
G1 X-23.484 Y3.400 E1.31144
G1 X-24.196 Y2.462 E1.34346
G1 X-24.252 Y2.366 E1.34650
G1 X-24.687 Y1.315 E1.37744
G1 X-24.717 Y1.205 E1.38054
G1 X-24.868 Y0.057 E1.41204
G1 X-24.868 Y-0.057 E1.41514
G1 X-24.717 Y-1.205 E1.44664
G1 X-24.687 Y-1.315 E1.44974
G1 X-24.252 Y-2.366 E1.48068
G1 X-24.196 Y-2.462 E1.48372
G1 X-23.484 Y-3.400 E1.51574
G1 X-23.403 Y-3.482 E1.51889
G1 X-22.483 Y-4.187 E1.55042
G1 X-22.385 Y-4.244 E1.55352
G1 X-21.334 Y-4.679 E1.58446
G1 X-21.226 Y-4.708 E1.58750
G1 X-20.060 Y-4.868 E1.61952
G1 X-19.944 Y-4.868 E1.62267
G1 X-18.795 Y-4.717 E1.65420
G1 X-18.685 Y-4.687 E1.65730
G1 X-17.615 Y-4.244 E1.68880
G1 X-17.517 Y-4.187 E1.69190
G1 X-16.598 Y-3.482 E1.72340
G1 X-16.518 Y-3.402 E1.72650
G1 X-15.813 Y-2.483 E1.75800
G1 X-15.756 Y-2.385 E1.76110
G1 X-15.313 Y-1.315 E1.79260
G1 X-15.283 Y-1.205 E1.79570
G1 X-15.132 Y-0.030 E1.82793
G1 F1800.000 E0.82793
G92 E0
G1 X-13.835 Y-0.000 F7800.000
G1 X-4.359 Y4.359
G1 X-0.270 Y6.053
G1 X1.668 Y5.798
G1 X13.835 Y-0.000
G1 X15.132 Y-0.057
G1 F1800.000 E1.00000
G1 X15.283 Y-1.205 F540.000 E1.03150
G1 X15.313 Y-1.315 E1.03460
G1 X15.756 Y-2.385 E1.06610
G1 X15.813 Y-2.483 E1.06920
G1 X16.518 Y-3.402 E1.10070
G1 X16.598 Y-3.482 E1.10380
G1 X17.517 Y-4.187 E1.13530
G1 X17.615 Y-4.244 E1.13840
G1 X18.666 Y-4.679 E1.16934
G1 X18.774 Y-4.708 E1.17238
G1 X19.940 Y-4.868 E1.20440
G1 X20.056 Y-4.868 E1.20755
G1 X21.205 Y-4.717 E1.23908
G1 X21.315 Y-4.687 E1.24218
G1 X22.385 Y-4.244 E1.27368
G1 X22.483 Y-4.187 E1.27678
G1 X23.402 Y-3.482 E1.30828
G1 X23.482 Y-3.402 E1.31138
G1 X24.187 Y-2.483 E1.34288
G1 X24.244 Y-2.385 E1.34598
G1 X24.687 Y-1.315 E1.37748
G1 X24.717 Y-1.205 E1.38058
G1 X24.868 Y-0.057 E1.41208
G1 X24.868 Y0.057 E1.41517
G1 X24.717 Y1.205 E1.44668
G1 X24.687 Y1.315 E1.44977
G1 X24.244 Y2.385 E1.48128
G1 X24.187 Y2.483 E1.48437
G1 X23.482 Y3.402 E1.51588
G1 X23.402 Y3.482 E1.51897
G1 X22.482 Y4.188 E1.55051
G1 X22.382 Y4.246 E1.55366
G1 X21.292 Y4.691 E1.58568
G1 X21.185 Y4.719 E1.58871
G1 X20.056 Y4.868 E1.61969
G1 X19.940 Y4.868 E1.62284
G1 X18.774 Y4.708 E1.65486
G1 X18.666 Y4.679 E1.65790
G1 X17.615 Y4.244 E1.68884
G1 X17.517 Y4.187 E1.69193
G1 X16.598 Y3.482 E1.72344
G1 X16.518 Y3.402 E1.72653
G1 X15.813 Y2.483 E1.75804
G1 X15.756 Y2.385 E1.76113
G1 X15.313 Y1.315 E1.79264
G1 X15.283 Y1.205 E1.79573
G1 X15.132 Y0.030 E1.82796
G1 F1800.000 E0.82796
G92 E0
G1 X13.835 Y-0.000 F7800.000
G1 X1.668 Y5.798
G1 X-0.270 Y6.053
G1 X-4.359 Y4.359
G1 X-13.835 Y-0.000
G1 X-17.259 Y0.039
G1 F1800.000 E1.00000
G1 X-17.443 Y0.935 F540.000 E1.02489
G1 X-18.039 Y1.912 E1.05604
G1 X-18.696 Y2.416 E1.07856
G1 X-19.255 Y2.644 E1.09498
G1 X-19.928 Y2.744 E1.11350
G1 X-20.779 Y2.632 E1.13686
G1 X-21.435 Y2.342 E1.15636
G1 X-21.883 Y1.999 E1.17172
G1 X-22.412 Y1.310 E1.19536
G1 X-22.671 Y0.641 E1.21486
G1 X-22.742 Y0.103 E1.22965
G1 X-22.546 Y-0.984 E1.25968
G1 X-22.356 Y-1.412 E1.27244
G1 X-21.907 Y-1.976 E1.29204
G1 X-21.324 Y-2.407 E1.31177
G1 X-20.802 Y-2.624 E1.32715
G1 X-19.940 Y-2.744 E1.35083
G1 X-19.234 Y-2.638 E1.37024
G1 X-18.712 Y-2.422 E1.38563
G1 X-18.017 Y-1.898 E1.40930
G1 X-17.593 Y-1.324 E1.42872
G1 X-17.376 Y-0.802 E1.44410
G1 X-17.271 Y-0.047 E1.46483
G1 F1800.000 E0.46483
G92 E0
G1 X-13.835 Y-0.000 F7800.000
G1 X-4.359 Y4.359
G1 X-0.270 Y6.053
G1 X1.668 Y5.798
G1 X13.835 Y-0.000
G1 X17.258 Y0.103
G1 F1800.000 E1.00000
G1 X17.454 Y-0.984 F540.000 E1.03003
G1 X17.644 Y-1.412 E1.04280
G1 X18.093 Y-1.976 E1.06240
G1 X18.676 Y-2.407 E1.08212
G1 X19.198 Y-2.624 E1.09750
G1 X20.060 Y-2.744 E1.12118
G1 X20.766 Y-2.638 E1.14060
G1 X21.288 Y-2.422 E1.15598
G1 X21.983 Y-1.898 E1.17966
G1 X22.407 Y-1.324 E1.19907
G1 X22.624 Y-0.802 E1.21445
G1 X22.741 Y0.039 E1.23754
G1 X22.557 Y0.935 E1.26243
G1 X21.961 Y1.912 E1.29358
G1 X21.304 Y2.416 E1.31610
G1 X20.745 Y2.644 E1.33252
G1 X20.072 Y2.744 E1.35104
G1 X19.221 Y2.632 E1.37440
G1 X18.565 Y2.342 E1.39391
G1 X18.117 Y1.999 E1.40927
G1 X17.588 Y1.310 E1.43290
G1 X17.329 Y0.641 E1.45240
G1 X17.269 Y0.189 E1.46483
G1 F1800.000 E0.46483
G92 E0
G1 X13.835 Y-0.000 F7800.000
G1 X6.165 Y-0.000
G1 X2.741 Y0.040
G1 F1800.000 E1.00000
G1 X2.557 Y0.935 F540.000 E1.02486
G1 X1.961 Y1.912 E1.05601
G1 X1.305 Y2.416 E1.07851
G1 X0.745 Y2.642 E1.09493
G1 X0.071 Y2.744 E1.11349
G1 X-0.780 Y2.632 E1.13683
G1 X-1.434 Y2.344 E1.15628
G1 X-1.882 Y1.997 E1.17168
G1 X-2.413 Y1.309 E1.19534
G1 X-2.672 Y0.642 E1.21481
G1 X-2.742 Y0.103 E1.22959
G1 X-2.546 Y-0.984 E1.25963
G1 X-2.356 Y-1.412 E1.27240
G1 X-1.907 Y-1.976 E1.29200
G1 X-1.324 Y-2.407 E1.31172
G1 X-0.802 Y-2.624 E1.32710
G1 X0.060 Y-2.744 E1.35078
G1 X0.766 Y-2.638 E1.37020
G1 X1.288 Y-2.422 E1.38558
G1 X1.983 Y-1.898 E1.40926
G1 X2.406 Y-1.326 E1.42862
G1 X2.621 Y-0.801 E1.44404
G1 X2.728 Y-0.046 E1.46479
G1 X4.289 Y-0.019 F7800.000
G1 X4.138 Y1.128 F540.000 E1.49628
G1 X3.724 Y2.128 E1.52572
G1 X3.046 Y3.020 E1.55619
G1 X2.127 Y3.725 E1.58770
G1 X1.108 Y4.141 E1.61766
G1 X0.019 Y4.289 E1.64757
G1 X-1.147 Y4.131 E1.67957
G1 X-2.161 Y3.705 E1.70949
G1 X-3.020 Y3.046 E1.73893
G1 X-3.724 Y2.128 E1.77042
G1 X-4.138 Y1.128 E1.79986
G1 X-4.289 Y0.019 E1.83033
G1 X-4.138 Y-1.128 E1.86181
G1 X-3.724 Y-2.128 E1.89125
G1 X-3.046 Y-3.020 E1.92172
G1 X-2.128 Y-3.724 E1.95320
G1 X-1.111 Y-4.140 E1.98311
G1 X-0.020 Y-4.289 E2.01306
G1 X1.128 Y-4.138 E2.04458
G1 X2.128 Y-3.724 E2.07402
G1 X3.020 Y-3.046 E2.10448
G1 X3.724 Y-2.128 E2.13597
G1 X4.138 Y-1.128 E2.16541
G1 X4.278 Y-0.105 E2.19352
G1 F1800.000 E1.19352
G92 E0
G1 X6.165 Y-0.000 F7800.000
G1 X4.415 Y4.225
G1 X1.668 Y5.798
G1 X-0.270 Y6.053
G1 X-4.359 Y4.359
G1 X-13.835 Y-0.000
G1 X-15.711 Y-0.019
G1 F1800.000 E1.00000
G1 X-15.862 Y1.128 F540.000 E1.03149
G1 X-16.295 Y2.161 E1.06195
G1 X-16.954 Y3.020 E1.09139
G1 X-17.873 Y3.725 E1.12291
G1 X-18.892 Y4.141 E1.15286
G1 X-19.981 Y4.289 E1.18278
G1 X-21.147 Y4.131 E1.21478
G1 X-22.161 Y3.705 E1.24470
G1 X-23.020 Y3.046 E1.27415
G1 X-23.732 Y2.110 E1.30615
G1 X-24.148 Y1.092 E1.33607
G1 X-24.289 Y0.019 E1.36551
G1 X-24.138 Y-1.128 E1.39700
G1 X-23.713 Y-2.142 E1.42691
G1 X-23.047 Y-3.019 E1.45686
G1 X-22.128 Y-3.724 E1.48838
G1 X-21.111 Y-4.140 E1.51828
G1 X-20.020 Y-4.289 E1.54824
G1 X-18.872 Y-4.138 E1.57975
G1 X-17.839 Y-3.705 E1.61021
G1 X-16.980 Y-3.046 E1.63965
G1 X-16.276 Y-2.128 E1.67114
G1 X-15.862 Y-1.128 E1.70058
G1 X-15.722 Y-0.105 E1.72869
G1 F1800.000 E0.72869
G92 E0
G1 X-13.835 Y-0.000 F7800.000
G1 X-4.359 Y4.359
G1 X-0.270 Y6.053
G1 X1.668 Y5.798
G1 X13.835 Y-0.000
G1 X15.711 Y-0.019
G1 F1800.000 E1.00000
G1 X15.862 Y-1.128 F540.000 E1.03046
G1 X16.276 Y-2.128 E1.05991
G1 X16.980 Y-3.046 E1.09139
G1 X17.839 Y-3.705 E1.12083
G1 X18.853 Y-4.131 E1.15075
G1 X20.019 Y-4.289 E1.18276
G1 X21.128 Y-4.138 E1.21323
G1 X22.161 Y-3.705 E1.24369
G1 X23.020 Y-3.046 E1.27314
G1 X23.724 Y-2.128 E1.30462
G1 X24.138 Y-1.128 E1.33406
G1 X24.289 Y-0.019 E1.36453
G1 X24.138 Y1.128 E1.39601
G1 X23.705 Y2.161 E1.42648
G1 X23.046 Y3.020 E1.45592
G1 X22.127 Y3.725 E1.48743
G1 X21.108 Y4.141 E1.51739
G1 X20.019 Y4.289 E1.54730
G1 X18.853 Y4.131 E1.57931
G1 X17.839 Y3.705 E1.60923
G1 X16.980 Y3.046 E1.63867
G1 X16.276 Y2.128 E1.67015
G1 X15.862 Y1.128 E1.69960
G1 X15.717 Y0.067 E1.72873
G1 F1800.000 E0.72873
G92 E0
G1 X13.835 Y-0.000 F7800.000
G1 X1.668 Y5.798
G1 X-0.270 Y6.053
G1 X-4.359 Y4.359
G1 X-13.835 Y-0.000
G1 X-16.672 Y0.057
G1 F1800.000 E1.00000
G1 X-16.897 Y1.150 F540.000 E1.03034
G1 X-17.601 Y2.306 E1.06717
G1 X-18.406 Y2.923 E1.09475
G1 X-19.101 Y3.206 E1.11518
G1 X-19.923 Y3.328 E1.13779
G1 X-20.937 Y3.194 E1.16562
G1 X-21.732 Y2.844 E1.18926
G1 X-22.296 Y2.411 E1.20859
G1 X-22.921 Y1.596 E1.23654
G1 X-23.236 Y0.786 E1.26019
G1 X-23.328 Y0.089 E1.27932
G1 X-23.103 Y-1.155 E1.31371
G1 X-22.854 Y-1.715 E1.33038
G1 X-22.312 Y-2.396 E1.35406
G1 X-21.611 Y-2.914 E1.37778
G1 X-20.955 Y-3.187 E1.39711
G1 X-19.937 Y-3.329 E1.42507
G1 X-19.078 Y-3.200 E1.44869
G1 X-18.422 Y-2.929 E1.46802
G1 X-17.602 Y-2.309 E1.49598
G1 X-17.086 Y-1.611 E1.51960
G1 X-16.814 Y-0.955 E1.53892
G1 X-16.684 Y-0.029 E1.56438
G1 F1800.000 E0.56438
G92 E0
G1 X-13.835 Y-0.000 F7800.000
G1 X-4.359 Y4.359
G1 X-0.270 Y6.053
G1 X1.668 Y5.798
G1 X13.835 Y-0.000
G1 X16.672 Y0.089
G1 F1800.000 E1.00000
G1 X16.897 Y-1.155 F540.000 E1.03438
G1 X17.146 Y-1.715 E1.05105
G1 X17.688 Y-2.396 E1.07474
G1 X18.389 Y-2.914 E1.09846
G1 X19.045 Y-3.187 E1.11778
G1 X20.063 Y-3.329 E1.14575
G1 X20.922 Y-3.200 E1.16937
G1 X21.578 Y-2.929 E1.18869
G1 X22.398 Y-2.309 E1.21666
G1 X22.914 Y-1.611 E1.24028
G1 X23.186 Y-0.955 E1.25960
G1 X23.328 Y0.057 E1.28741
G1 X23.103 Y1.150 E1.31775
G1 X22.399 Y2.306 E1.35458
G1 X21.594 Y2.923 E1.38217
G1 X20.899 Y3.206 E1.40259
G1 X20.077 Y3.328 E1.42521
G1 X19.063 Y3.194 E1.45303
G1 X18.268 Y2.844 E1.47668
G1 X17.704 Y2.411 E1.49600
G1 X17.079 Y1.596 E1.52396
G1 X16.764 Y0.786 E1.54761
G1 X16.684 Y0.175 E1.56438
G1 F1800.000 E0.56438
G92 E0
G1 X13.835 Y-0.000 F7800.000
G1 X6.165 Y-0.000
G1 X3.328 Y0.058
G1 F1800.000 E1.00000
G1 X3.103 Y1.150 F540.000 E1.03033
G1 X2.399 Y2.306 E1.06716
G1 X1.595 Y2.923 E1.09474
G1 X0.899 Y3.204 E1.11516
G1 X0.076 Y3.328 E1.13778
G1 X-0.937 Y3.195 E1.16560
G1 X-1.732 Y2.844 E1.18923
G1 X-2.294 Y2.410 E1.20857
G1 X-2.922 Y1.596 E1.23653
G1 X-3.236 Y0.786 E1.26016
G1 X-3.328 Y0.089 E1.27930
G1 X-3.103 Y-1.155 E1.31368
G1 X-2.854 Y-1.715 E1.33035
G1 X-2.312 Y-2.396 E1.35403
G1 X-1.611 Y-2.914 E1.37776
G1 X-0.955 Y-3.187 E1.39708
G1 X0.063 Y-3.329 E1.42505
G1 X0.921 Y-3.200 E1.44867
G1 X1.578 Y-2.929 E1.46799
G1 X2.398 Y-2.309 E1.49596
G1 X2.914 Y-1.612 E1.51956
G1 X3.184 Y-0.954 E1.53890
G1 X3.315 Y-0.028 E1.56435
G1 F1800.000 E0.56435
G92 E0
G1 X17.498 Y2.618 F7800.000
G1 F1800.000 E1.00000
G1 X18.119 Y3.094 F540.000 E1.02131
G1 X18.984 Y3.476 E1.04703
G1 X20.079 Y3.620 E1.07708
G1 X20.976 Y3.487 E1.10174
G1 X21.739 Y3.176 E1.12417
G1 X22.618 Y2.502 E1.15429
G1 X23.376 Y1.257 E1.19395
G1 X23.621 Y0.067 E1.22702
G1 X23.468 Y-1.032 E1.25720
G1 X23.168 Y-1.755 E1.27849
G1 X22.606 Y-2.515 E1.30421
G1 X21.723 Y-3.182 E1.33432
G1 X20.999 Y-3.481 E1.35562
G1 X20.064 Y-3.621 E1.38134
G1 X18.968 Y-3.468 E1.41145
G1 X18.245 Y-3.168 E1.43274
G1 X17.485 Y-2.606 E1.45847
G1 X16.896 Y-1.866 E1.48419
G1 X16.618 Y-1.241 E1.50281
G1 X16.380 Y0.082 E1.53937
G1 X16.482 Y0.858 E1.56068
G1 X16.824 Y1.739 E1.58640
G1 X17.498 Y2.618 E1.61652
G1 F1800.000 E0.61652
G92 E0
G1 X15.641 Y4.359 F7800.000
G1 X-0.270 Y6.053
G1 X-4.359 Y4.359
G1 X-2.501 Y2.616
G1 F1800.000 E1.00000
G1 X-1.881 Y3.095 F540.000 E1.02131
G1 X-1.016 Y3.476 E1.04703
G1 X0.079 Y3.620 E1.07709
G1 X0.976 Y3.485 E1.10175
G1 X1.740 Y3.177 E1.12416
G1 X2.618 Y2.502 E1.15429
G1 X3.376 Y1.257 E1.19395
G1 X3.621 Y0.067 E1.22702
G1 X3.465 Y-1.031 E1.25717
G1 X3.168 Y-1.755 E1.27847
G1 X2.606 Y-2.515 E1.30419
G1 X1.723 Y-3.182 E1.33430
G1 X0.999 Y-3.481 E1.35560
G1 X0.064 Y-3.621 E1.38132
G1 X-1.032 Y-3.468 E1.41143
G1 X-1.755 Y-3.168 E1.43273
