; generated by Slic3r 0.9.9 on 2013-05-01 at 17:46:21

; layer_height = 0.3
; perimeters = 2
; top_solid_layers = 3
; bottom_solid_layers = 3
; fill_density = 0.1
; perimeter_speed = 30
; infill_speed = 60
; travel_speed = 130
; nozzle_diameter = 0.5
; filament_diameter = 2.85
; extrusion_multiplier = 1
; perimeters extrusion width = 0.70mm
; infill extrusion width = 0.70mm
; solid infill extrusion width = 0.70mm
; top infill extrusion width = 0.70mm
; first layer extrusion width = 0.60mm

G21 ; set units to millimeters
M107
M104 S0
M83
M140 S80
G28
G1Y98F9000
M190 S80
G1X5Y98Z150F9000
M104 S210
G1X5Y98Z1F9000
G1Z0.05
M109 S210
G1Z5
G1X15
;G1E5F50
G90 ; use absolute coordinates
G92 E0
M82 ; use absolute distances for extrusion
G1 F1800.000 E-1.00000
G92 E0
G1 Z0.300 F7800.000
G1 X16.790 Y10.570
G1 F1800.000 E1.00000
G1 X-16.810 Y10.570 F540.000 E1.91414
G1 X-17.680 Y10.510 E1.93787
G1 X-18.730 Y10.370 E1.96669
G1 X-19.060 Y10.320 E1.97577
G1 X-19.720 Y10.160 E1.99425
G1 X-20.360 Y9.940 E2.01266
G1 X-21.310 Y9.550 E2.04060
G1 X-21.580 Y9.430 E2.04864
G1 X-22.110 Y9.150 E2.06494
G1 X-22.860 Y8.650 E2.08947
G1 X-23.680 Y8.010 E2.11777
G1 X-24.170 Y7.580 E2.13550
G1 X-24.630 Y7.100 E2.15359
G1 X-25.690 Y5.720 E2.20094
G1 X-25.890 Y5.420 E2.21074
G1 X-26.060 Y5.120 E2.22013
G1 X-26.370 Y4.480 E2.23947
G1 X-26.760 Y3.530 E2.26741
G1 X-26.980 Y2.890 E2.28583
G1 X-27.140 Y2.240 E2.30404
G1 X-27.330 Y0.870 E2.34167
G1 X-27.390 Y0.160 E2.36105
G1 X-27.370 Y-0.540 E2.38011
G1 X-27.140 Y-2.260 E2.42732
G1 X-26.980 Y-2.910 E2.44553
G1 X-26.760 Y-3.540 E2.46368
G1 X-26.370 Y-4.490 E2.49162
G1 X-26.060 Y-5.130 E2.51097
G1 X-25.890 Y-5.430 E2.52035
G1 X-25.480 Y-6.020 E2.53990
G1 X-24.630 Y-7.110 E2.57751
G1 X-24.410 Y-7.350 E2.58636
G1 X-23.930 Y-7.810 E2.60445
G1 X-22.860 Y-8.660 E2.64163
G1 X-22.620 Y-8.830 E2.64963
G1 X-22.110 Y-9.160 E2.66616
G1 X-21.580 Y-9.440 E2.68247
G1 X-20.360 Y-9.950 E2.71844
G1 X-20.050 Y-10.060 E2.72739
G1 X-19.430 Y-10.250 E2.74503
G1 X-18.790 Y-10.370 E2.76275
G1 X-17.740 Y-10.520 E2.79161
G1 X-16.810 Y-10.590 E2.81698
G1 X16.790 Y-10.590 E3.73112
G1 X17.670 Y-10.530 E3.75512
G1 X19.050 Y-10.340 E3.79302
G1 X20.040 Y-10.070 E3.82094
G1 X21.320 Y-9.540 E3.85863
G1 X21.940 Y-9.240 E3.87737
G1 X22.530 Y-8.880 E3.89617
G1 X23.640 Y-8.040 E3.93405
G1 X24.150 Y-7.600 E3.95237
G1 X24.620 Y-7.110 E3.97084
G1 X25.470 Y-6.020 E4.00845
G1 X25.860 Y-5.450 E4.02724
G1 X26.190 Y-4.840 E4.04611
G1 X26.860 Y-3.240 E4.09330
G1 X27.060 Y-2.560 E4.11259
G1 X27.130 Y-2.210 E4.12230
G1 X27.320 Y-0.830 E4.16020
G1 X27.370 Y-0.180 E4.17793
G1 X27.350 Y0.480 E4.19590
G1 X27.190 Y1.850 E4.23342
G1 X27.060 Y2.550 E4.25279
G1 X26.860 Y3.230 E4.27208
G1 X26.330 Y4.520 E4.31002
G1 X26.030 Y5.140 E4.32876
G1 X25.670 Y5.730 E4.34757
G1 X24.830 Y6.840 E4.38544
G1 X24.390 Y7.350 E4.40376
G1 X23.900 Y7.820 E4.42224
G1 X22.520 Y8.880 E4.46958
G1 X21.920 Y9.250 E4.48876
G1 X21.280 Y9.550 E4.50799
G1 X20.300 Y9.950 E4.53678
G1 X19.650 Y10.180 E4.55554
G1 X18.980 Y10.330 E4.57422
G1 X17.620 Y10.520 E4.61158
G1 X16.877 Y10.565 E4.63185
G1 F1800.000 E3.63185
G92 E0
G1 X16.856 Y4.868 F7800.000
G1 F1800.000 E1.00000
G1 X16.740 Y4.868 F540.000 E1.00315
G1 X15.574 Y4.708 E1.03517
G1 X15.466 Y4.679 E1.03821
G1 X14.415 Y4.244 E1.06915
G1 X14.317 Y4.187 E1.07225
G1 X13.397 Y3.482 E1.10378
G1 X13.316 Y3.400 E1.10693
G1 X12.604 Y2.462 E1.13895
G1 X12.548 Y2.366 E1.14199
G1 X12.113 Y1.315 E1.17293
G1 X12.083 Y1.205 E1.17603
G1 X11.932 Y0.057 E1.20753
G1 X11.932 Y-0.057 E1.21063
G1 X12.083 Y-1.205 E1.24213
G1 X12.113 Y-1.315 E1.24523
G1 X12.548 Y-2.366 E1.27617
G1 X12.604 Y-2.462 E1.27921
G1 X13.316 Y-3.400 E1.31123
G1 X13.397 Y-3.482 E1.31438
G1 X14.317 Y-4.187 E1.34591
G1 X14.415 Y-4.244 E1.34901
G1 X15.466 Y-4.679 E1.37995
G1 X15.574 Y-4.708 E1.38299
G1 X16.740 Y-4.868 E1.41501
G1 X16.856 Y-4.868 E1.41816
G1 X18.005 Y-4.717 E1.44969
G1 X18.115 Y-4.687 E1.45279
G1 X19.185 Y-4.244 E1.48429
G1 X19.283 Y-4.187 E1.48739
G1 X20.202 Y-3.482 E1.51889
G1 X20.282 Y-3.402 E1.52199
G1 X20.987 Y-2.483 E1.55349
G1 X21.044 Y-2.385 E1.55659
G1 X21.487 Y-1.315 E1.58809
G1 X21.517 Y-1.205 E1.59118
G1 X21.668 Y-0.057 E1.62269
G1 X21.668 Y0.057 E1.62578
G1 X21.517 Y1.205 E1.65729
G1 X21.487 Y1.315 E1.66038
G1 X21.044 Y2.385 E1.69189
G1 X20.987 Y2.483 E1.69498
G1 X20.282 Y3.402 E1.72649
G1 X20.202 Y3.482 E1.72958
G1 X19.282 Y4.188 E1.76111
G1 X19.182 Y4.246 E1.76427
G1 X18.092 Y4.691 E1.79629
G1 X17.985 Y4.719 E1.79932
G1 X16.942 Y4.857 E1.82794
G1 F1800.000 E0.82794
G92 E0
G1 X-10.635 Y-0.000 F7800.000
G1 X-12.083 Y1.205
G1 F1800.000 E1.00000
G1 X-12.113 Y1.315 F540.000 E1.00309
G1 X-12.556 Y2.385 E1.03460
G1 X-12.613 Y2.483 E1.03769
G1 X-13.318 Y3.402 E1.06920
G1 X-13.398 Y3.482 E1.07229
G1 X-14.318 Y4.188 E1.10383
G1 X-14.418 Y4.246 E1.10698
G1 X-15.508 Y4.691 E1.13900
G1 X-15.615 Y4.719 E1.14203
G1 X-16.744 Y4.868 E1.17301
G1 X-16.860 Y4.868 E1.17616
G1 X-18.026 Y4.708 E1.20818
G1 X-18.134 Y4.679 E1.21122
G1 X-19.185 Y4.244 E1.24216
G1 X-19.283 Y4.187 E1.24526
G1 X-20.203 Y3.482 E1.27679
G1 X-20.284 Y3.400 E1.27994
G1 X-20.996 Y2.462 E1.31196
G1 X-21.052 Y2.366 E1.31500
G1 X-21.487 Y1.315 E1.34594
G1 X-21.517 Y1.205 E1.34904
G1 X-21.668 Y0.057 E1.38054
G1 X-21.668 Y-0.057 E1.38363
G1 X-21.517 Y-1.205 E1.41514
G1 X-21.487 Y-1.315 E1.41823
G1 X-21.052 Y-2.366 E1.44918
G1 X-20.996 Y-2.462 E1.45222
G1 X-20.284 Y-3.400 E1.48424
G1 X-20.203 Y-3.482 E1.48739
G1 X-19.283 Y-4.187 E1.51892
G1 X-19.185 Y-4.244 E1.52201
G1 X-18.134 Y-4.679 E1.55296
G1 X-18.026 Y-4.708 E1.55600
G1 X-16.860 Y-4.868 E1.58802
G1 X-16.744 Y-4.868 E1.59117
G1 X-15.595 Y-4.717 E1.62270
G1 X-15.485 Y-4.687 E1.62580
G1 X-14.415 Y-4.244 E1.65730
G1 X-14.317 Y-4.187 E1.66039
G1 X-13.398 Y-3.482 E1.69190
G1 X-13.318 Y-3.402 E1.69499
G1 X-12.613 Y-2.483 E1.72650
G1 X-12.556 Y-2.385 E1.72959
G1 X-12.113 Y-1.315 E1.76110
G1 X-12.083 Y-1.205 E1.76419
G1 X-11.932 Y-0.057 E1.79570
G1 X-11.932 Y0.057 E1.79879
G1 X-12.072 Y1.119 E1.82794
G1 F1800.000 E0.82794
G92 E0
G1 X-10.635 Y-0.000 F7800.000
G1 X-4.868 Y0.057
G1 F1800.000 E1.00000
G1 X-4.868 Y-0.057 F540.000 E1.00310
G1 X-4.717 Y-1.205 E1.03460
G1 X-4.687 Y-1.315 E1.03769
G1 X-4.252 Y-2.366 E1.06864
G1 X-4.196 Y-2.462 E1.07168
G1 X-3.484 Y-3.400 E1.10370
G1 X-3.403 Y-3.482 E1.10685
G1 X-2.483 Y-4.187 E1.13838
G1 X-2.385 Y-4.244 E1.14147
G1 X-1.334 Y-4.679 E1.17242
G1 X-1.226 Y-4.708 E1.17546
G1 X-0.060 Y-4.868 E1.20748
G1 X0.056 Y-4.868 E1.21063
G1 X1.205 Y-4.717 E1.24216
G1 X1.315 Y-4.687 E1.24526
G1 X2.385 Y-4.244 E1.27676
G1 X2.483 Y-4.187 E1.27985
G1 X3.402 Y-3.482 E1.31136
G1 X3.482 Y-3.402 E1.31445
G1 X4.187 Y-2.483 E1.34596
G1 X4.244 Y-2.385 E1.34905
G1 X4.687 Y-1.315 E1.38056
G1 X4.717 Y-1.205 E1.38365
G1 X4.868 Y-0.057 E1.41516
G1 X4.868 Y0.057 E1.41825
G1 X4.717 Y1.205 E1.44976
G1 X4.687 Y1.315 E1.45285
G1 X4.244 Y2.385 E1.48436
G1 X4.187 Y2.483 E1.48745
G1 X3.482 Y3.402 E1.51896
G1 X3.402 Y3.482 E1.52205
G1 X2.482 Y4.188 E1.55358
G1 X2.382 Y4.246 E1.55673
G1 X1.292 Y4.691 E1.58875
G1 X1.185 Y4.719 E1.59179
G1 X0.056 Y4.868 E1.62276
G1 X-0.060 Y4.868 E1.62592
G1 X-1.226 Y4.708 E1.65794
G1 X-1.334 Y4.679 E1.66097
G1 X-2.385 Y4.244 E1.69192
G1 X-2.483 Y4.187 E1.69501
G1 X-3.403 Y3.482 E1.72654
G1 X-3.484 Y3.400 E1.72969
G1 X-4.196 Y2.462 E1.76171
G1 X-4.252 Y2.366 E1.76475
G1 X-4.687 Y1.315 E1.79570
G1 X-4.717 Y1.205 E1.79879
G1 X-4.856 Y0.143 E1.82794
G1 F1800.000 E0.82794
G92 E0
G1 X-10.635 Y-0.000 F7800.000
G1 X-14.059 Y0.039
G1 F1800.000 E1.00000
G1 X-14.243 Y0.935 F540.000 E1.02489
G1 X-14.839 Y1.912 E1.05604
G1 X-15.496 Y2.416 E1.07856
G1 X-16.055 Y2.644 E1.09498
G1 X-16.728 Y2.744 E1.11350
G1 X-17.579 Y2.632 E1.13686
G1 X-18.235 Y2.342 E1.15636
G1 X-18.683 Y1.999 E1.17172
G1 X-19.212 Y1.310 E1.19536
G1 X-19.471 Y0.641 E1.21486
G1 X-19.542 Y0.103 E1.22965
G1 X-19.346 Y-0.984 E1.25968
G1 X-19.156 Y-1.412 E1.27244
G1 X-18.707 Y-1.976 E1.29204
G1 X-18.124 Y-2.407 E1.31177
G1 X-17.602 Y-2.624 E1.32715
G1 X-16.740 Y-2.744 E1.35083
G1 X-16.034 Y-2.638 E1.37024
G1 X-15.512 Y-2.422 E1.38563
G1 X-14.817 Y-1.898 E1.40930
G1 X-14.393 Y-1.324 E1.42872
G1 X-14.176 Y-0.802 E1.44410
G1 X-14.071 Y-0.047 E1.46483
G1 F1800.000 E0.46483
G92 E0
G1 X-10.635 Y-0.000 F7800.000
G1 X-2.742 Y0.103
G1 F1800.000 E1.00000
G1 X-2.546 Y-0.984 F540.000 E1.03003
G1 X-2.356 Y-1.412 E1.04280
G1 X-1.907 Y-1.976 E1.06240
G1 X-1.324 Y-2.407 E1.08212
G1 X-0.802 Y-2.624 E1.09750
G1 X0.060 Y-2.744 E1.12118
G1 X0.766 Y-2.638 E1.14060
G1 X1.288 Y-2.422 E1.15598
G1 X1.983 Y-1.898 E1.17966
G1 X2.407 Y-1.324 E1.19907
G1 X2.624 Y-0.802 E1.21445
G1 X2.741 Y0.039 E1.23754
G1 X2.557 Y0.935 E1.26243
G1 X1.961 Y1.912 E1.29358
G1 X1.304 Y2.416 E1.31610
G1 X0.745 Y2.644 E1.33252
G1 X0.072 Y2.744 E1.35104
G1 X-0.779 Y2.632 E1.37440
G1 X-1.435 Y2.342 E1.39391
G1 X-1.883 Y1.999 E1.40927
G1 X-2.412 Y1.310 E1.43290
G1 X-2.671 Y0.641 E1.45240
G1 X-2.731 Y0.189 E1.46483
G1 F1800.000 E0.46483
G92 E0
G1 X-10.635 Y-0.000 F7800.000
G1 X14.058 Y0.103
G1 F1800.000 E1.00000
G1 X14.254 Y-0.984 F540.000 E1.03003
G1 X14.444 Y-1.412 E1.04280
G1 X14.893 Y-1.976 E1.06240
G1 X15.476 Y-2.407 E1.08212
G1 X15.998 Y-2.624 E1.09750
G1 X16.860 Y-2.744 E1.12118
G1 X17.566 Y-2.638 E1.14060
G1 X18.088 Y-2.422 E1.15598
G1 X18.783 Y-1.898 E1.17966
G1 X19.207 Y-1.324 E1.19907
G1 X19.424 Y-0.802 E1.21445
G1 X19.541 Y0.039 E1.23754
G1 X19.357 Y0.935 E1.26243
G1 X18.761 Y1.912 E1.29358
G1 X18.104 Y2.416 E1.31610
G1 X17.545 Y2.644 E1.33252
G1 X16.872 Y2.744 E1.35104
G1 X16.021 Y2.632 E1.37440
G1 X15.365 Y2.342 E1.39391
G1 X14.917 Y1.999 E1.40927
G1 X14.388 Y1.310 E1.43290
G1 X14.129 Y0.641 E1.45240
G1 X14.069 Y0.189 E1.46483
G1 X12.511 Y0.019 F7800.000
G1 X12.662 Y-1.128 F540.000 E1.49631
G1 X13.087 Y-2.142 E1.52622
G1 X13.753 Y-3.019 E1.55617
G1 X14.672 Y-3.724 E1.58769
G1 X15.689 Y-4.140 E1.61759
G1 X16.780 Y-4.289 E1.64755
G1 X17.928 Y-4.138 E1.67906
G1 X18.961 Y-3.705 E1.70953
G1 X19.820 Y-3.046 E1.73897
G1 X20.524 Y-2.128 E1.77045
G1 X20.938 Y-1.128 E1.79989
G1 X21.089 Y-0.019 E1.83036
G1 X20.938 Y1.128 E1.86185
G1 X20.505 Y2.161 E1.89231
G1 X19.846 Y3.020 E1.92175
G1 X18.927 Y3.725 E1.95326
G1 X17.908 Y4.141 E1.98322
G1 X16.819 Y4.289 E2.01313
G1 X15.653 Y4.131 E2.04514
G1 X14.639 Y3.705 E2.07506
G1 X13.780 Y3.046 E2.10451
G1 X13.068 Y2.110 E2.13651
G1 X12.662 Y1.128 E2.16541
G1 X12.522 Y0.105 E2.19351
G1 F1800.000 E1.19351
G92 E0
G1 X-10.635 Y-0.000 F7800.000
G1 X-12.511 Y0.019
G1 F1800.000 E1.00000
G1 X-12.662 Y1.128 F540.000 E1.03046
G1 X-13.076 Y2.128 E1.05991
G1 X-13.780 Y3.046 E1.09139
G1 X-14.673 Y3.725 E1.12188
G1 X-15.692 Y4.141 E1.15184
G1 X-16.781 Y4.289 E1.18175
G1 X-17.947 Y4.131 E1.21376
G1 X-18.961 Y3.705 E1.24368
G1 X-19.820 Y3.046 E1.27313
G1 X-20.532 Y2.110 E1.30513
G1 X-20.948 Y1.092 E1.33505
G1 X-21.089 Y0.019 E1.36449
G1 X-20.938 Y-1.128 E1.39598
G1 X-20.513 Y-2.142 E1.42588
G1 X-19.847 Y-3.019 E1.45584
G1 X-18.928 Y-3.724 E1.48735
G1 X-17.911 Y-4.140 E1.51726
G1 X-16.820 Y-4.289 E1.54721
G1 X-15.672 Y-4.138 E1.57873
G1 X-14.639 Y-3.705 E1.60919
G1 X-13.780 Y-3.046 E1.63863
G1 X-13.076 Y-2.128 E1.67012
G1 X-12.662 Y-1.128 E1.69956
G1 X-12.517 Y-0.067 E1.72870
G1 F1800.000 E0.72870
G92 E0
G1 X-10.635 Y-0.000 F7800.000
G1 X-4.289 Y-0.019
G1 F1800.000 E1.00000
G1 X-4.148 Y-1.092 F540.000 E1.02944
G1 X-3.732 Y-2.110 E1.05936
G1 X-3.020 Y-3.046 E1.09137
G1 X-2.161 Y-3.705 E1.12082
G1 X-1.147 Y-4.131 E1.15074
G1 X0.019 Y-4.289 E1.18274
G1 X1.128 Y-4.138 E1.21321
G1 X2.161 Y-3.705 E1.24368
G1 X3.020 Y-3.046 E1.27312
G1 X3.724 Y-2.128 E1.30460
G1 X4.138 Y-1.128 E1.33405
G1 X4.289 Y-0.019 E1.36451
G1 X4.138 Y1.128 E1.39600
G1 X3.705 Y2.161 E1.42646
G1 X3.046 Y3.020 E1.45590
G1 X2.127 Y3.725 E1.48742
G1 X1.108 Y4.141 E1.51737
G1 X0.019 Y4.289 E1.54729
G1 X-1.147 Y4.131 E1.57929
G1 X-2.161 Y3.705 E1.60921
G1 X-3.020 Y3.046 E1.63866
G1 X-3.732 Y2.110 E1.67066
G1 X-4.138 Y1.128 E1.69956
G1 X-4.283 Y0.067 E1.72870
G1 F1800.000 E0.72870
G92 E0
G1 X-10.635 Y-0.000 F7800.000
G1 X-13.472 Y0.057
G1 F1800.000 E1.00000
G1 X-13.697 Y1.150 F540.000 E1.03034
G1 X-14.401 Y2.306 E1.06717
G1 X-15.206 Y2.923 E1.09475
G1 X-15.901 Y3.206 E1.11518
G1 X-16.723 Y3.328 E1.13779
G1 X-17.737 Y3.194 E1.16562
G1 X-18.532 Y2.844 E1.18926
G1 X-19.096 Y2.411 E1.20859
G1 X-19.721 Y1.596 E1.23654
G1 X-20.036 Y0.786 E1.26019
G1 X-20.128 Y0.089 E1.27932
G1 X-19.903 Y-1.155 E1.31371
G1 X-19.654 Y-1.715 E1.33038
G1 X-19.112 Y-2.396 E1.35406
G1 X-18.411 Y-2.914 E1.37778
G1 X-17.755 Y-3.187 E1.39711
G1 X-16.737 Y-3.329 E1.42507
G1 X-15.878 Y-3.200 E1.44869
G1 X-15.222 Y-2.929 E1.46802
G1 X-14.402 Y-2.309 E1.49598
G1 X-13.886 Y-1.611 E1.51960
G1 X-13.614 Y-0.955 E1.53892
G1 X-13.484 Y-0.029 E1.56438
G1 F1800.000 E0.56438
G92 E0
G1 X-10.635 Y-0.000 F7800.000
G1 X-3.328 Y0.089
G1 F1800.000 E1.00000
G1 X-3.103 Y-1.155 F540.000 E1.03438
G1 X-2.854 Y-1.715 E1.05105
G1 X-2.312 Y-2.396 E1.07474
G1 X-1.611 Y-2.914 E1.09846
G1 X-0.955 Y-3.187 E1.11778
G1 X0.063 Y-3.329 E1.14575
G1 X0.922 Y-3.200 E1.16937
G1 X1.578 Y-2.929 E1.18869
G1 X2.398 Y-2.309 E1.21666
G1 X2.914 Y-1.611 E1.24028
G1 X3.186 Y-0.955 E1.25960
G1 X3.328 Y0.057 E1.28741
G1 X3.103 Y1.150 E1.31775
G1 X2.399 Y2.306 E1.35458
G1 X1.594 Y2.923 E1.38217
G1 X0.899 Y3.206 E1.40259
G1 X0.077 Y3.328 E1.42521
G1 X-0.937 Y3.194 E1.45303
G1 X-1.732 Y2.844 E1.47668
G1 X-2.296 Y2.411 E1.49600
G1 X-2.921 Y1.596 E1.52396
G1 X-3.236 Y0.786 E1.54761
G1 X-3.316 Y0.175 E1.56438
G1 F1800.000 E0.56438
G92 E0
G1 X-10.635 Y-0.000 F7800.000
G1 X13.472 Y0.089
G1 F1800.000 E1.00000
G1 X13.697 Y-1.155 F540.000 E1.03438
G1 X13.946 Y-1.715 E1.05105
G1 X14.488 Y-2.396 E1.07474
G1 X15.189 Y-2.914 E1.09846
G1 X15.845 Y-3.187 E1.11778
G1 X16.863 Y-3.329 E1.14575
G1 X17.722 Y-3.200 E1.16937
G1 X18.378 Y-2.929 E1.18869
G1 X19.198 Y-2.309 E1.21666
G1 X19.714 Y-1.611 E1.24028
G1 X19.986 Y-0.955 E1.25960
G1 X20.128 Y0.057 E1.28741
G1 X19.903 Y1.150 E1.31775
G1 X19.199 Y2.306 E1.35458
G1 X18.394 Y2.923 E1.38217
G1 X17.699 Y3.206 E1.40259
G1 X16.877 Y3.328 E1.42521
G1 X15.863 Y3.194 E1.45303
G1 X15.068 Y2.844 E1.47668
G1 X14.504 Y2.411 E1.49600
G1 X13.879 Y1.596 E1.52396
G1 X13.564 Y0.786 E1.54761
G1 X13.484 Y0.175 E1.56438
G1 F1800.000 E0.56438
G92 E0
G1 X-2.502 Y2.618 F7800.000
G1 F1800.000 E1.00000
G1 X-1.881 Y3.094 F540.000 E1.02131
G1 X-1.016 Y3.476 E1.04703
G1 X0.079 Y3.620 E1.07708
G1 X0.976 Y3.487 E1.10174
G1 X1.739 Y3.176 E1.12417
G1 X2.618 Y2.502 E1.15429
G1 X3.376 Y1.257 E1.19395
G1 X3.621 Y0.067 E1.22702
G1 X3.468 Y-1.032 E1.25720
G1 X3.168 Y-1.755 E1.27849
G1 X2.606 Y-2.515 E1.30421
G1 X1.723 Y-3.182 E1.33432
G1 X0.999 Y-3.481 E1.35562
G1 X0.064 Y-3.621 E1.38134
G1 X-1.032 Y-3.468 E1.41145
G1 X-1.755 Y-3.168 E1.43274
G1 X-2.515 Y-2.606 E1.45847
G1 X-3.104 Y-1.866 E1.48419
G1 X-3.382 Y-1.241 E1.50281
G1 X-3.620 Y0.082 E1.53937
G1 X-3.518 Y0.858 E1.56068
G1 X-3.176 Y1.739 E1.58640
G1 X-2.502 Y2.618 E1.61652
G1 F1800.000 E0.61652
G92 E0
G1 X-5.975 Y6.100 F7800.000
G1 X-16.130 Y8.311
G1 X-16.994 Y8.425
G1 X-22.775 Y6.100
G1 X-19.302 Y2.618
G1 F1800.000 E1.00000
G1 X-18.681 Y3.094 F540.000 E1.02131
G1 X-17.816 Y3.476 E1.04703
G1 X-16.721 Y3.620 E1.07708
G1 X-15.824 Y3.487 E1.10174
G1 X-15.061 Y3.176 E1.12417
G1 X-14.182 Y2.502 E1.15429
G1 X-13.424 Y1.257 E1.19395
G1 X-13.179 Y0.067 E1.22702
G1 X-13.332 Y-1.032 E1.25720
G1 X-13.632 Y-1.755 E1.27849
G1 X-14.194 Y-2.515 E1.30421
G1 X-15.077 Y-3.182 E1.33432
G1 X-15.801 Y-3.481 E1.35562
G1 X-16.736 Y-3.621 E1.38134
G1 X-17.832 Y-3.468 E1.41145
G1 X-18.555 Y-3.168 E1.43274
G1 X-19.315 Y-2.606 E1.45847
G1 X-19.904 Y-1.866 E1.48419
G1 X-20.182 Y-1.241 E1.50281
G1 X-20.420 Y0.082 E1.53937
G1 X-20.318 Y0.858 E1.56068
G1 X-19.976 Y1.739 E1.58640
G1 X-19.302 Y2.618 E1.61652
G1 F1800.000 E0.61652
G92 E0
G1 X-22.775 Y6.100 F7800.000
G1 X-16.994 Y8.425
G1 X-0.194 Y8.425
G1 X0.670 Y8.311
G1 X10.825 Y6.100
G1 X14.298 Y2.618
G1 F1800.000 E1.00000
G1 X14.919 Y3.094 F540.000 E1.02131
G1 X15.784 Y3.476 E1.04703
G1 X16.879 Y3.620 E1.07708
G1 X17.776 Y3.487 E1.10174
G1 X18.539 Y3.176 E1.12417
G1 X19.418 Y2.502 E1.15429
G1 X20.176 Y1.257 E1.19395
G1 X20.421 Y0.067 E1.22702
