; generated by Slic3r 0.9.8 on 2013-04-24 at 07:45:14

; layer_height = 0.3
; perimeters = 2
; top_solid_layers = 3
; bottom_solid_layers = 3
; fill_density = 0.1
; perimeter_speed = 30
; infill_speed = 60
; travel_speed = 130
; scale = 1
; nozzle_diameter = 0.5
; filament_diameter = 2.85
; extrusion_multiplier = 1
; perimeters extrusion width = 0.70mm
; infill extrusion width = 0.70mm
; first layer extrusion width = 0.60mm

M107
M104 S210 ; set temperature
M104 S0
M83
M140 S80
G28
G1Y98F9000
M190 S80
G1X5Y98Z150F9000
M104 S210
G1X5Y98Z1F9000
G1Z0.05
M109 S210
G1Z5
G1X15
;G1E5F50
G90 ; use absolute coordinates
G21 ; set units to millimeters
G92 E0
M82 ; use absolute distances for extrusion
G1 F1800.000 E-1.00000
G92 E0
G1 Z0.300 F7800.000
G1 X-62.606 Y-37.197
G1 F1800.000 E1.00000
G1 X-62.226 Y-38.307 F540.000 E1.03192
G1 X-61.706 Y-39.527 E1.06800
G1 X-61.386 Y-40.137 E1.08674
G1 X-60.736 Y-41.197 E1.12057
G1 X-59.996 Y-42.197 E1.15442
G1 X-59.606 Y-42.667 E1.17103
G1 X-59.136 Y-43.177 E1.18990
G1 X-58.746 Y-43.557 E1.20472
G1 X-58.246 Y-44.017 E1.22320
G1 X-57.786 Y-44.407 E1.23961
G1 X-56.786 Y-45.147 E1.27345
G1 X-55.726 Y-45.797 E1.30728
G1 X-55.116 Y-46.117 E1.32603
G1 X-53.936 Y-46.627 E1.36100
G1 X-53.416 Y-46.817 E1.37606
G1 X-52.756 Y-47.027 E1.39491
G1 X-52.206 Y-47.177 E1.41042
G1 X-51.536 Y-47.327 E1.42909
G1 X-50.276 Y-47.517 E1.46376
G1 X-49.696 Y-47.567 E1.47960
G1 X-48.716 Y-47.607 E1.50629
G1 X-10.556 Y-47.607 E2.54449
G1 X48.774 Y-46.947 E4.15876
G1 X49.784 Y-46.897 E4.18627
G1 X50.944 Y-46.757 E4.21806
G1 X51.434 Y-46.677 E4.23157
G1 X52.104 Y-46.537 E4.25019
G1 X52.744 Y-46.367 E4.26821
G1 X53.404 Y-46.157 E4.28705
G1 X53.974 Y-45.947 E4.30358
G1 X54.614 Y-45.677 E4.32248
G1 X55.644 Y-45.167 E4.35375
G1 X56.204 Y-44.857 E4.37116
G1 X56.784 Y-44.487 E4.38988
G1 X57.784 Y-43.747 E4.42372
G1 X58.254 Y-43.357 E4.44034
G1 X58.764 Y-42.887 E4.45921
G1 X59.194 Y-42.457 E4.47575
G1 X59.654 Y-41.947 E4.49444
G1 X60.374 Y-41.037 E4.52601
G1 X60.754 Y-40.497 E4.54397
G1 X61.384 Y-39.467 E4.57682
G1 X61.704 Y-38.857 E4.59556
G1 X62.214 Y-37.677 E4.63054
G1 X62.404 Y-37.157 E4.64560
G1 X62.614 Y-36.497 E4.66444
G1 X62.764 Y-35.947 E4.67995
G1 X62.914 Y-35.277 E4.69863
G1 X63.104 Y-33.997 E4.73384
G1 X63.154 Y-33.437 E4.74914
G1 X63.184 Y-32.757 E4.76765
G1 X63.184 Y-32.177 E4.78343
G1 X63.154 Y-31.487 E4.80222
G1 X63.104 Y-30.927 E4.81752
G1 X62.984 Y-30.017 E4.84249
G1 X53.084 Y30.013 E6.49777
G1 X52.974 Y30.563 E6.51303
G1 X52.714 Y31.373 E6.53617
G1 X52.484 Y31.883 E6.55139
G1 X52.054 Y32.613 E6.57445
G1 X51.724 Y33.063 E6.58963
G1 X45.894 Y39.723 E6.83044
G1 X45.114 Y40.473 E6.85988
G1 X44.594 Y40.893 E6.87807
G1 X44.004 Y41.293 E6.89746
G1 X43.154 Y41.763 E6.92388
G1 X42.604 Y42.003 E6.94021
G1 X42.044 Y42.193 E6.95630
G1 X41.624 Y42.313 E6.96818
G1 X40.614 Y42.513 E6.99620
G1 X-0.286 Y47.503 E8.11720
G1 X-0.826 Y47.543 E8.13193
G1 X-2.086 Y47.593 E8.16624
G1 X-2.596 Y47.593 E8.18011
G1 X-3.886 Y47.543 E8.21524
G1 X-4.436 Y47.503 E8.23024
G1 X-45.316 Y42.513 E9.35070
G1 X-46.326 Y42.313 E9.37871
G1 X-47.306 Y42.003 E9.40668
G1 X-47.856 Y41.763 E9.42300
G1 X-48.706 Y41.293 E9.44943
G1 X-49.296 Y40.893 E9.46882
G1 X-49.816 Y40.473 E9.48701
G1 X-50.596 Y39.713 E9.51664
G1 X-56.416 Y33.063 E9.75707
G1 X-56.896 Y32.383 E9.77971
G1 X-57.286 Y31.653 E9.80223
G1 X-57.576 Y30.873 E9.82487
G1 X-57.656 Y30.603 E9.83253
G1 X-57.766 Y30.063 E9.84752
G1 X-57.836 Y29.513 E9.86261
G1 X-63.136 Y-31.867 E11.53877
G1 X-63.186 Y-32.837 E11.56519
G1 X-63.186 Y-33.417 E11.58097
G1 X-63.156 Y-34.107 E11.59976
G1 X-63.106 Y-34.677 E11.61533
G1 X-63.016 Y-35.357 E11.63399
G1 X-62.916 Y-35.917 E11.64947
G1 X-62.766 Y-36.597 E11.66841
G1 X-62.628 Y-37.113 E11.68295
G1 X-62.606 Y-37.197 E11.68531
G1 F1800.000 E10.68531
G92 E0
G1 X-45.317 Y15.711 F7800.000
G1 F1800.000 E1.00000
G1 X-44.685 Y15.531 F540.000 E1.01789
G1 X-44.099 Y15.476 E1.03389
G1 X-13.885 Y15.476 E1.85591
G1 X-13.540 Y15.103 E1.86973
G1 X-12.558 Y14.203 E1.90600
G1 X-11.462 Y13.359 E1.94363
G1 X-10.296 Y12.614 E1.98127
G1 X-9.024 Y11.952 E2.02028
G1 X-7.745 Y11.424 E2.05791
G1 X-6.425 Y11.010 E2.09555
G1 X-5.074 Y10.713 E2.13318
G1 X-3.703 Y10.535 E2.17082
G1 X-2.371 Y10.477 E2.20708
G1 X-0.989 Y10.535 E2.24472
G1 X0.433 Y10.722 E2.28373
G1 X1.783 Y11.023 E2.32136
G1 X3.054 Y11.424 E2.35763
G1 X4.333 Y11.952 E2.39526
G1 X5.605 Y12.614 E2.43427
G1 X6.770 Y13.359 E2.47190
G1 X7.866 Y14.203 E2.50954
G1 X8.849 Y15.103 E2.54580
G1 X9.194 Y15.476 E2.55963
G1 X39.408 Y15.476 E3.38166
G1 X40.105 Y15.553 E3.40073
G1 X40.731 Y15.755 E3.41864
G1 X41.306 Y16.074 E3.43653
G1 X41.727 Y16.420 E3.45135
G1 X42.216 Y17.016 E3.47233
G1 X42.517 Y17.602 E3.49024
G1 X42.697 Y18.234 E3.50813
G1 X42.752 Y18.820 E3.52413
G1 X42.752 Y22.726 E3.63041
G1 X42.787 Y22.726 E3.63139
G1 X42.787 Y20.581 E3.68976
G1 X44.160 Y19.969 E3.73064
G1 X47.551 Y23.021 E3.85478
G1 X47.752 Y23.471 E3.86816
G1 X47.752 Y29.196 E4.02391
G1 X47.551 Y29.645 E4.03730
G1 X44.160 Y32.697 E4.16143
G1 X42.787 Y32.086 E4.20231
G1 X42.787 Y29.940 E4.26069
G1 X42.752 Y29.940 E4.26167
G1 X42.752 Y33.847 E4.36795
G1 X42.697 Y34.432 E4.38394
G1 X42.517 Y35.065 E4.40184
G1 X42.216 Y35.651 E4.41974
G1 X41.808 Y36.166 E4.43765
G1 X41.212 Y36.655 E4.45862
G1 X40.626 Y36.956 E4.47653
G1 X39.993 Y37.136 E4.49442
G1 X39.408 Y37.190 E4.51042
G1 X9.194 Y37.190 E5.33245
G1 X8.849 Y37.564 E5.34627
G1 X7.866 Y38.464 E5.38254
G1 X6.770 Y39.308 E5.42017
G1 X5.605 Y40.053 E5.45781
G1 X4.333 Y40.715 E5.49682
G1 X3.054 Y41.242 E5.53445
G1 X1.734 Y41.656 E5.57209
G1 X0.382 Y41.954 E5.60975
G1 X-0.954 Y42.128 E5.64642
G1 X-2.320 Y42.190 E5.68362
G1 X-3.703 Y42.132 E5.72126
G1 X-5.124 Y41.945 E5.76026
G1 X-6.474 Y41.643 E5.79790
G1 X-7.793 Y41.225 E5.83554
G1 X-9.024 Y40.715 E5.87180
G1 X-10.252 Y40.078 E5.90943
G1 X-11.462 Y39.308 E5.94844
G1 X-12.558 Y38.464 E5.98608
G1 X-13.540 Y37.564 E6.02234
G1 X-13.885 Y37.190 E6.03617
G1 X-44.099 Y37.190 E6.85819
G1 X-44.796 Y37.114 E6.87726
G1 X-45.423 Y36.912 E6.89517
G1 X-45.997 Y36.592 E6.91306
G1 X-46.418 Y36.247 E6.92788
G1 X-46.907 Y35.651 E6.94886
G1 X-47.208 Y35.065 E6.96677
G1 X-47.388 Y34.432 E6.98466
G1 X-47.443 Y33.847 E7.00065
G1 X-47.443 Y29.940 E7.10694
G1 X-47.479 Y29.940 E7.10793
G1 X-47.479 Y32.086 E7.16630
G1 X-48.852 Y32.697 E7.20718
G1 X-52.243 Y29.645 E7.33131
G1 X-52.443 Y29.196 E7.34470
G1 X-52.443 Y23.471 E7.50045
G1 X-52.243 Y23.021 E7.51384
G1 X-48.852 Y19.969 E7.63797
G1 X-47.479 Y20.581 E7.67885
G1 X-47.479 Y22.726 E7.73723
G1 X-47.443 Y22.726 E7.73822
G1 X-47.443 Y18.820 E7.84450
G1 X-47.366 Y18.123 E7.86357
G1 X-47.164 Y17.496 E7.88148
G1 X-46.844 Y16.922 E7.89937
G1 X-46.499 Y16.501 E7.91419
G1 X-45.997 Y16.074 E7.93210
G1 X-45.397 Y15.744 E7.95073
G1 X-45.317 Y15.711 E7.95309
G1 F1800.000 E6.95309
G92 E0
G1 X2.767 Y-27.943 F7800.000
G1 F1800.000 E1.00000
G1 X2.395 Y-28.662 F540.000 E1.02202
G1 X2.095 Y-29.393 E1.04351
G1 X1.872 Y-30.098 E1.06363
G1 X1.691 Y-30.919 E1.08651
G1 X1.594 Y-31.652 E1.10663
G1 X1.557 Y-32.441 E1.12813
G1 X1.594 Y-33.281 E1.15100
G1 X1.699 Y-34.064 E1.17249
G1 X1.859 Y-34.786 E1.19261
G1 X2.095 Y-35.541 E1.21411
G1 X2.417 Y-36.317 E1.23698
G1 X2.783 Y-37.017 E1.25848
G1 X3.181 Y-37.641 E1.27860
G1 X3.692 Y-38.308 E1.30147
G1 X4.192 Y-38.853 E1.32159
G1 X4.773 Y-39.388 E1.34309
G1 X5.399 Y-39.871 E1.36458
G1 X6.108 Y-40.323 E1.38745
G1 X6.764 Y-40.664 E1.40758
G1 X7.493 Y-40.969 E1.42907
G1 X8.246 Y-41.208 E1.45057
G1 X9.066 Y-41.390 E1.47343
G1 X9.850 Y-41.491 E1.49493
G1 X10.608 Y-41.524 E1.51558
G1 X48.725 Y-41.524 E2.55262
G1 X49.534 Y-41.487 E2.57464
G1 X50.267 Y-41.390 E2.59476
G1 X51.039 Y-41.221 E2.61626
G1 X51.793 Y-40.986 E2.63775
G1 X52.570 Y-40.664 E2.66062
G1 X53.270 Y-40.297 E2.68212
G1 X53.893 Y-39.900 E2.70224
G1 X54.560 Y-39.388 E2.72511
G1 X55.141 Y-38.853 E2.74660
G1 X55.641 Y-38.308 E2.76673
G1 X56.153 Y-37.641 E2.78960
G1 X56.575 Y-36.973 E2.81109
G1 X56.938 Y-36.271 E2.83259
G1 X57.221 Y-35.588 E2.85271
G1 X57.474 Y-34.786 E2.87558
G1 X57.643 Y-34.015 E2.89708
G1 X57.739 Y-33.281 E2.91720
G1 X57.776 Y-32.492 E2.93870
G1 X57.739 Y-31.652 E2.96157
G1 X57.643 Y-30.919 E2.98169
G1 X57.474 Y-30.147 E3.00319
G1 X57.221 Y-29.345 E3.02605
G1 X56.938 Y-28.662 E3.04618
G1 X56.578 Y-27.966 E3.06751
G1 X37.507 Y5.067 E4.10524
G1 X37.100 Y5.707 E4.12588
G1 X36.588 Y6.374 E4.14875
G1 X36.053 Y6.955 E4.17025
G1 X35.469 Y7.488 E4.19175
G1 X34.841 Y7.967 E4.21324
G1 X34.217 Y8.364 E4.23336
G1 X33.471 Y8.752 E4.25623
G1 X32.741 Y9.053 E4.27773
G1 X31.986 Y9.288 E4.29923
G1 X31.215 Y9.457 E4.32072
G1 X30.431 Y9.558 E4.34222
G1 X29.692 Y9.590 E4.36234
G1 X28.852 Y9.553 E4.38521
G1 X28.069 Y9.448 E4.40671
G1 X27.347 Y9.288 E4.42683
G1 X26.545 Y9.035 E4.44970
G1 X25.862 Y8.752 E4.46982
G1 X25.160 Y8.389 E4.49132
G1 X24.450 Y7.937 E4.51423
G1 X23.815 Y7.445 E4.53607
G1 X23.245 Y6.920 E4.55718
G1 X22.713 Y6.336 E4.57867
G1 X22.262 Y5.749 E4.59880
G1 X21.826 Y5.067 E4.62082
G1 X2.811 Y-27.868 E5.65550
G1 X2.767 Y-27.943 E5.65786
G1 F1800.000 E4.65786
G92 E0
G1 X-2.112 Y-30.012 F7800.000
G1 F1800.000 E1.00000
G1 X-2.417 Y-29.283 F540.000 E1.02150
G1 X-2.767 Y-28.610 E1.04214
G1 X-21.826 Y4.400 E2.07919
G1 X-22.262 Y5.082 E2.10120
G1 X-22.745 Y5.708 E2.12270
G1 X-23.245 Y6.253 E2.14282
G1 X-23.864 Y6.821 E2.16569
G1 X-24.493 Y7.300 E2.18719
G1 X-25.116 Y7.697 E2.20731
G1 X-25.862 Y8.086 E2.23018
G1 X-26.545 Y8.369 E2.25030
G1 X-27.298 Y8.608 E2.27180
G1 X-28.119 Y8.790 E2.29467
G1 X-28.902 Y8.891 E2.31616
G1 X-29.642 Y8.923 E2.33629
G1 X-30.481 Y8.887 E2.35916
G1 X-31.215 Y8.790 E2.37928
G1 X-31.986 Y8.621 E2.40077
G1 X-32.788 Y8.369 E2.42364
G1 X-33.517 Y8.064 E2.44514
G1 X-34.173 Y7.723 E2.46526
G1 X-34.841 Y7.300 E2.48677
G1 X-35.480 Y6.811 E2.50867
G1 X-36.089 Y6.253 E2.53112
G1 X-36.621 Y5.669 E2.55262
G1 X-37.071 Y5.082 E2.57274
G1 X-37.507 Y4.400 E2.59476
G1 X-56.566 Y-28.610 E3.63180
G1 X-56.917 Y-29.283 E3.65245
G1 X-57.221 Y-30.012 E3.67395
G1 X-57.474 Y-30.814 E3.69681
G1 X-57.643 Y-31.585 E3.71831
G1 X-57.744 Y-32.369 E3.73980
G1 X-57.776 Y-33.159 E3.76130
G1 X-57.739 Y-33.948 E3.78280
G1 X-57.643 Y-34.681 E3.80292
G1 X-57.474 Y-35.453 E3.82442
G1 X-57.238 Y-36.207 E3.84592
G1 X-56.917 Y-36.984 E3.86878
G1 X-56.575 Y-37.640 E3.88891
G1 X-56.153 Y-38.307 E3.91040
G1 X-55.641 Y-38.974 E3.93327
G1 X-55.105 Y-39.555 E3.95477
G1 X-54.521 Y-40.088 E3.97627
G1 X-53.893 Y-40.567 E3.99776
G1 X-53.226 Y-40.989 E4.01926
G1 X-52.524 Y-41.352 E4.04075
G1 X-51.841 Y-41.635 E4.06087
G1 X-51.039 Y-41.888 E4.08374
G1 X-50.267 Y-42.057 E4.10524
G1 X-49.534 Y-42.153 E4.12536
G1 X-48.725 Y-42.190 E4.14738
G1 X-10.608 Y-42.190 E5.18442
G1 X-9.800 Y-42.153 E5.20644
G1 X-9.066 Y-42.057 E5.22657
G1 X-8.294 Y-41.888 E5.24806
G1 X-7.540 Y-41.653 E5.26956
G1 X-6.764 Y-41.331 E5.29242
G1 X-6.064 Y-40.964 E5.31392
G1 X-5.440 Y-40.567 E5.33405
G1 X-4.812 Y-40.088 E5.35554
G1 X-4.228 Y-39.555 E5.37704
G1 X-3.692 Y-38.974 E5.39853
G1 X-3.181 Y-38.307 E5.42140
G1 X-2.758 Y-37.640 E5.44290
G1 X-2.417 Y-36.984 E5.46302
G1 X-2.112 Y-36.255 E5.48452
G1 X-1.859 Y-35.453 E5.50739
G1 X-1.691 Y-34.681 E5.52888
G1 X-1.590 Y-33.898 E5.55038
G1 X-1.557 Y-33.108 E5.57188
G1 X-1.590 Y-32.369 E5.59200
G1 X-1.699 Y-31.536 E5.61487
G1 X-1.859 Y-30.814 E5.63499
G1 X-2.084 Y-30.094 E5.65550
G1 X-2.112 Y-30.012 E5.65786
G1 F1800.000 E4.65786
G92 E0
G1 X4.726 Y-1.358 F7800.000
G1 F1800.000 E1.00000
G1 X5.253 Y-1.473 F540.000 E1.01467
G1 X5.873 Y-1.523 E1.03158
G1 X6.575 Y-1.473 E1.05073
G1 X7.181 Y-1.335 E1.06764
G1 X7.686 Y-1.146 E1.08231
G1 X8.234 Y-0.854 E1.09922
G1 X8.798 Y-0.432 E1.11837
G1 X9.179 Y-0.051 E1.13304
G1 X9.556 Y0.443 E1.14995
G1 X9.894 Y1.061 E1.16911
G1 X10.106 Y1.646 E1.18602
G1 X10.232 Y2.254 E1.20293
G1 X10.270 Y2.792 E1.21760
G1 X10.220 Y3.494 E1.23675
G1 X10.082 Y4.100 E1.25366
G1 X9.860 Y4.681 E1.27057
G1 X9.601 Y5.154 E1.28524
G1 X9.179 Y5.717 E1.30439
G1 X8.736 Y6.153 E1.32130
G1 X8.234 Y6.520 E1.33821
G1 X7.686 Y6.813 E1.35512
G1 X7.181 Y7.002 E1.36979
G1 X6.575 Y7.139 E1.38670
G1 X5.873 Y7.190 E1.40586
G1 X5.335 Y7.151 E1.42052
G1 X4.726 Y7.025 E1.43743
G1 X4.067 Y6.779 E1.45659
G1 X3.524 Y6.476 E1.47350
G1 X3.030 Y6.099 E1.49041
G1 X2.649 Y5.717 E1.50508
G1 X2.227 Y5.154 E1.52423
G1 X1.934 Y4.605 E1.54114
G1 X1.746 Y4.100 E1.55581
G1 X1.596 Y3.412 E1.57496
G1 X1.558 Y2.792 E1.59187
G1 X1.596 Y2.254 E1.60654
G1 X1.723 Y1.646 E1.62345
G1 X1.969 Y0.986 E1.64261
G1 X2.272 Y0.443 E1.65952
G1 X2.649 Y-0.051 E1.67643
G1 X3.030 Y-0.432 E1.69110
G1 X3.594 Y-0.854 E1.71025
G1 X4.067 Y-1.112 E1.72492
G1 X4.643 Y-1.333 E1.74172
G1 X4.726 Y-1.358 E1.74408
G1 F1800.000 E0.74408
G92 E0
G1 X-4.561 Y0.979 F7800.000
G1 F1800.000 E1.00000
G1 X-4.447 Y1.506 F540.000 E1.01467
G1 X-4.396 Y2.125 E1.03158
G1 X-4.447 Y2.828 E1.05073
G1 X-4.584 Y3.434 E1.06764
G1 X-4.773 Y3.939 E1.08231
G1 X-5.065 Y4.487 E1.09922
G1 X-5.487 Y5.051 E1.11837
G1 X-5.931 Y5.486 E1.13529
G1 X-6.432 Y5.854 E1.15220
G1 X-6.981 Y6.146 E1.16911
G1 X-7.486 Y6.335 E1.18378
G1 X-8.174 Y6.485 E1.20293
G1 X-8.794 Y6.523 E1.21984
G1 X-9.413 Y6.473 E1.23675
G1 X-9.940 Y6.358 E1.25142
G1 X-10.600 Y6.112 E1.27057
G1 X-11.143 Y5.809 E1.28748
G1 X-11.574 Y5.486 E1.30215
G1 X-12.072 Y4.988 E1.32130
G1 X-12.440 Y4.487 E1.33821
G1 X-12.732 Y3.939 E1.35512
G1 X-12.921 Y3.434 E1.36979
G1 X-13.070 Y2.746 E1.38895
G1 X-13.109 Y2.125 E1.40586
G1 X-13.070 Y1.588 E1.42052
G1 X-12.944 Y0.979 E1.43743
G1 X-12.698 Y0.319 E1.45659
G1 X-12.395 Y-0.223 E1.47350
G1 X-12.072 Y-0.655 E1.48817
G1 X-11.574 Y-1.153 E1.50732
G1 X-11.073 Y-1.520 E1.52423
G1 X-10.600 Y-1.779 E1.53890
G1 X-10.020 Y-2.002 E1.55581
G1 X-9.332 Y-2.151 E1.57496
G1 X-8.711 Y-2.190 E1.59187
G1 X-8.174 Y-2.151 E1.60654
G1 X-7.565 Y-2.025 E1.62345
G1 X-6.905 Y-1.779 E1.64261
G1 X-6.363 Y-1.476 E1.65952
G1 X-5.931 Y-1.153 E1.67418
G1 X-5.487 Y-0.717 E1.69110
G1 X-5.065 Y-0.154 E1.71025
G1 X-4.807 Y0.319 E1.72492
G1 X-4.586 Y0.896 E1.74172
G1 X-4.561 Y0.979 E1.74408
G1 F1800.000 E0.74408
G92 E0
G1 X-3.665 Y11.112 F7800.000
G1 F1800.000 E1.00000
G1 X-2.333 Y11.055 F540.000 E1.03626
G1 X-1.027 Y11.112 E1.07184
G1 X0.295 Y11.285 E1.10810
G1 X1.596 Y11.572 E1.14436
G1 X2.892 Y11.981 E1.18131
G1 X4.100 Y12.481 E1.21689
G1 X5.282 Y13.096 E1.25315
G1 X6.407 Y13.811 E1.28941
G1 X7.485 Y14.638 E1.32636
G1 X8.449 Y15.521 E1.36194
G1 X8.939 Y16.055 E1.38166
G1 X39.394 Y16.055 E2.21023
G1 X39.964 Y16.115 E2.22583
G1 X40.484 Y16.278 E2.24065
G1 X40.961 Y16.540 E2.25546
G1 X41.338 Y16.849 E2.26873
G1 X41.720 Y17.314 E2.28509
G1 X41.971 Y17.797 E2.29990
G1 X42.124 Y18.319 E2.31471
G1 X42.173 Y18.834 E2.32877
G1 X42.173 Y23.305 E2.45041
G1 X43.366 Y23.305 E2.48287
G1 X43.366 Y20.956 E2.54676
G1 X44.052 Y20.651 E2.56720
G1 X47.073 Y23.369 E2.67777
G1 X47.173 Y23.594 E2.68446
G1 X47.173 Y29.073 E2.83352
G1 X47.073 Y29.297 E2.84021
G1 X44.052 Y32.016 E2.95078
G1 X43.366 Y31.710 E2.97122
G1 X43.366 Y29.362 E3.03511
G1 X42.173 Y29.362 E3.06757
G1 X42.173 Y33.833 E3.18921
G1 X42.113 Y34.403 E3.20481
G1 X41.950 Y34.923 E3.21963
G1 X41.688 Y35.400 E3.23443
G1 X41.378 Y35.777 E3.24771
G1 X40.961 Y36.127 E3.26253
G1 X40.431 Y36.410 E3.27888
G1 X39.909 Y36.563 E3.29368
G1 X39.394 Y36.612 E3.30775
G1 X8.939 Y36.612 E4.13632
G1 X8.449 Y37.146 E4.15604
G1 X7.485 Y38.029 E4.19162
G1 X6.428 Y38.841 E4.22788
G1 X5.304 Y39.558 E4.26414
G1 X4.123 Y40.175 E4.30041
G1 X2.892 Y40.686 E4.33667
G1 X1.621 Y41.088 E4.37293
G1 X0.320 Y41.377 E4.40920
G1 X-1.017 Y41.553 E4.44587
G1 X-2.358 Y41.612 E4.48240
G1 X-3.665 Y41.555 E4.51798
G1 X-4.986 Y41.382 E4.55424
G1 X-6.288 Y41.094 E4.59050
G1 X-7.583 Y40.686 E4.62745
G1 X-8.791 Y40.185 E4.66303
G1 X-9.974 Y39.571 E4.69929
G1 X-11.099 Y38.856 E4.73556
G1 X-12.176 Y38.029 E4.77250
G1 X-13.140 Y37.146 E4.80808
G1 X-13.631 Y36.612 E4.82780
G1 X-44.085 Y36.612 E5.65636
G1 X-44.655 Y36.552 E5.67196
G1 X-45.175 Y36.388 E5.68678
G1 X-45.652 Y36.127 E5.70159
G1 X-46.029 Y35.817 E5.71486
G1 X-46.379 Y35.400 E5.72968
G1 X-46.662 Y34.870 E5.74603
G1 X-46.815 Y34.347 E5.76084
G1 X-46.864 Y33.833 E5.77490
G1 X-46.864 Y29.362 E5.89654
