; generated by Slic3r 0.9.8 on 2013-04-27 at 11:12:16

; layer_height = 0.3
; perimeters = 2
; top_solid_layers = 3
; bottom_solid_layers = 3
; fill_density = 0.1
; perimeter_speed = 30
; infill_speed = 60
; travel_speed = 130
; scale = 1
; nozzle_diameter = 0.5
; filament_diameter = 2.85
; extrusion_multiplier = 1
; perimeters extrusion width = 0.70mm
; infill extrusion width = 0.70mm
; first layer extrusion width = 0.60mm

M107
M104 S210 ; set temperature
M104 S0
M83
M140 S80
G28
G1Y98F9000
M190 S80
G1X5Y98Z150F9000
M104 S210
G1X5Y98Z1F9000
G1Z0.05
M109 S210
G1Z5
G1X15
;G1E5F50
G90 ; use absolute coordinates
G21 ; set units to millimeters
G92 E0
M82 ; use absolute distances for extrusion
G1 F1800.000 E-1.00000
G92 E0
G1 Z0.300 F7800.000
G1 X-26.550 Y-29.483
G1 F1800.000 E1.00000
G1 X-26.040 Y-29.953 F540.000 E1.01887
G1 X-25.080 Y-30.723 E1.05235
G1 X-24.540 Y-31.103 E1.07032
G1 X-23.950 Y-31.473 E1.08926
G1 X-23.430 Y-31.763 E1.10546
G1 X-22.430 Y-32.263 E1.13588
G1 X-21.800 Y-32.533 E1.15453
G1 X-21.200 Y-32.753 E1.17191
G1 X-20.540 Y-32.963 E1.19076
G1 X-19.900 Y-33.133 E1.20877
G1 X-19.230 Y-33.273 E1.22740
G1 X-18.730 Y-33.353 E1.24117
G1 X-18.040 Y-33.443 E1.26010
G1 X-17.480 Y-33.493 E1.27540
G1 X-16.800 Y-33.523 E1.29392
G1 X-16.220 Y-33.523 E1.30970
G1 X-15.530 Y-33.493 E1.32849
G1 X-14.970 Y-33.443 E1.34378
G1 X-13.780 Y-33.273 E1.37649
G1 X-13.110 Y-33.133 E1.39511
G1 X-12.470 Y-32.963 E1.41313
G1 X-11.810 Y-32.753 E1.43197
G1 X-11.210 Y-32.533 E1.44936
G1 X-10.580 Y-32.263 E1.46801
G1 X-10.150 Y-32.063 E1.48091
G1 X-9.260 Y-31.593 E1.50829
G1 X23.730 Y-12.553 E2.54460
G1 X24.590 Y-12.003 E2.57237
G1 X25.070 Y-11.663 E2.58837
G1 X25.980 Y-10.943 E2.61994
G1 X26.490 Y-10.483 E2.63863
G1 X27.380 Y-9.543 E2.67385
G1 X27.760 Y-9.103 E2.68967
G1 X28.190 Y-8.543 E2.70887
G1 X28.520 Y-8.073 E2.72450
G1 X28.890 Y-7.493 E2.74322
G1 X29.200 Y-6.933 E2.76063
G1 X29.710 Y-5.903 E2.79190
G1 X29.980 Y-5.263 E2.81080
G1 X30.180 Y-4.723 E2.82647
G1 X30.390 Y-4.073 E2.84505
G1 X30.570 Y-3.383 E2.86445
G1 X30.710 Y-2.703 E2.88334
G1 X30.880 Y-1.553 E2.91497
G1 X30.930 Y-0.983 E2.93053
G1 X30.960 Y-0.293 E2.94932
G1 X30.960 Y0.287 E2.96510
G1 X30.930 Y0.977 E2.98389
G1 X30.880 Y1.547 E2.99946
G1 X30.710 Y2.717 E3.03163
G1 X30.570 Y3.387 E3.05025
G1 X30.400 Y4.027 E3.06827
G1 X30.190 Y4.687 E3.08711
G1 X29.980 Y5.257 E3.10364
G1 X29.710 Y5.897 E3.12254
G1 X29.200 Y6.927 E3.15380
G1 X28.890 Y7.487 E3.17122
G1 X28.520 Y8.067 E3.18994
G1 X28.190 Y8.537 E3.20556
G1 X27.760 Y9.097 E3.22477
G1 X27.340 Y9.587 E3.24233
G1 X26.880 Y10.077 E3.26061
G1 X26.030 Y10.887 E3.29256
G1 X25.610 Y11.237 E3.30743
G1 X25.070 Y11.657 E3.32604
G1 X24.530 Y12.037 E3.34401
G1 X23.730 Y12.537 E3.36968
G1 X-9.260 Y31.587 E4.40612
G1 X-10.150 Y32.057 E4.43350
G1 X-11.290 Y32.547 E4.46726
G1 X-11.810 Y32.737 E4.48232
G1 X-12.470 Y32.947 E4.50117
G1 X-13.020 Y33.097 E4.51668
G1 X-13.690 Y33.247 E4.53536
G1 X-14.990 Y33.437 E4.57110
G1 X-15.540 Y33.487 E4.58612
G1 X-16.220 Y33.517 E4.60464
G1 X-16.800 Y33.517 E4.62042
G1 X-17.480 Y33.487 E4.63894
G1 X-18.040 Y33.437 E4.65424
G1 X-18.730 Y33.347 E4.67317
G1 X-19.320 Y33.247 E4.68945
G1 X-19.990 Y33.097 E4.70813
G1 X-20.540 Y32.947 E4.72364
G1 X-21.200 Y32.737 E4.74248
G1 X-21.720 Y32.547 E4.75755
G1 X-22.350 Y32.287 E4.77609
G1 X-22.900 Y32.037 E4.79253
G1 X-23.510 Y31.717 E4.81127
G1 X-24.540 Y31.087 E4.84412
G1 X-25.080 Y30.707 E4.86208
G1 X-25.990 Y29.987 E4.89365
G1 X-26.500 Y29.527 E4.91234
G1 X-26.930 Y29.097 E4.92888
G1 X-27.400 Y28.587 E4.94775
G1 X-27.790 Y28.117 E4.96437
G1 X-28.530 Y27.117 E4.99821
G1 X-28.900 Y26.537 E5.01693
G1 X-29.520 Y25.367 E5.05295
G1 X-29.720 Y24.947 E5.06561
G1 X-29.990 Y24.307 E5.08451
G1 X-30.200 Y23.737 E5.10104
G1 X-30.410 Y23.077 E5.11988
G1 X-30.580 Y22.437 E5.13789
G1 X-30.720 Y21.767 E5.15652
G1 X-30.890 Y20.597 E5.18868
G1 X-30.940 Y20.017 E5.20452
G1 X-30.980 Y19.037 E5.23121
G1 X-30.980 Y-19.053 E6.26751
G1 X-30.940 Y-20.033 E6.29419
G1 X-30.890 Y-20.593 E6.30949
G1 X-30.720 Y-21.783 E6.34219
G1 X-30.580 Y-22.453 E6.36081
G1 X-30.410 Y-23.093 E6.37883
G1 X-30.200 Y-23.753 E6.39767
G1 X-29.980 Y-24.353 E6.41506
G1 X-29.710 Y-24.983 E6.43371
G1 X-29.210 Y-25.983 E6.46413
G1 X-28.920 Y-26.503 E6.48033
G1 X-28.550 Y-27.093 E6.49927
G1 X-28.170 Y-27.633 E6.51724
G1 X-27.750 Y-28.173 E6.53585
G1 X-27.400 Y-28.593 E6.55072
G1 X-26.611 Y-29.421 E6.58185
G1 X-26.550 Y-29.483 E6.58421
G1 F1800.000 E5.58421
G92 E0
G1 X-22.886 Y-25.474 F7800.000
G1 F1800.000 E1.00000
G1 X-22.341 Y-25.974 F540.000 E1.02012
G1 X-21.715 Y-26.457 E1.04162
G1 X-21.007 Y-26.909 E1.06449
G1 X-20.305 Y-27.272 E1.08599
G1 X-19.574 Y-27.572 E1.10748
G1 X-18.868 Y-27.794 E1.12761
G1 X-18.098 Y-27.967 E1.14910
G1 X-17.264 Y-28.077 E1.17197
G1 X-16.525 Y-28.109 E1.19209
G1 X-15.736 Y-28.077 E1.21359
G1 X-14.952 Y-27.976 E1.23509
G1 X-14.180 Y-27.807 E1.25658
G1 X-13.379 Y-27.555 E1.27945
G1 X-12.650 Y-27.250 E1.30095
G1 X-11.977 Y-26.899 E1.32159
G1 X21.034 Y-7.841 E2.35864
G1 X21.674 Y-7.433 E2.37928
G1 X22.302 Y-6.954 E2.40078
G1 X22.922 Y-6.386 E2.42365
G1 X23.444 Y-5.813 E2.44473
G1 X23.904 Y-5.217 E2.46522
G1 X24.331 Y-4.550 E2.48676
G1 X24.719 Y-3.805 E2.50963
G1 X25.019 Y-3.074 E2.53113
G1 X25.255 Y-2.320 E2.55262
G1 X25.415 Y-1.598 E2.57274
G1 X25.520 Y-0.815 E2.59424
G1 X25.557 Y-0.025 E2.61574
G1 X25.520 Y0.815 E2.63861
G1 X25.415 Y1.598 E2.66010
G1 X25.255 Y2.320 E2.68022
G1 X25.019 Y3.074 E2.70172
G1 X24.719 Y3.805 E2.72322
G1 X24.331 Y4.550 E2.74609
G1 X23.904 Y5.217 E2.76762
G1 X23.444 Y5.813 E2.78811
G1 X22.922 Y6.386 E2.80920
G1 X22.302 Y6.954 E2.83207
G1 X21.674 Y7.433 E2.85357
G1 X21.034 Y7.841 E2.87421
G1 X-11.977 Y26.899 E3.91125
G1 X-12.695 Y27.272 E3.93327
G1 X-13.379 Y27.555 E3.95340
G1 X-14.131 Y27.794 E3.97489
G1 X-14.903 Y27.968 E3.99640
G1 X-15.750 Y28.078 E4.01964
G1 X-16.525 Y28.109 E4.04075
G1 X-17.264 Y28.077 E4.06087
G1 X-18.098 Y27.967 E4.08374
G1 X-18.868 Y27.794 E4.10524
G1 X-19.574 Y27.572 E4.12536
G1 X-20.350 Y27.250 E4.14823
G1 X-21.007 Y26.909 E4.16835
G1 X-21.674 Y26.486 E4.18985
G1 X-22.341 Y25.974 E4.21272
G1 X-22.886 Y25.474 E4.23284
G1 X-23.422 Y24.893 E4.25434
G1 X-23.933 Y24.227 E4.27720
G1 X-24.356 Y23.559 E4.29870
G1 X-24.698 Y22.903 E4.31883
G1 X-25.002 Y22.174 E4.34032
G1 X-25.242 Y21.421 E4.36182
G1 X-25.424 Y20.600 E4.38469
G1 X-25.520 Y19.867 E4.40481
G1 X-25.557 Y19.084 E4.42614
G1 X-25.557 Y-19.059 E5.46387
G1 X-25.525 Y-19.817 E5.48452
G1 X-25.424 Y-20.600 E5.50601
G1 X-25.255 Y-21.372 E5.52751
G1 X-25.019 Y-22.126 E5.54900
G1 X-24.719 Y-22.857 E5.57050
G1 X-24.356 Y-23.559 E5.59200
G1 X-23.933 Y-24.227 E5.61350
G1 X-23.454 Y-24.855 E5.63499
G1 X-22.947 Y-25.412 E5.65550
G1 X-22.886 Y-25.474 E5.65786
G1 X-22.486 Y-25.056 F7800.000
G1 X-21.940 Y-25.555 F540.000 E5.67798
G1 X-21.373 Y-25.990 E5.69742
G1 X-20.728 Y-26.401 E5.71823
G1 X-20.072 Y-26.742 E5.73835
G1 X-19.388 Y-27.024 E5.75847
G1 X-18.707 Y-27.239 E5.77791
G1 X-17.985 Y-27.400 E5.79803
G1 X-17.226 Y-27.500 E5.81884
G1 X-16.513 Y-27.531 E5.83828
G1 X-15.774 Y-27.500 E5.85840
G1 X-15.040 Y-27.404 E5.87852
G1 X-14.318 Y-27.245 E5.89865
G1 X-13.588 Y-27.015 E5.91946
G1 X-12.906 Y-26.731 E5.93958
G1 X-12.261 Y-26.395 E5.95937
G1 X20.739 Y-7.343 E6.99607
G1 X21.353 Y-6.952 E7.01585
G1 X21.940 Y-6.503 E7.03598
G1 X22.504 Y-5.986 E7.05678
G1 X22.993 Y-5.451 E7.07652
G1 X23.437 Y-4.874 E7.09632
G1 X23.836 Y-4.250 E7.11647
G1 X24.179 Y-3.594 E7.13659
G1 X24.471 Y-2.888 E7.15740
G1 X24.693 Y-2.182 E7.17752
G1 X24.847 Y-1.485 E7.19696
G1 X24.945 Y-0.752 E7.21708
G1 X24.978 Y-0.013 E7.23720
G1 X24.945 Y0.752 E7.25801
G1 X24.847 Y1.485 E7.27814
G1 X24.693 Y2.182 E7.29757
G1 X24.471 Y2.888 E7.31769
G1 X24.179 Y3.594 E7.33850
G1 X23.836 Y4.250 E7.35863
G1 X23.437 Y4.874 E7.37877
G1 X22.993 Y5.451 E7.39858
G1 X22.504 Y5.986 E7.41831
G1 X21.940 Y6.503 E7.43912
G1 X21.353 Y6.952 E7.45924
G1 X20.739 Y7.343 E7.47903
G1 X-12.261 Y26.395 E8.51573
G1 X-12.928 Y26.742 E8.53620
G1 X-13.588 Y27.015 E8.55564
G1 X-14.293 Y27.239 E8.57576
G1 X-15.016 Y27.400 E8.59589
G1 X-15.788 Y27.500 E8.61707
G1 X-16.513 Y27.531 E8.63681
G1 X-17.226 Y27.500 E8.65625
G1 X-17.985 Y27.400 E8.67706
G1 X-18.682 Y27.245 E8.69649
G1 X-19.388 Y27.024 E8.71662
G1 X-20.095 Y26.731 E8.73743
G1 X-20.728 Y26.401 E8.75686
G1 X-21.353 Y26.005 E8.77699
G1 X-21.959 Y25.539 E8.79780
G1 X-22.486 Y25.056 E8.81723
G1 X-22.987 Y24.512 E8.83736
G1 X-23.452 Y23.905 E8.85816
G1 X-23.849 Y23.281 E8.87829
G1 X-24.179 Y22.647 E8.89773
G1 X-24.463 Y21.964 E8.91785
G1 X-24.693 Y21.235 E8.93866
G1 X-24.847 Y20.537 E8.95809
G1 X-24.945 Y19.804 E8.97822
G1 X-24.978 Y19.065 E8.99834
G1 X-24.979 Y-19.052 E10.03539
G1 X-24.947 Y-19.779 E10.05517
G1 X-24.852 Y-20.512 E10.07530
G1 X-24.693 Y-21.235 E10.09542
G1 X-24.471 Y-21.940 E10.11554
G1 X-24.189 Y-22.624 E10.13567
G1 X-23.849 Y-23.281 E10.15579
G1 X-23.452 Y-23.905 E10.17591
G1 X-23.003 Y-24.493 E10.19603
G1 X-22.546 Y-24.993 E10.21448
G1 X-22.486 Y-25.056 E10.21684
G1 X-22.086 Y-24.638 F7800.000
G1 X-21.578 Y-25.104 F540.000 E10.23559
G1 X-21.031 Y-25.524 E10.25434
G1 X-20.450 Y-25.894 E10.27309
G1 X-19.839 Y-26.212 E10.29184
G1 X-19.202 Y-26.476 E10.31059
G1 X-18.545 Y-26.683 E10.32934
G1 X-17.872 Y-26.832 E10.34809
G1 X-17.189 Y-26.922 E10.36684
G1 X-16.500 Y-26.952 E10.38559
G1 X-15.811 Y-26.922 E10.40434
G1 X-15.128 Y-26.832 E10.42309
G1 X-14.455 Y-26.683 E10.44184
G1 X-13.798 Y-26.476 E10.46059
G1 X-13.161 Y-26.212 E10.47934
G1 X-12.544 Y-25.891 E10.49827
G1 X20.444 Y-6.845 E11.53463
G1 X21.031 Y-6.471 E11.55355
G1 X21.578 Y-6.052 E11.57230
G1 X22.086 Y-5.586 E11.59105
G1 X22.542 Y-5.088 E11.60943
G1 X22.971 Y-4.531 E11.62855
G1 X23.341 Y-3.950 E11.64730
G1 X23.660 Y-3.339 E11.66605
G1 X23.923 Y-2.702 E11.68480
G1 X24.131 Y-2.045 E11.70355
G1 X24.280 Y-1.372 E11.72230
G1 X24.370 Y-0.688 E11.74105
G1 X24.400 Y-0.000 E11.75980
G1 X24.370 Y0.688 E11.77855
G1 X24.280 Y1.372 E11.79730
G1 X24.131 Y2.045 E11.81605
G1 X23.923 Y2.702 E11.83480
G1 X23.660 Y3.339 E11.85355
G1 X23.341 Y3.950 E11.87230
G1 X22.971 Y4.531 E11.89105
G1 X22.552 Y5.078 E11.90980
G1 X22.086 Y5.586 E11.92855
G1 X21.578 Y6.052 E11.94730
G1 X21.031 Y6.471 E11.96605
G1 X20.444 Y6.845 E11.98498
G1 X-12.544 Y25.891 E13.02133
G1 X-13.161 Y26.212 E13.04026
G1 X-13.798 Y26.476 E13.05901
G1 X-14.455 Y26.683 E13.07776
G1 X-15.128 Y26.832 E13.09651
G1 X-15.811 Y26.922 E13.11526
G1 X-16.500 Y26.952 E13.13401
G1 X-17.189 Y26.922 E13.15276
G1 X-17.872 Y26.832 E13.17151
G1 X-18.545 Y26.683 E13.19026
G1 X-19.202 Y26.476 E13.20901
G1 X-19.839 Y26.212 E13.22776
G1 X-20.450 Y25.894 E13.24651
G1 X-21.031 Y25.524 E13.26526
G1 X-21.578 Y25.104 E13.28401
G1 X-22.086 Y24.638 E13.30276
G1 X-22.552 Y24.130 E13.32151
G1 X-22.971 Y23.584 E13.34026
G1 X-23.341 Y23.002 E13.35900
G1 X-23.660 Y22.391 E13.37776
G1 X-23.923 Y21.754 E13.39651
G1 X-24.131 Y21.097 E13.41525
G1 X-24.280 Y20.424 E13.43400
G1 X-24.370 Y19.741 E13.45276
G1 X-24.400 Y19.046 E13.47168
G1 X-24.400 Y-19.046 E14.50804
G1 X-24.370 Y-19.741 E14.52697
G1 X-24.280 Y-20.424 E14.54572
G1 X-24.131 Y-21.097 E14.56447
G1 X-23.923 Y-21.754 E14.58321
G1 X-23.660 Y-22.391 E14.60197
G1 X-23.341 Y-23.002 E14.62072
G1 X-22.971 Y-23.584 E14.63947
G1 X-22.552 Y-24.130 E14.65821
G1 X-22.145 Y-24.574 E14.67460
G1 X-22.086 Y-24.638 E14.67696
G1 X-21.529 Y-24.481 F7800.000
G1 X-20.699 Y-25.049
G1 X-20.160 Y-25.392 F540.000 E14.69434
G1 X-19.594 Y-25.687 E14.71171
G1 X-19.004 Y-25.932 E14.72909
G1 X-18.395 Y-26.124 E14.74647
G1 X-17.771 Y-26.262 E14.76384
G1 X-17.138 Y-26.345 E14.78121
G1 X-16.500 Y-26.373 E14.79859
G1 X-15.862 Y-26.345 E14.81597
G1 X-15.229 Y-26.262 E14.83334
G1 X-14.605 Y-26.124 E14.85072
G1 X-13.996 Y-25.932 E14.86809
G1 X-13.406 Y-25.687 E14.88547
G1 X-12.823 Y-25.384 E14.90336
G1 X20.144 Y-6.350 E15.93903
G1 X20.699 Y-5.997 E15.95693
G1 X21.206 Y-5.608 E15.97431
G1 X21.676 Y-5.176 E15.99168
G1 X22.108 Y-4.706 E16.00906
G1 X22.497 Y-4.199 E16.02643
G1 X22.840 Y-3.660 E16.04381
G1 X23.135 Y-3.094 E16.06118
G1 X23.379 Y-2.504 E16.07856
G1 X23.571 Y-1.895 E16.09593
G1 X23.709 Y-1.271 E16.11331
G1 X23.793 Y-0.638 E16.13068
G1 X23.821 Y-0.000 E16.14806
G1 X23.793 Y0.638 E16.16543
G1 X23.709 Y1.271 E16.18281
G1 X23.571 Y1.895 E16.20019
G1 X23.379 Y2.504 E16.21756
G1 X23.135 Y3.094 E16.23494
G1 X22.840 Y3.660 E16.25231
G1 X22.497 Y4.199 E16.26969
G1 X22.108 Y4.706 E16.28706
G1 X21.676 Y5.176 E16.30444
G1 X21.206 Y5.608 E16.32181
G1 X20.699 Y5.997 E16.33919
G1 X20.144 Y6.350 E16.35709
G1 X-12.823 Y25.384 E17.39276
G1 X-13.406 Y25.687 E17.41065
G1 X-13.996 Y25.932 E17.42803
G1 X-14.605 Y26.124 E17.44540
G1 X-15.229 Y26.262 E17.46278
G1 X-15.862 Y26.345 E17.48015
G1 X-16.500 Y26.373 E17.49753
G1 X-17.138 Y26.345 E17.51490
G1 X-17.771 Y26.262 E17.53228
G1 X-18.395 Y26.124 E17.54965
G1 X-19.004 Y25.932 E17.56703
G1 X-19.594 Y25.687 E17.58441
G1 X-20.160 Y25.392 E17.60178
G1 X-20.699 Y25.049 E17.61915
G1 X-21.206 Y24.660 E17.63653
G1 X-21.676 Y24.229 E17.65391
G1 X-22.108 Y23.758 E17.67128
G1 X-22.497 Y23.252 E17.68866
G1 X-22.840 Y22.713 E17.70603
G1 X-23.135 Y22.146 E17.72341
G1 X-23.379 Y21.556 E17.74078
G1 X-23.571 Y20.947 E17.75816
G1 X-23.709 Y20.324 E17.77553
G1 X-23.793 Y19.691 E17.79291
G1 X-23.821 Y19.033 E17.81080
G1 X-23.821 Y-19.033 E18.84648
G1 X-23.793 Y-19.691 E18.86437
G1 X-23.709 Y-20.324 E18.88175
G1 X-23.571 Y-20.947 E18.89912
G1 X-23.379 Y-21.556 E18.91650
G1 X-23.135 Y-22.146 E18.93387
G1 X-22.840 Y-22.713 E18.95125
G1 X-22.497 Y-23.252 E18.96863
G1 X-22.108 Y-23.758 E18.98600
G1 X-21.676 Y-24.229 E19.00337
G1 X-21.206 Y-24.660 E19.02075
G1 X-20.768 Y-24.996 E19.03577
G1 X-20.699 Y-25.049 E19.03813
G1 F1800.000 E18.03813
G92 E0
G1 X-10.900 Y-5.400 F7800.000
G1 F1800.000 E1.00000
G1 X-0.100 Y-5.400 F540.000 E1.29383
G1 X-0.100 Y5.400 E1.58766
G1 X-10.900 Y5.400 E1.88150
G1 X-10.900 Y-5.313 E2.17297
G1 X-10.900 Y-5.400 E2.17533
G1 X-10.900 Y-5.979 F7800.000
G1 X-11.479 Y-5.979
G1 X0.479 Y-5.979 F540.000 E2.50064
G1 X0.479 Y5.979 E2.82595
G1 X-11.479 Y5.979 E3.15126
G1 X-11.479 Y-5.892 E3.47421
G1 X-11.479 Y-5.979 E3.47657
G1 F1800.000 E2.47657
G92 E0
G1 X-11.873 Y5.923 F7800.000
G1 F1800.000 E1.00000
G1 X-23.427 Y-5.631 F1080.000 E1.44935
G1 X-23.427 Y-4.804 E1.47209
G1 X-0.647 Y17.976 E2.35802
G1 X-1.171 Y18.279 E2.37466
G1 X-23.427 Y-3.977 E3.24020
G1 X-23.427 Y-3.150 E3.26295
G1 X-1.695 Y18.582 E4.10810
G1 X-2.220 Y18.884 E4.12475
G1 X-23.427 Y-2.323 E4.94951
G1 X-23.427 Y-1.496 E4.97225
G1 X-2.744 Y19.187 E5.77662
G1 X-3.268 Y19.490 E5.79327
G1 X-23.427 Y-0.669 E6.57725
G1 X-23.427 Y0.158 E6.59999
G1 X-3.793 Y19.792 E7.36358
G1 X-4.317 Y20.095 E7.38023
G1 X-23.427 Y0.985 E8.12343
G1 X-23.427 Y1.812 E8.14617
G1 X-4.841 Y20.398 E8.86899
G1 X-5.365 Y20.701 E8.88563
G1 X-23.427 Y2.639 E9.58806
G1 X-23.427 Y3.466 E9.61080
G1 X-5.890 Y21.003 E10.29284
G1 X-6.414 Y21.306 E10.30948
G1 X-23.427 Y4.293 E10.97113
G1 X-23.427 Y5.120 E10.99387
G1 X-6.938 Y21.609 E11.63513
G1 X-7.462 Y21.911 E11.65177
G1 X-23.427 Y5.947 E12.27264
G1 X-23.427 Y6.774 E12.29538
G1 X-7.987 Y22.214 E12.89586
G1 X-8.511 Y22.517 E12.91251
G1 X-23.427 Y7.601 E13.49259
G1 X-23.427 Y8.428 E13.51533
G1 X-9.035 Y22.819 E14.07503
G1 X-9.560 Y23.122 E14.09168
G1 X-23.427 Y9.255 E14.63099
G1 X-23.427 Y10.082 E14.65373
G1 X-10.084 Y23.425 E15.17265
G1 X-10.608 Y23.728 E15.18929
G1 X-23.427 Y10.909 E15.68782
G1 X-23.427 Y11.736 E15.71057
G1 X-11.133 Y24.030 E16.18870
G1 X-11.657 Y24.333 E16.20535
G1 X-23.427 Y12.563 E16.66310
G1 X-23.427 Y13.390 E16.68584
G1 X-12.181 Y24.636 E17.12320
G1 X-12.705 Y24.938 E17.13985
G1 X-23.427 Y14.217 E17.55682
G1 X-23.427 Y15.044 E17.57956
G1 X-13.241 Y25.229 E17.97569
G1 X-13.809 Y25.488 E17.99285
G1 X-23.427 Y15.870 E18.36689
G1 X-23.427 Y16.698 E18.38964
G1 X-14.423 Y25.702 E18.73981
G1 X-15.088 Y25.863 E18.75865
G1 X-23.427 Y17.524 E19.08294
G1 X-23.427 Y18.351 E19.10568
G1 X-15.822 Y25.957 E19.40145
G1 X-16.641 Y25.964 E19.42399
G1 X-23.412 Y19.194 E19.68728
G1 X-23.303 Y20.129 E19.71317
G1 X-17.577 Y25.856 E19.93589
G1 X-18.735 Y25.525 E19.96900
