; generated by Slic3r 0.9.9 on 2013-05-01 at 10:30:21

; layer_height = 0.3
; perimeters = 2
; top_solid_layers = 3
; bottom_solid_layers = 3
; fill_density = 0.1
; perimeter_speed = 30
; infill_speed = 60
; travel_speed = 130
; nozzle_diameter = 0.5
; filament_diameter = 2.85
; extrusion_multiplier = 1
; perimeters extrusion width = 0.70mm
; infill extrusion width = 0.70mm
; solid infill extrusion width = 0.70mm
; top infill extrusion width = 0.70mm
; first layer extrusion width = 0.60mm

G21 ; set units to millimeters
M107
M104 S0
M83
M140 S80
G28
G1Y98F9000
M190 S80
G1X5Y98Z150F9000
M104 S210
G1X5Y98Z1F9000
G1Z0.05
M109 S210
G1Z5
G1X15
;G1E5F50
G90 ; use absolute coordinates
G92 E0
M82 ; use absolute distances for extrusion
G1 F1800.000 E-1.00000
G92 E0
G1 Z0.300 F7800.000
G1 X0.273 Y25.710
G1 F1800.000 E1.00000
G1 X-0.287 Y25.710 F540.000 E1.01524
G1 X-3.626 Y25.570 E1.10619
G1 X-4.216 Y25.520 E1.12230
G1 X-7.526 Y25.080 E1.21314
G1 X-8.076 Y24.980 E1.22835
G1 X-11.337 Y24.260 E1.31918
G1 X-11.907 Y24.110 E1.33522
G1 X-15.096 Y23.100 E1.42625
G1 X-15.616 Y22.910 E1.44131
G1 X-18.706 Y21.640 E1.53221
G1 X-71.456 Y-0.270 E3.08623
G1 X-71.947 Y-0.500 E3.10096
G1 X-72.406 Y-0.760 E3.11533
G1 X-73.066 Y-1.230 E3.13738
G1 X-73.656 Y-1.760 E3.15895
G1 X-74.176 Y-2.370 E3.18076
G1 X-74.337 Y-2.590 E3.18816
G1 X-74.617 Y-3.040 E3.20258
G1 X-74.867 Y-3.510 E3.21707
G1 X-75.076 Y-4.000 E3.23157
G1 X-75.316 Y-4.760 E3.25325
G1 X-75.466 Y-5.550 E3.27513
G1 X-75.496 Y-5.820 E3.28252
G1 X-75.516 Y-6.350 E3.29695
G1 X-75.516 Y-9.150 E3.37313
G1 X-75.496 Y-9.700 E3.38810
G1 X-75.376 Y-10.510 E3.41038
G1 X-75.236 Y-11.040 E3.42530
G1 X-75.156 Y-11.310 E3.43296
G1 X-74.837 Y-12.060 E3.45514
G1 X-74.426 Y-12.780 E3.47768
G1 X-74.106 Y-13.220 E3.49249
G1 X-73.556 Y-13.840 E3.51503
G1 X-72.936 Y-14.380 E3.53740
G1 X-72.486 Y-14.690 E3.55227
G1 X-72.006 Y-14.970 E3.56739
G1 X-52.816 Y-25.100 E4.15776
G1 X-52.556 Y-25.220 E4.16555
G1 X-52.006 Y-25.420 E4.18148
G1 X-51.447 Y-25.570 E4.19725
G1 X-50.876 Y-25.670 E4.21299
G1 X-50.006 Y-25.730 E4.23672
G1 X49.993 Y-25.730 E6.95738
G1 X50.864 Y-25.670 E6.98111
G1 X51.433 Y-25.570 E6.99685
G1 X51.993 Y-25.420 E7.01263
G1 X52.543 Y-25.220 E7.02855
G1 X53.064 Y-24.970 E7.04425
G1 X72.004 Y-14.970 E7.62695
G1 X72.483 Y-14.690 E7.64207
G1 X72.934 Y-14.380 E7.65694
G1 X73.553 Y-13.840 E7.67931
G1 X73.923 Y-13.440 E7.69413
G1 X74.423 Y-12.780 E7.71666
G1 X74.833 Y-12.060 E7.73920
G1 X75.154 Y-11.310 E7.76139
G1 X75.233 Y-11.040 E7.76905
G1 X75.374 Y-10.510 E7.78396
G1 X75.494 Y-9.700 E7.80624
G1 X75.513 Y-9.150 E7.82121
G1 X75.513 Y-6.350 E7.89739
G1 X75.494 Y-5.820 E7.91182
G1 X75.464 Y-5.550 E7.91921
G1 X75.314 Y-4.760 E7.94109
G1 X75.163 Y-4.250 E7.95555
G1 X74.863 Y-3.510 E7.97728
G1 X74.613 Y-3.040 E7.99176
G1 X74.333 Y-2.590 E8.00618
G1 X74.173 Y-2.370 E8.01358
G1 X73.654 Y-1.760 E8.03539
G1 X73.064 Y-1.230 E8.05697
G1 X72.404 Y-0.760 E8.07901
G1 X71.944 Y-0.500 E8.09339
G1 X71.453 Y-0.270 E8.10811
G1 X18.704 Y21.640 E9.66214
G1 X15.594 Y22.910 E9.75353
G1 X15.084 Y23.100 E9.76834
G1 X11.894 Y24.110 E9.85938
G1 X11.323 Y24.260 E9.87541
G1 X8.064 Y24.980 E9.96624
G1 X7.504 Y25.080 E9.98172
G1 X4.163 Y25.520 E10.07337
G1 X3.584 Y25.570 E10.08921
G1 X0.360 Y25.706 E10.17699
G1 F1800.000 E9.17699
G92 E0
G1 X0.019 Y20.018 F7800.000
G1 F1800.000 E1.00000
G1 X-3.432 Y19.867 F540.000 E1.09399
G1 X-6.820 Y19.419 E1.18696
G1 X-10.156 Y18.678 E1.27993
G1 X-13.414 Y17.649 E1.37287
G1 X-16.535 Y16.357 E1.46480
G1 X-19.527 Y14.801 E1.55655
G1 X-65.043 Y-5.482 E2.91227
G1 X-69.296 Y-5.482 E3.02798
G1 X-69.804 Y-5.991 E3.04754
G1 X-69.804 Y-9.509 E3.14327
G1 X-69.296 Y-10.018 E3.16283
G1 X-63.868 Y-10.018 E3.31052
G1 X-63.868 Y-12.499 E3.37803
G1 X-63.359 Y-13.008 E3.39759
G1 X-56.641 Y-13.008 E3.58039
G1 X-56.132 Y-12.499 E3.59995
G1 X-56.132 Y-10.018 E3.66747
G1 X-50.868 Y-10.018 E3.81069
G1 X-50.868 Y-19.509 E4.06893
G1 X-50.359 Y-20.018 E4.08849
G1 X-34.507 Y-20.018 E4.51979
G1 X-34.003 Y-19.536 E4.53874
G1 X-33.857 Y-16.188 E4.62992
G1 X-33.470 Y-13.248 E4.71059
G1 X-32.829 Y-10.354 E4.79125
G1 X-31.937 Y-7.526 E4.87192
G1 X-30.802 Y-4.787 E4.95259
G1 X-29.433 Y-2.157 E5.03325
G1 X-27.840 Y0.344 E5.11392
G1 X-26.035 Y2.696 E5.19459
G1 X-24.032 Y4.882 E5.27525
G1 X-21.847 Y6.885 E5.35590
G1 X-19.459 Y8.712 E5.43771
G1 X-16.993 Y10.283 E5.51725
G1 X-14.363 Y11.652 E5.59791
G1 X-11.624 Y12.787 E5.67858
G1 X-8.796 Y13.679 E5.75924
G1 X-5.902 Y14.320 E5.83991
G1 X-2.962 Y14.707 E5.92058
G1 X-0.000 Y14.837 E6.00124
G1 X2.962 Y14.707 E6.08191
G1 X5.902 Y14.320 E6.16258
G1 X8.796 Y13.679 E6.24324
G1 X11.624 Y12.787 E6.32391
G1 X13.121 Y12.167 E6.36799
G1 X14.363 Y11.652 E6.40458
G1 X16.993 Y10.283 E6.48524
G1 X19.494 Y8.690 E6.56591
G1 X21.846 Y6.885 E6.64658
G1 X24.032 Y4.882 E6.72724
G1 X26.035 Y2.696 E6.80791
G1 X27.840 Y0.344 E6.88857
G1 X29.433 Y-2.157 E6.96924
G1 X30.802 Y-4.787 E7.04991
G1 X31.937 Y-7.526 E7.13057
G1 X32.829 Y-10.354 E7.21124
G1 X33.470 Y-13.248 E7.29191
G1 X33.857 Y-16.188 E7.37257
G1 X34.003 Y-19.536 E7.46375
G1 X34.507 Y-20.018 E7.48271
G1 X50.359 Y-20.018 E7.91400
G1 X50.868 Y-19.509 E7.93356
G1 X50.868 Y-10.018 E8.19180
G1 X56.132 Y-10.018 E8.33502
G1 X56.132 Y-12.499 E8.40254
G1 X56.641 Y-13.008 E8.42210
G1 X63.359 Y-13.008 E8.60490
G1 X63.868 Y-12.499 E8.62446
G1 X63.868 Y-10.018 E8.69198
G1 X69.296 Y-10.018 E8.83966
G1 X69.804 Y-9.509 E8.85922
G1 X69.804 Y-5.991 E8.95496
G1 X69.296 Y-5.482 E8.97452
G1 X65.043 Y-5.482 E9.09022
G1 X19.527 Y14.801 E10.44595
G1 X16.535 Y16.357 E10.53769
G1 X13.414 Y17.649 E10.62962
G1 X10.156 Y18.678 E10.72256
G1 X6.820 Y19.419 E10.81553
G1 X3.404 Y19.868 E10.90928
G1 X0.106 Y20.014 E10.99910
G1 X0.006 Y19.439 F7800.000
G1 X-3.357 Y19.293 F540.000 E11.09069
G1 X-6.707 Y18.852 E11.18263
G1 X-9.994 Y18.123 E11.27422
G1 X-13.192 Y17.114 E11.36545
G1 X-16.302 Y15.827 E11.45704
G1 X-19.276 Y14.280 E11.54823
G1 X-64.920 Y-6.061 E12.90778
G1 X-69.056 Y-6.061 E13.02031
G1 X-69.226 Y-6.230 E13.02683
G1 X-69.226 Y-9.270 E13.10953
G1 X-69.056 Y-9.439 E13.11605
G1 X-63.289 Y-9.439 E13.27295
G1 X-63.289 Y-12.260 E13.34969
G1 X-63.120 Y-12.429 E13.35621
G1 X-56.880 Y-12.429 E13.52597
G1 X-56.711 Y-12.260 E13.53249
G1 X-56.711 Y-9.439 E13.60923
G1 X-50.289 Y-9.439 E13.78393
G1 X-50.289 Y-19.270 E14.05139
G1 X-50.120 Y-19.439 E14.05791
G1 X-34.739 Y-19.439 E14.47637
G1 X-34.571 Y-19.279 E14.48269
G1 X-34.434 Y-16.137 E14.56823
G1 X-34.041 Y-13.148 E14.65027
G1 X-33.388 Y-10.204 E14.73231
G1 X-32.481 Y-7.328 E14.81435
G1 X-31.327 Y-4.542 E14.89639
G1 X-29.935 Y-1.867 E14.97843
G1 X-28.315 Y0.676 E15.06048
G1 X-26.479 Y3.068 E15.14252
G1 X-24.442 Y5.292 E15.22456
G1 X-22.219 Y7.329 E15.30659
G1 X-19.791 Y9.187 E15.38977
G1 X-17.283 Y10.785 E15.47067
G1 X-14.608 Y12.177 E15.55272
G1 X-11.822 Y13.331 E15.63476
G1 X-8.946 Y14.238 E15.71680
G1 X-6.002 Y14.891 E15.79884
G1 X-3.013 Y15.284 E15.88088
G1 X-0.000 Y15.416 E15.96292
G1 X3.013 Y15.284 E16.04496
G1 X6.002 Y14.891 E16.12700
G1 X8.946 Y14.238 E16.20904
G1 X11.822 Y13.331 E16.29108
G1 X13.342 Y12.701 E16.33585
G1 X14.608 Y12.177 E16.37312
G1 X17.283 Y10.785 E16.45516
G1 X19.826 Y9.165 E16.53721
G1 X22.218 Y7.329 E16.61925
G1 X24.442 Y5.292 E16.70129
G1 X26.479 Y3.068 E16.78333
G1 X28.315 Y0.676 E16.86537
G1 X29.935 Y-1.867 E16.94741
G1 X31.327 Y-4.542 E17.02945
G1 X32.481 Y-7.328 E17.11149
G1 X33.388 Y-10.204 E17.19353
G1 X34.041 Y-13.148 E17.27557
G1 X34.434 Y-16.137 E17.35761
G1 X34.571 Y-19.279 E17.44316
G1 X34.739 Y-19.439 E17.44948
G1 X50.120 Y-19.439 E17.86793
G1 X50.289 Y-19.270 E17.87445
G1 X50.289 Y-9.439 E18.14191
G1 X56.711 Y-9.439 E18.31662
G1 X56.711 Y-12.260 E18.39335
G1 X56.880 Y-12.429 E18.39987
G1 X63.120 Y-12.429 E18.56963
G1 X63.289 Y-12.260 E18.57615
G1 X63.289 Y-9.439 E18.65289
G1 X69.056 Y-9.439 E18.80979
G1 X69.226 Y-9.270 E18.81631
G1 X69.226 Y-6.230 E18.89901
G1 X69.056 Y-6.061 E18.90553
G1 X64.920 Y-6.061 E19.01807
G1 X19.276 Y14.280 E20.37762
G1 X16.302 Y15.827 E20.46881
G1 X13.204 Y17.110 E20.56005
G1 X9.994 Y18.123 E20.65162
G1 X6.707 Y18.852 E20.74321
G1 X3.341 Y19.293 E20.83558
G1 X0.093 Y19.435 E20.92404
G1 X0.000 Y18.860 F7800.000
G1 X-3.313 Y18.716 F540.000 E21.01425
G1 X-6.601 Y18.283 E21.10448
G1 X-9.838 Y17.565 E21.19469
G1 X-13.000 Y16.568 E21.28490
G1 X-16.064 Y15.300 E21.37511
G1 X-19.024 Y13.758 E21.46592
G1 X-64.797 Y-6.639 E22.82929
G1 X-68.647 Y-6.639 E22.93405
G1 X-68.647 Y-8.861 E22.99449
G1 X-62.711 Y-8.861 E23.15600
G1 X-62.711 Y-11.851 E23.23735
G1 X-57.289 Y-11.851 E23.38485
G1 X-57.289 Y-8.861 E23.46619
G1 X-49.711 Y-8.861 E23.67238
G1 X-49.711 Y-18.861 E23.94445
G1 X-35.132 Y-18.861 E24.34108
G1 X-35.011 Y-16.087 E24.41662
G1 X-34.611 Y-13.047 E24.50003
G1 X-33.947 Y-10.054 E24.58345
G1 X-33.025 Y-7.130 E24.66686
G1 X-31.852 Y-4.297 E24.75028
G1 X-30.436 Y-1.578 E24.83369
G1 X-28.789 Y1.008 E24.91711
G1 X-26.922 Y3.441 E25.00053
G1 X-24.851 Y5.701 E25.08394
G1 X-22.591 Y7.772 E25.16736
G1 X-20.158 Y9.639 E25.25077
G1 X-17.572 Y11.286 E25.33419
G1 X-14.853 Y12.702 E25.41760
G1 X-12.020 Y13.875 E25.50102
G1 X-9.096 Y14.797 E25.58443
G1 X-6.103 Y15.461 E25.66785
G1 X-3.063 Y15.861 E25.75126
G1 X0.000 Y15.995 E25.83468
G1 X3.063 Y15.861 E25.91809
G1 X6.103 Y15.461 E26.00151
G1 X9.096 Y14.797 E26.08492
G1 X12.020 Y13.875 E26.16834
G1 X13.564 Y13.236 E26.21380
G1 X14.853 Y12.702 E26.25175
G1 X17.572 Y11.286 E26.33517
G1 X20.158 Y9.639 E26.41859
G1 X22.591 Y7.772 E26.50200
G1 X24.851 Y5.701 E26.58542
G1 X26.922 Y3.441 E26.66883
G1 X28.789 Y1.008 E26.75225
G1 X30.436 Y-1.578 E26.83566
G1 X31.852 Y-4.297 E26.91908
G1 X33.025 Y-7.130 E27.00249
G1 X33.947 Y-10.054 E27.08591
G1 X34.611 Y-13.047 E27.16932
G1 X35.011 Y-16.087 E27.25274
G1 X35.132 Y-18.861 E27.32828
G1 X49.711 Y-18.861 E27.72491
G1 X49.711 Y-8.861 E27.99697
G1 X57.289 Y-8.861 E28.20316
G1 X57.289 Y-11.851 E28.28451
G1 X62.711 Y-11.851 E28.43201
G1 X62.711 Y-8.861 E28.51336
G1 X68.647 Y-8.861 E28.67487
G1 X68.647 Y-6.639 E28.73531
G1 X64.797 Y-6.639 E28.84006
G1 X19.024 Y13.758 E30.20344
G1 X16.064 Y15.300 E30.29425
G1 X13.000 Y16.568 E30.38446
G1 X9.838 Y17.565 E30.47466
G1 X6.601 Y18.283 E30.56488
G1 X3.313 Y18.716 E30.65510
G1 X0.087 Y18.857 E30.74296
G1 X-0.282 Y18.355 F7800.000
G1 X0.011 Y18.649
G1 X-12.103 Y14.072
G1 X-64.752 Y-6.850
G1 X-68.437 Y-6.850
G1 X-68.069 Y-7.218
G1 X-68.069 Y-8.282 F540.000 E30.77192
G1 X-62.132 Y-8.282 E30.93343
G1 X-62.132 Y-11.272 E31.01478
G1 X-57.868 Y-11.272 E31.13079
G1 X-57.868 Y-8.282 E31.21214
G1 X-49.132 Y-8.282 E31.44981
G1 X-49.132 Y-18.282 E31.72188
G1 X-35.686 Y-18.282 E32.08770
G1 X-35.588 Y-16.036 E32.14886
G1 X-35.181 Y-12.947 E32.23365
G1 X-34.507 Y-9.904 E32.31844
G1 X-33.569 Y-6.932 E32.40323
G1 X-32.377 Y-4.052 E32.48802
G1 X-30.938 Y-1.288 E32.57281
G1 X-29.263 Y1.340 E32.65760
G1 X-27.366 Y3.813 E32.74239
G1 X-25.261 Y6.111 E32.82718
G1 X-22.963 Y8.216 E32.91197
G1 X-20.490 Y10.113 E32.99675
G1 X-17.862 Y11.788 E33.08155
G1 X-15.098 Y13.227 E33.16633
G1 X-12.218 Y14.419 E33.25112
G1 X-9.246 Y15.357 E33.33591
G1 X-6.203 Y16.031 E33.42070
G1 X-3.114 Y16.438 E33.50549
G1 X0.000 Y16.574 E33.59028
G1 X3.114 Y16.438 E33.67507
G1 X6.203 Y16.031 E33.75986
G1 X9.246 Y15.357 E33.84465
G1 X12.218 Y14.419 E33.92944
G1 X13.785 Y13.770 E33.97559
G1 X15.098 Y13.227 E34.01423
G1 X17.862 Y11.788 E34.09902
G1 X20.490 Y10.113 E34.18381
G1 X22.963 Y8.216 E34.26860
G1 X25.261 Y6.111 E34.35339
G1 X27.366 Y3.813 E34.43818
G1 X29.263 Y1.340 E34.52297
G1 X30.938 Y-1.288 E34.60776
G1 X32.377 Y-4.052 E34.69255
G1 X33.569 Y-6.932 E34.77734
G1 X34.507 Y-9.904 E34.86213
G1 X35.181 Y-12.947 E34.94692
G1 X35.588 Y-16.036 E35.03171
G1 X35.686 Y-18.282 E35.09287
G1 X49.132 Y-18.282 E35.45869
G1 X49.132 Y-8.282 E35.73076
G1 X57.868 Y-8.282 E35.96842
G1 X57.868 Y-11.272 E36.04977
G1 X62.132 Y-11.272 E36.16579
G1 X62.132 Y-8.282 E36.24714
G1 X68.069 Y-8.282 E36.40865
G1 X68.069 Y-7.218 E36.43761
G1 X64.674 Y-7.218 E36.52997
G1 X18.773 Y13.237 E37.89718
G1 X15.819 Y14.775 E37.98777
G1 X12.802 Y16.024 E38.07661
G1 X9.688 Y17.006 E38.16544
G1 X6.500 Y17.713 E38.25428
G1 X3.262 Y18.139 E38.34313
G1 X0.000 Y18.281 E38.43197
G1 X-3.262 Y18.139 E38.52081
G1 X-6.500 Y17.713 E38.60967
G1 X-9.688 Y17.006 E38.69851
G1 X-12.802 Y16.024 E38.78734
G1 X-15.819 Y14.775 E38.87617
G1 X-18.773 Y13.237 E38.96677
G1 X-64.674 Y-7.218 E40.33397
G1 X-67.982 Y-7.218 E40.42398
G1 X-64.353 Y-7.534 F7800.000
G1 X-63.861 Y-7.863 F1080.000 E40.44014
G1 X-62.871 Y-6.874 E40.47834
G1 X-63.039 Y-7.863 E40.50574
G1 X-61.390 Y-6.214 E40.56943
G1 X-59.909 Y-5.553 E40.61371
G1 X-62.218 Y-7.863 E40.70289
G1 X-61.713 Y-8.179 E40.71916
G1 X-58.428 Y-4.893 E40.84602
G1 X-56.946 Y-4.233 E40.89030
G1 X-61.713 Y-9.000 E41.07436
G1 X-61.713 Y-9.821 E41.09679
G1 X-55.465 Y-3.573 E41.33805
G1 X-53.984 Y-2.913 E41.38233
G1 X-61.713 Y-10.642 E41.68079
G1 X-61.102 Y-10.853 E41.69842
G1 X-58.287 Y-8.038 E41.80714
G1 X-58.112 Y-7.863 F7800.000
G1 X-52.503 Y-2.253 F1080.000 E42.02376
G1 X-51.021 Y-1.593 E42.06804
G1 X-57.291 Y-7.863 E42.31016
G1 X-56.470 Y-7.863 E42.33258
G1 X-49.540 Y-0.933 E42.60019
G1 X-48.059 Y-0.273 E42.64447
G1 X-55.649 Y-7.863 E42.93756
G1 X-54.828 Y-7.863 E42.95999
G1 X-46.578 Y0.387 E43.27857
G1 X-45.097 Y1.047 E43.32285
G1 X-54.007 Y-7.863 E43.66692
G1 X-53.186 Y-7.863 E43.68935
G1 X-43.615 Y1.707 E44.05891
G1 X-42.134 Y2.367 E44.10319
G1 X-52.364 Y-7.863 E44.49824
G1 X-51.543 Y-7.863 E44.52067
G1 X-40.653 Y3.028 E44.94121
G1 X-39.172 Y3.688 E44.98549
G1 X-50.722 Y-7.863 E45.43152
G1 X-49.901 Y-7.863 E45.45394
G1 X-37.690 Y4.348 E45.92546
G1 X-36.209 Y5.008 E45.96974
G1 X-49.080 Y-7.863 E46.46676
G1 X-48.713 Y-8.317 E46.48270
G1 X-34.728 Y5.668 E47.02274
G1 X-33.247 Y6.328 E47.06702
G1 X-48.713 Y-9.138 E47.66426
G1 X-48.713 Y-9.959 E47.68668
G1 X-31.765 Y6.988 E48.34112
G1 X-30.284 Y7.648 E48.38540
G1 X-48.713 Y-10.781 E49.09704
G1 X-48.713 Y-11.602 E49.11946
G1 X-28.803 Y8.308 E49.88830
G1 X-27.322 Y8.968 E49.93258
G1 X-48.713 Y-12.423 E50.75862
G1 X-48.713 Y-13.244 E50.78104
G1 X-25.840 Y9.628 E51.66427
G1 X-24.359 Y10.288 E51.70855
G1 X-48.713 Y-14.065 E52.64899
G1 X-48.713 Y-14.886 E52.67141
G1 X-22.878 Y10.949 E53.66904
G1 X-21.397 Y11.609 E53.71332
G1 X-48.713 Y-15.707 E54.76816
G1 X-48.713 Y-16.529 E54.79058
G1 X-19.916 Y12.269 E55.90261
G1 X-18.950 Y11.592 F7800.000
G1 X-17.257 Y13.285 F1080.000 E55.96800
G1 X-18.434 Y12.929 E56.00158
G1 X-21.483 Y9.881 E56.11929
G1 X-29.031 Y2.333 F7800.000
G1 X-48.713 Y-17.350 F1080.000 E56.87934
G1 X-48.405 Y-17.863 E56.89568
G1 X-30.742 Y-0.200 E57.57776
G1 X-31.847 Y-2.126 E57.63840
G1 X-47.584 Y-17.863 E58.24609
G1 X-46.763 Y-17.863 E58.26851
G1 X-32.738 Y-3.839 E58.81007
G1 X-33.326 Y-5.247 E58.85174
G1 X-45.941 Y-17.863 E59.33891
G1 X-45.120 Y-17.863 E59.36133
G1 X-33.906 Y-6.649 E59.79437
G1 X-34.304 Y-7.868 E59.82939
G1 X-44.299 Y-17.863 E60.21534
G1 X-43.478 Y-17.863 E60.23776
G1 X-34.683 Y-9.068 E60.57740
G1 X-35.004 Y-10.210 E60.60981
G1 X-42.657 Y-17.863 E60.90533
G1 X-41.836 Y-17.863 E60.92775
G1 X-35.238 Y-11.265 E61.18253
G1 X-35.472 Y-12.320 E61.21204
G1 X-41.014 Y-17.863 E61.42607
G1 X-40.193 Y-17.863 E61.44849
G1 X-35.654 Y-13.323 E61.62379
G1 X-35.778 Y-14.269 E61.64984
G1 X-39.372 Y-17.863 E61.78862
G1 X-38.551 Y-17.863 E61.81104
G1 X-35.903 Y-15.215 E61.91331
G1 X-36.012 Y-16.145 E61.93890
G1 X-37.730 Y-17.863 E62.00522
G1 X-36.909 Y-17.863 E62.02764
G1 X-36.050 Y-17.004 E62.06080
G1 X-36.088 Y-17.863 E62.08427
G1 X-35.313 Y-18.650 F7800.000
G1 X-49.500 Y-8.650
G1 X-57.500 Y-8.650
G1 X-57.500 Y-11.640
G1 X-58.287 Y-10.501
G1 X-58.639 Y-10.853 F1080.000 E62.09786
G1 X-59.460 Y-10.853 E62.12028
G1 X-58.287 Y-9.680 E62.16558
G1 X-58.287 Y-8.859 E62.18800
G1 X-60.281 Y-10.853 E62.26501
G1 X-64.292 Y-7.693 F7800.000
G1 X-64.292 Y-7.693 F360.000 E62.26502
G1 X-67.659 Y-7.627 F7800.000
G1 X-67.449 Y-7.873 F360.000 E62.26992
G1 X-67.203 Y-7.627 E62.27520
G1 X-66.993 Y-7.873 E62.28010
G1 X-66.747 Y-7.627 E62.28538
G1 X-66.537 Y-7.873 E62.29028
G1 X-66.291 Y-7.627 E62.29556
G1 X-66.081 Y-7.873 E62.30047
G1 X-65.835 Y-7.627 E62.30574
