; generated by Slic3r 0.9.8 on 2013-04-26 at 10:49:56

; layer_height = 0.3
; perimeters = 2
; top_solid_layers = 3
; bottom_solid_layers = 3
; fill_density = 0.1
; perimeter_speed = 30
; infill_speed = 60
; travel_speed = 130
; scale = 1
; nozzle_diameter = 0.5
; filament_diameter = 2.85
; extrusion_multiplier = 1
; perimeters extrusion width = 0.70mm
; infill extrusion width = 0.70mm
; first layer extrusion width = 0.60mm

M107
M104 S210 ; set temperature
M104 S0
M83
M140 S80
G28
G1Y98F9000
M190 S80
G1X5Y98Z150F9000
M104 S210
G1X5Y98Z1F9000
G1Z0.05
M109 S210
G1Z5
G1X15
;G1E5F50
G90 ; use absolute coordinates
G21 ; set units to millimeters
G92 E0
M82 ; use absolute distances for extrusion
G1 F1800.000 E-1.00000
G92 E0
G1 Z0.300 F7800.000
G1 X-66.090 Y8.079
G1 F1800.000 E1.00000
G1 X-21.260 Y-31.571 F540.000 E2.62828
G1 X-20.820 Y-31.921 E2.64357
G1 X-20.360 Y-32.241 E2.65882
G1 X-19.870 Y-32.511 E2.67404
G1 X-19.100 Y-32.841 E2.69683
G1 X-18.830 Y-32.931 E2.70458
G1 X-18.290 Y-33.071 E2.71975
G1 X-17.740 Y-33.161 E2.73492
G1 X-16.900 Y-33.221 E2.75783
G1 X16.890 Y-33.221 E3.67714
G1 X17.730 Y-33.161 E3.70005
G1 X18.280 Y-33.071 E3.71521
G1 X18.820 Y-32.931 E3.73039
G1 X19.610 Y-32.631 E3.75338
G1 X20.350 Y-32.241 E3.77614
G1 X20.810 Y-31.921 E3.79139
G1 X21.250 Y-31.571 E3.80668
G1 X65.560 Y7.609 E5.41589
G1 X66.320 Y8.319 E5.44419
G1 X66.760 Y8.849 E5.46293
G1 X66.960 Y9.119 E5.47207
G1 X67.360 Y9.729 E5.49192
G1 X67.520 Y10.009 E5.50069
G1 X67.800 Y10.579 E5.51797
G1 X68.140 Y11.519 E5.54516
G1 X68.350 Y12.329 E5.56793
G1 X68.450 Y13.019 E5.58690
G1 X68.520 Y13.949 E5.61227
G1 X68.520 Y14.929 E5.63894
G1 X68.450 Y15.859 E5.66431
G1 X68.350 Y16.549 E5.68328
G1 X68.220 Y17.099 E5.69865
G1 X67.800 Y18.299 E5.73324
G1 X67.520 Y18.869 E5.75052
G1 X67.360 Y19.149 E5.75930
G1 X66.960 Y19.759 E5.77914
G1 X64.130 Y23.399 E5.90458
G1 X61.740 Y26.049 E6.00167
G1 X61.130 Y26.639 E6.02476
G1 X60.910 Y26.819 E6.03249
G1 X60.440 Y27.149 E6.04812
G1 X59.960 Y27.439 E6.06338
G1 X59.700 Y27.569 E6.07128
G1 X59.440 Y27.689 E6.07908
G1 X58.910 Y27.889 E6.09449
G1 X40.970 Y32.969 E6.60177
G1 X40.380 Y33.109 E6.61826
G1 X39.780 Y33.189 E6.63473
G1 X39.180 Y33.219 E6.65108
G1 X-39.190 Y33.219 E8.78326
G1 X-40.090 Y33.159 E8.80780
G1 X-40.690 Y33.049 E8.82440
G1 X-40.980 Y32.969 E8.83258
G1 X-58.920 Y27.889 E9.33986
G1 X-59.450 Y27.689 E9.35527
G1 X-59.970 Y27.439 E9.37097
G1 X-60.210 Y27.299 E9.37853
G1 X-60.920 Y26.819 E9.40184
G1 X-61.350 Y26.449 E9.41728
G1 X-61.750 Y26.049 E9.43267
G1 X-64.140 Y23.399 E9.52976
G1 X-66.970 Y19.759 E9.65520
G1 X-67.370 Y19.149 E9.67504
G1 X-67.530 Y18.869 E9.68382
G1 X-67.810 Y18.299 E9.70110
G1 X-68.250 Y17.039 E9.73741
G1 X-68.380 Y16.429 E9.75438
G1 X-68.420 Y16.129 E9.76261
G1 X-68.470 Y15.709 E9.77412
G1 X-68.520 Y14.929 E9.79538
G1 X-68.520 Y13.949 E9.82204
G1 X-68.470 Y13.169 E9.84331
G1 X-68.380 Y12.449 E9.86305
G1 X-68.250 Y11.839 E9.88002
G1 X-67.810 Y10.579 E9.91633
G1 X-67.530 Y10.009 E9.93361
G1 X-67.370 Y9.729 E9.94238
G1 X-66.970 Y9.119 E9.96223
G1 X-66.560 Y8.579 E9.98067
G1 X-66.152 Y8.141 E9.99698
G1 X-66.090 Y8.079 E9.99934
G1 F1800.000 E8.99934
G92 E0
G1 X-62.331 Y11.996 F7800.000
G1 F1800.000 E1.00000
G1 X-61.920 Y11.631 F540.000 E1.01495
G1 X-61.804 Y11.551 E1.01877
G1 X-61.318 Y11.296 E1.03372
G1 X-61.186 Y11.246 E1.03753
G1 X-60.653 Y11.115 E1.05247
G1 X-60.515 Y11.099 E1.05627
G1 X-50.749 Y11.099 E1.32195
G1 X-28.471 Y-1.669 E2.02054
G1 X-26.425 Y-3.902 E2.10296
G1 X-24.521 Y-6.383 E2.18803
G1 X-22.841 Y-9.020 E2.27309
G1 X-21.398 Y-11.793 E2.35816
G1 X-20.201 Y-14.682 E2.44324
G1 X-19.261 Y-17.664 E2.52829
G1 X-18.584 Y-20.717 E2.61336
G1 X-18.176 Y-23.817 E2.69843
G1 X-18.030 Y-27.155 E2.78935
G1 X-17.359 Y-27.798 E2.81463
G1 X17.359 Y-27.798 E3.75918
G1 X18.030 Y-27.155 E3.78446
G1 X18.176 Y-23.817 E3.87538
G1 X18.584 Y-20.717 E3.96045
G1 X19.261 Y-17.664 E4.04553
G1 X20.201 Y-14.682 E4.13058
G1 X21.398 Y-11.793 E4.21566
G1 X22.841 Y-9.020 E4.30073
G1 X24.521 Y-6.383 E4.38579
G1 X26.425 Y-3.902 E4.47086
G1 X28.471 Y-1.669 E4.55327
G1 X50.749 Y11.099 E5.25187
G1 X60.515 Y11.099 E5.51755
G1 X60.653 Y11.115 E5.52134
G1 X61.186 Y11.246 E5.53628
G1 X61.318 Y11.296 E5.54010
G1 X61.804 Y11.551 E5.55505
G1 X61.920 Y11.631 E5.55886
G1 X62.331 Y11.996 E5.57381
G1 X62.424 Y12.100 E5.57762
G1 X62.736 Y12.552 E5.59257
G1 X62.800 Y12.676 E5.59636
G1 X62.995 Y13.189 E5.61129
G1 X63.029 Y13.325 E5.61511
G1 X63.097 Y13.924 E5.63151
G1 X63.093 Y15.037 E5.66179
G1 X63.029 Y15.566 E5.67629
G1 X62.995 Y15.703 E5.68012
G1 X62.800 Y16.215 E5.69504
G1 X62.736 Y16.339 E5.69884
G1 X62.424 Y16.791 E5.71378
G1 X62.331 Y16.896 E5.71759
G1 X61.920 Y17.260 E5.73254
G1 X61.804 Y17.340 E5.73636
G1 X61.318 Y17.595 E5.75131
G1 X61.186 Y17.645 E5.75512
G1 X60.653 Y17.776 E5.77006
G1 X60.515 Y17.793 E5.77386
G1 X57.847 Y17.793 E5.84643
G1 X57.847 Y17.834 E5.84754
G1 X59.993 Y17.834 E5.90591
G1 X60.604 Y19.206 E5.94680
G1 X57.552 Y22.598 E6.07093
G1 X57.103 Y22.798 E6.08431
G1 X51.378 Y22.798 E6.24007
G1 X50.928 Y22.598 E6.25345
G1 X47.876 Y19.206 E6.37758
G1 X48.487 Y17.834 E6.41847
G1 X50.633 Y17.834 E6.47684
G1 X50.633 Y17.793 E6.47795
G1 X45.097 Y17.793 E6.62856
G1 X45.097 Y20.120 E6.69188
G1 X44.419 Y20.798 E6.71796
G1 X39.859 Y20.798 E6.84204
G1 X40.206 Y23.448 E6.91476
G1 X40.364 Y27.084 E7.01377
G1 X39.681 Y27.798 E7.04066
G1 X35.528 Y27.798 E7.15365
G1 X34.857 Y27.155 E7.17892
G1 X34.715 Y23.904 E7.26748
G1 X34.318 Y20.890 E7.35018
G1 X33.660 Y17.922 E7.43290
G1 X32.746 Y15.022 E7.51560
G1 X31.582 Y12.214 E7.59832
G1 X30.179 Y9.517 E7.68102
G1 X28.545 Y6.953 E7.76373
G1 X26.695 Y4.541 E7.84644
G1 X24.496 Y2.142 E7.93499
G1 X24.516 Y1.213 E7.96027
G1 X24.764 Y0.964 E7.96983
G1 X22.950 Y-1.019 E8.04297
G1 X20.837 Y-3.773 E8.13739
G1 X20.696 Y-3.990 E8.14445
G1 X18.621 Y-5.312 E8.21138
G1 X15.740 Y-6.812 E8.29976
G1 X12.738 Y-8.055 E8.38816
G1 X9.639 Y-9.033 E8.47656
G1 X6.467 Y-9.735 E8.56495
G1 X3.246 Y-10.160 E8.65333
G1 X-0.000 Y-10.301 E8.74174
G1 X-3.246 Y-10.160 E8.83014
G1 X-6.467 Y-9.735 E8.91852
G1 X-9.639 Y-9.033 E9.00691
G1 X-12.737 Y-8.055 E9.09531
G1 X-15.740 Y-6.812 E9.18371
G1 X-18.621 Y-5.312 E9.27209
G1 X-20.696 Y-3.990 E9.33903
G1 X-20.837 Y-3.773 E9.34608
G1 X-22.950 Y-1.019 E9.44050
G1 X-24.764 Y0.964 E9.51364
G1 X-24.516 Y1.213 E9.52320
G1 X-24.496 Y2.142 E9.54848
G1 X-26.695 Y4.541 E9.63703
G1 X-28.545 Y6.953 E9.71974
G1 X-30.179 Y9.517 E9.80245
G1 X-31.582 Y12.214 E9.88516
G1 X-32.746 Y15.022 E9.96787
G1 X-33.660 Y17.922 E10.05058
G1 X-34.318 Y20.890 E10.13329
G1 X-34.715 Y23.904 E10.21600
G1 X-34.857 Y27.155 E10.30455
G1 X-35.528 Y27.798 E10.32983
G1 X-39.681 Y27.798 E10.44281
G1 X-40.364 Y27.084 E10.46970
G1 X-40.206 Y23.448 E10.56871
G1 X-39.859 Y20.798 E10.64143
G1 X-44.419 Y20.798 E10.76551
G1 X-45.097 Y20.120 E10.79159
G1 X-45.097 Y17.793 E10.85491
G1 X-50.633 Y17.793 E11.00552
G1 X-50.633 Y17.834 E11.00663
G1 X-48.487 Y17.834 E11.06501
G1 X-47.876 Y19.206 E11.10589
G1 X-50.928 Y22.598 E11.23002
G1 X-51.378 Y22.798 E11.24341
G1 X-57.103 Y22.798 E11.39916
G1 X-57.552 Y22.598 E11.41255
G1 X-60.604 Y19.206 E11.53668
G1 X-59.993 Y17.834 E11.57756
G1 X-57.847 Y17.834 E11.63594
G1 X-57.847 Y17.793 E11.63705
G1 X-60.515 Y17.793 E11.70962
G1 X-60.653 Y17.776 E11.71341
G1 X-61.186 Y17.645 E11.72835
G1 X-61.318 Y17.595 E11.73217
G1 X-61.804 Y17.340 E11.74712
G1 X-61.920 Y17.260 E11.75093
G1 X-62.331 Y16.896 E11.76589
G1 X-62.424 Y16.791 E11.76969
G1 X-62.736 Y16.339 E11.78464
G1 X-62.800 Y16.215 E11.78843
G1 X-62.995 Y15.703 E11.80336
G1 X-63.029 Y15.566 E11.80718
G1 X-63.097 Y14.968 E11.82358
G1 X-63.093 Y13.854 E11.85386
G1 X-63.029 Y13.325 E11.86836
G1 X-62.995 Y13.189 E11.87219
G1 X-62.800 Y12.676 E11.88711
G1 X-62.736 Y12.552 E11.89091
G1 X-62.388 Y12.061 E11.90729
G1 X-62.331 Y11.996 E11.90965
G1 X-61.921 Y12.405 F7800.000
G1 X-61.562 Y12.087 F540.000 E11.92270
G1 X-61.080 Y11.825 E11.93763
G1 X-60.480 Y11.677 E11.95445
G1 X-50.595 Y11.677 E12.22337
G1 X-28.105 Y-1.211 E12.92860
G1 X-25.981 Y-3.530 E13.01415
G1 X-24.047 Y-6.051 E13.10060
G1 X-22.340 Y-8.730 E13.18703
G1 X-20.873 Y-11.549 E13.27347
G1 X-19.656 Y-14.484 E13.35993
G1 X-18.702 Y-17.514 E13.44635
G1 X-18.014 Y-20.616 E13.53281
G1 X-17.599 Y-23.766 E13.61924
G1 X-17.462 Y-26.898 E13.70454
G1 X-17.127 Y-27.219 E13.71717
G1 X17.127 Y-27.219 E14.64909
G1 X17.462 Y-26.898 E14.66173
G1 X17.599 Y-23.766 E14.74702
G1 X18.014 Y-20.616 E14.83346
G1 X18.702 Y-17.514 E14.91991
G1 X19.656 Y-14.484 E15.00634
G1 X20.873 Y-11.549 E15.09279
G1 X22.340 Y-8.730 E15.17923
G1 X24.047 Y-6.051 E15.26567
G1 X25.981 Y-3.530 E15.35211
G1 X28.105 Y-1.212 E15.43766
G1 X50.595 Y11.677 E16.14290
G1 X60.480 Y11.677 E16.41182
G1 X61.014 Y11.800 E16.42674
G1 X61.504 Y12.047 E16.44168
G1 X61.921 Y12.405 E16.45662
G1 X62.240 Y12.852 E16.47155
G1 X62.442 Y13.361 E16.48646
G1 X62.517 Y13.907 E16.50143
G1 X62.519 Y14.950 E16.52982
G1 X62.459 Y15.462 E16.54384
G1 X62.272 Y15.977 E16.55876
G1 X61.967 Y16.434 E16.57369
G1 X61.504 Y16.844 E16.59052
G1 X61.080 Y17.067 E16.60356
G1 X60.549 Y17.206 E16.61849
G1 X57.269 Y17.214 E16.70773
G1 X57.269 Y18.412 E16.74033
G1 X59.617 Y18.412 E16.80422
G1 X59.923 Y19.099 E16.82466
G1 X57.204 Y22.119 E16.93523
G1 X56.980 Y22.219 E16.94192
G1 X51.501 Y22.219 E17.09098
G1 X51.276 Y22.119 E17.09767
G1 X48.557 Y19.099 E17.20824
G1 X48.863 Y18.412 E17.22868
G1 X51.212 Y18.412 E17.29257
G1 X51.212 Y17.214 E17.32516
G1 X44.519 Y17.214 E17.50726
G1 X44.519 Y19.880 E17.57979
G1 X44.180 Y20.219 E17.59283
G1 X39.199 Y20.219 E17.72834
G1 X39.628 Y23.486 E17.81798
G1 X39.775 Y26.862 E17.90993
G1 X39.434 Y27.219 E17.92337
G1 X35.760 Y27.219 E18.02332
G1 X35.425 Y26.898 E18.03595
G1 X35.292 Y23.853 E18.11888
G1 X34.888 Y20.789 E18.20296
G1 X34.219 Y17.772 E18.28704
G1 X33.290 Y14.824 E18.37113
G1 X32.107 Y11.969 E18.45521
G1 X30.680 Y9.228 E18.53930
G1 X29.020 Y6.621 E18.62338
G1 X27.138 Y4.169 E18.70746
G1 X25.079 Y1.922 E18.79038
G1 X25.089 Y1.458 E18.80302
G1 X25.565 Y0.982 E18.82133
G1 X23.401 Y-1.382 E18.90850
G1 X21.304 Y-4.115 E19.00224
G1 X21.115 Y-4.409 E19.01175
G1 X18.911 Y-5.814 E19.08287
G1 X15.984 Y-7.337 E19.17262
G1 X12.936 Y-8.599 E19.26239
G1 X9.789 Y-9.592 E19.35217
G1 X6.568 Y-10.306 E19.44193
G1 X3.297 Y-10.737 E19.53169
G1 X-0.000 Y-10.880 E19.62147
G1 X-3.297 Y-10.737 E19.71124
G1 X-6.568 Y-10.306 E19.80100
G1 X-9.789 Y-9.592 E19.89077
G1 X-12.936 Y-8.599 E19.98054
G1 X-15.984 Y-7.337 E20.07032
G1 X-18.911 Y-5.814 E20.16007
G1 X-21.115 Y-4.409 E20.23118
G1 X-21.304 Y-4.115 E20.24070
G1 X-23.401 Y-1.382 E20.33443
G1 X-25.565 Y0.982 E20.42161
G1 X-25.089 Y1.458 E20.43991
G1 X-25.079 Y1.922 E20.45255
G1 X-27.138 Y4.169 E20.53547
G1 X-29.020 Y6.621 E20.61956
G1 X-30.680 Y9.228 E20.70364
G1 X-32.107 Y11.969 E20.78772
G1 X-33.290 Y14.824 E20.87181
G1 X-34.219 Y17.772 E20.95589
G1 X-34.888 Y20.789 E21.03998
G1 X-35.292 Y23.853 E21.12406
G1 X-35.425 Y26.898 E21.20698
G1 X-35.760 Y27.219 E21.21962
G1 X-39.434 Y27.219 E21.31956
G1 X-39.775 Y26.862 E21.33301
G1 X-39.628 Y23.486 E21.42495
G1 X-39.199 Y20.219 E21.51459
G1 X-44.180 Y20.219 E21.65010
G1 X-44.519 Y19.880 E21.66314
G1 X-44.519 Y17.214 E21.73568
G1 X-51.212 Y17.214 E21.91777
G1 X-51.212 Y18.412 E21.95036
G1 X-48.863 Y18.412 E22.01426
G1 X-48.557 Y19.099 E22.03470
G1 X-51.276 Y22.119 E22.14526
G1 X-51.501 Y22.219 E22.15196
G1 X-56.980 Y22.219 E22.30102
G1 X-57.204 Y22.119 E22.30771
G1 X-59.923 Y19.099 E22.41827
G1 X-59.617 Y18.412 E22.43871
G1 X-57.269 Y18.412 E22.50261
G1 X-57.269 Y17.214 E22.53520
G1 X-60.549 Y17.206 E22.62445
G1 X-61.080 Y17.067 E22.63938
G1 X-61.504 Y16.844 E22.65242
G1 X-61.921 Y16.486 E22.66736
G1 X-62.272 Y15.977 E22.68418
G1 X-62.459 Y15.462 E22.69910
G1 X-62.519 Y14.950 E22.71312
G1 X-62.519 Y13.941 E22.74056
G1 X-62.459 Y13.430 E22.75458
G1 X-62.272 Y12.914 E22.76949
G1 X-61.977 Y12.472 E22.78397
G1 X-61.921 Y12.405 E22.78633
G1 X-61.511 Y12.815 F7800.000
G1 X-61.205 Y12.543 F540.000 E22.79747
G1 X-60.842 Y12.353 E22.80860
G1 X-60.445 Y12.256 E22.81973
G1 X-50.441 Y12.256 E23.09189
G1 X-27.740 Y-0.754 E23.80377
G1 X-25.537 Y-3.158 E23.89246
G1 X-23.573 Y-5.719 E23.98027
G1 X-21.838 Y-8.441 E24.06808
G1 X-20.348 Y-11.304 E24.15590
G1 X-19.112 Y-14.286 E24.24373
G1 X-18.142 Y-17.364 E24.33153
G1 X-17.444 Y-20.516 E24.41935
G1 X-17.022 Y-23.716 E24.50717
G1 X-16.894 Y-26.641 E24.58683
G1 X16.894 Y-26.641 E25.50610
G1 X17.022 Y-23.716 E25.58576
G1 X17.444 Y-20.516 E25.67357
G1 X18.142 Y-17.364 E25.76140
G1 X19.112 Y-14.286 E25.84920
G1 X20.348 Y-11.304 E25.93703
G1 X21.838 Y-8.441 E26.02485
G1 X23.573 Y-5.719 E26.11266
G1 X25.537 Y-3.158 E26.20047
G1 X27.739 Y-0.754 E26.28915
G1 X50.441 Y12.256 E27.00103
G1 X60.445 Y12.256 E27.27320
G1 X60.842 Y12.353 E27.28433
G1 X61.205 Y12.543 E27.29546
G1 X61.511 Y12.815 E27.30660
G1 X61.744 Y13.152 E27.31775
G1 X61.889 Y13.534 E27.32886
G1 X61.940 Y13.959 E27.34050
G1 X61.940 Y14.933 E27.36699
G1 X61.889 Y15.357 E27.37863
G1 X61.744 Y15.739 E27.38975
G1 X61.511 Y16.076 E27.40089
G1 X61.205 Y16.348 E27.41204
G1 X60.842 Y16.538 E27.42317
G1 X60.445 Y16.636 E27.43430
G1 X56.690 Y16.636 E27.53645
G1 X56.690 Y18.991 E27.60052
G1 X59.242 Y18.991 E27.66994
G1 X56.857 Y21.641 E27.76693
G1 X51.624 Y21.641 E27.90930
G1 X49.239 Y18.991 E28.00630
G1 X51.790 Y18.991 E28.07571
G1 X51.790 Y16.636 E28.13978
G1 X43.940 Y16.636 E28.35336
G1 X43.940 Y19.641 E28.43511
G1 X38.495 Y19.641 E28.58326
G1 X38.604 Y20.134 E28.59701
G1 X39.051 Y23.524 E28.69004
G1 X39.187 Y26.641 E28.77491
G1 X35.992 Y26.641 E28.86182
G1 X35.869 Y23.803 E28.93911
G1 X35.459 Y20.688 E29.02456
G1 X34.779 Y17.622 E29.11002
G1 X33.834 Y14.626 E29.19548
G1 X32.632 Y11.724 E29.28094
G1 X31.182 Y8.938 E29.36640
G1 X29.494 Y6.289 E29.45185
G1 X27.582 Y3.797 E29.53732
G1 X25.663 Y1.702 E29.61460
G1 X26.366 Y0.999 E29.64165
G1 X23.853 Y-1.744 E29.74287
G1 X21.770 Y-4.457 E29.83592
G1 X21.534 Y-4.828 E29.84789
G1 X19.200 Y-6.315 E29.92318
G1 X16.229 Y-7.861 E30.01431
G1 X13.134 Y-9.143 E30.10546
G1 X9.939 Y-10.151 E30.19661
G1 X6.668 Y-10.876 E30.28775
G1 X3.347 Y-11.313 E30.37888
G1 X-0.000 Y-11.460 E30.47003
G1 X-3.347 Y-11.313 E30.56118
G1 X-6.668 Y-10.876 E30.65231
G1 X-9.939 Y-10.151 E30.74345
G1 X-13.134 Y-9.143 E30.83460
G1 X-16.229 Y-7.861 E30.92575
G1 X-19.200 Y-6.315 E31.01688
G1 X-21.534 Y-4.828 E31.09217
G1 X-21.770 Y-4.457 E31.10414
G1 X-23.853 Y-1.744 E31.19719
G1 X-26.366 Y0.999 E31.29841
G1 X-25.663 Y1.702 E31.32546
G1 X-27.582 Y3.797 E31.40274
G1 X-29.494 Y6.289 E31.48820
G1 X-31.182 Y8.938 E31.57366
G1 X-32.632 Y11.724 E31.65912
G1 X-33.834 Y14.626 E31.74458
G1 X-34.779 Y17.622 E31.83004
G1 X-35.459 Y20.688 E31.91549
G1 X-35.869 Y23.803 E32.00095
G1 X-35.992 Y26.641 E32.07824
G1 X-39.187 Y26.641 E32.16515
G1 X-39.051 Y23.524 E32.25002
G1 X-38.604 Y20.134 E32.34305
G1 X-38.495 Y19.641 E32.35680
G1 X-43.940 Y19.641 E32.50495
G1 X-43.940 Y16.636 E32.58670
G1 X-51.790 Y16.636 E32.80028
G1 X-51.790 Y18.991 E32.86435
G1 X-49.239 Y18.991 E32.93376
G1 X-51.624 Y21.641 E33.03076
G1 X-56.857 Y21.641 E33.17313
G1 X-59.242 Y18.991 E33.27012
G1 X-56.690 Y18.991 E33.33954
G1 X-56.690 Y16.636 E33.40361
G1 X-60.445 Y16.636 E33.50576
G1 X-60.842 Y16.538 E33.51689
G1 X-61.205 Y16.348 E33.52802
G1 X-61.511 Y16.076 E33.53917
G1 X-61.744 Y15.739 E33.55031
G1 X-61.889 Y15.357 E33.56143
G1 X-61.940 Y14.933 E33.57307
G1 X-61.940 Y13.959 E33.59956
G1 X-61.889 Y13.534 E33.61120
G1 X-61.744 Y13.152 E33.62231
G1 X-61.560 Y12.887 E33.63110
G1 X-61.511 Y12.815 E33.63346
G1 X-60.949 Y12.953 F7800.000
G1 F1800.000 E32.63346
G92 E0
G1 X-61.075 Y15.690 F7800.000
G1 F1800.000 E1.00000
G1 X-61.228 Y15.468 F540.000 E1.00733
G1 X-61.323 Y15.218 E1.01462
G1 X-61.362 Y14.898 E1.02339
G1 X-61.362 Y13.994 E1.04799
G1 X-61.323 Y13.674 E1.05676
G1 X-61.228 Y13.423 E1.06405
G1 X-61.075 Y13.201 E1.07138
G1 X-60.873 Y13.023 E1.07869
G1 X-60.636 Y12.898 E1.08600
G1 X-60.375 Y12.834 E1.09331
G1 X-50.287 Y12.834 E1.36775
G1 X-27.374 Y-0.297 E2.08627
G1 X-25.094 Y-2.786 E2.17809
G1 X-23.098 Y-5.386 E2.26728
G1 X-21.337 Y-8.151 E2.35647
G1 X-19.824 Y-11.059 E2.44566
