; generated by Slic3r 0.9.8 on 2013-04-25 at 19:57:14

; layer_height = 0.3
; perimeters = 2
; top_solid_layers = 3
; bottom_solid_layers = 3
; fill_density = 0.1
; perimeter_speed = 30
; infill_speed = 60
; travel_speed = 130
; scale = 1
; nozzle_diameter = 0.5
; filament_diameter = 2.85
; extrusion_multiplier = 1
; perimeters extrusion width = 0.70mm
; infill extrusion width = 0.70mm
; first layer extrusion width = 0.60mm

M107
M104 S210 ; set temperature
M104 S0
M83
M140 S80
G28
G1Y98F9000
M190 S80
G1X5Y98Z150F9000
M104 S210
G1X5Y98Z1F9000
G1Z0.05
M109 S210
G1Z5
G1X15
;G1E5F50
G90 ; use absolute coordinates
G21 ; set units to millimeters
G92 E0
M82 ; use absolute distances for extrusion
G1 F1800.000 E-1.00000
G92 E0
G1 Z0.300 F7800.000
G1 X-28.990 Y2.250
G1 F1800.000 E1.00000
G1 X2.250 Y-28.990 F540.000 E2.20199
G1 X2.730 Y-29.430 E2.21971
G1 X4.600 Y-30.960 E2.28544
G1 X5.220 Y-31.410 E2.30628
G1 X5.440 Y-31.550 E2.31338
G1 X7.800 Y-32.810 E2.38616
G1 X8.500 Y-33.140 E2.40722
G1 X8.990 Y-33.310 E2.42133
G1 X11.300 Y-34.010 E2.48700
G1 X11.810 Y-34.140 E2.50132
G1 X12.590 Y-34.260 E2.52279
G1 X15.000 Y-34.490 E2.58866
G1 X15.500 Y-34.520 E2.60228
G1 X16.250 Y-34.490 E2.62270
G1 X18.910 Y-34.230 E2.69542
G1 X19.680 Y-34.080 E2.71676
G1 X22.240 Y-33.310 E2.78949
G1 X22.970 Y-33.040 E2.81067
G1 X25.790 Y-31.550 E2.89744
G1 X26.010 Y-31.410 E2.90454
G1 X26.630 Y-30.960 E2.92538
G1 X28.700 Y-29.260 E2.99826
G1 X29.070 Y-28.900 E3.01230
G1 X29.420 Y-28.510 E3.02656
G1 X30.950 Y-26.640 E3.09229
G1 X31.400 Y-26.020 E3.11314
G1 X31.540 Y-25.800 E3.12023
G1 X33.030 Y-22.980 E3.20700
G1 X33.300 Y-22.250 E3.22818
G1 X34.000 Y-19.940 E3.29385
G1 X34.180 Y-19.180 E3.31510
G1 X34.250 Y-18.660 E3.32937
G1 X34.480 Y-16.260 E3.39497
G1 X34.510 Y-15.510 E3.41539
G1 X34.480 Y-15.010 E3.42902
G1 X34.250 Y-12.600 E3.49488
G1 X34.180 Y-12.080 E3.50916
G1 X34.000 Y-11.310 E3.53067
G1 X33.300 Y-9.000 E3.59634
G1 X33.130 Y-8.510 E3.61045
G1 X32.920 Y-8.040 E3.62446
G1 X31.540 Y-5.450 E3.70430
G1 X31.400 Y-5.230 E3.71140
G1 X30.950 Y-4.610 E3.73224
G1 X29.420 Y-2.740 E3.79798
G1 X28.980 Y-2.260 E3.81569
G1 X-2.260 Y28.980 E5.01768
G1 X-2.740 Y29.420 E5.03540
G1 X-4.610 Y30.950 E5.10113
G1 X-5.230 Y31.400 E5.12198
G1 X-5.450 Y31.540 E5.12907
G1 X-7.810 Y32.800 E5.20186
G1 X-8.510 Y33.130 E5.22291
G1 X-9.000 Y33.300 E5.23702
G1 X-11.310 Y34.000 E5.30269
G1 X-11.820 Y34.130 E5.31701
G1 X-12.590 Y34.250 E5.33821
G1 X-14.990 Y34.480 E5.40381
G1 X-15.490 Y34.510 E5.41743
G1 X-16.240 Y34.480 E5.43786
G1 X-18.920 Y34.220 E5.51111
G1 X-19.690 Y34.070 E5.53246
G1 X-22.250 Y33.300 E5.60519
G1 X-22.980 Y33.030 E5.62636
G1 X-25.800 Y31.540 E5.71314
G1 X-26.020 Y31.400 E5.72023
G1 X-26.640 Y30.950 E5.74107
G1 X-28.710 Y29.250 E5.81395
G1 X-29.080 Y28.890 E5.82799
G1 X-29.430 Y28.500 E5.84225
G1 X-30.960 Y26.630 E5.90799
G1 X-31.410 Y26.010 E5.92883
G1 X-31.550 Y25.790 E5.93592
G1 X-33.040 Y22.970 E6.02270
G1 X-33.310 Y22.240 E6.04387
G1 X-34.010 Y19.930 E6.10954
G1 X-34.140 Y19.420 E6.12386
G1 X-34.260 Y18.640 E6.14533
G1 X-34.490 Y16.230 E6.21120
G1 X-34.520 Y15.480 E6.23162
G1 X-34.490 Y14.980 E6.24525
G1 X-34.260 Y12.580 E6.31084
G1 X-34.190 Y12.060 E6.32512
G1 X-34.010 Y11.300 E6.34637
G1 X-33.310 Y8.990 E6.41204
G1 X-33.040 Y8.260 E6.43321
G1 X-32.810 Y7.800 E6.44720
G1 X-31.550 Y5.440 E6.51999
G1 X-31.270 Y5.010 E6.53395
G1 X-30.960 Y4.600 E6.54794
G1 X-29.430 Y2.730 E6.61367
G1 X-29.049 Y2.314 E6.62903
G1 X-28.990 Y2.250 E6.63139
G1 F1800.000 E5.63139
G92 E0
G1 X-25.109 Y6.051 F7800.000
G1 F1800.000 E1.00000
G1 X-23.059 Y4.384 F540.000 E1.07187
G1 X-20.724 Y3.148 E1.14374
G1 X-18.193 Y2.392 E1.21562
G1 X-15.563 Y2.144 E1.28749
G1 X-12.935 Y2.414 E1.35936
G1 X-10.411 Y3.192 E1.43123
G1 X-8.086 Y4.447 E1.50310
G1 X-6.051 Y6.131 E1.57498
G1 X-4.384 Y8.181 E1.64685
G1 X-3.148 Y10.516 E1.71872
G1 X-2.392 Y13.047 E1.79059
G1 X-2.144 Y15.677 E1.86246
G1 X-2.414 Y18.305 E1.93434
G1 X-3.192 Y20.829 E2.00621
G1 X-4.447 Y23.154 E2.07808
G1 X-6.131 Y25.189 E2.14995
G1 X-8.181 Y26.856 E2.22182
G1 X-10.516 Y28.092 E2.29370
G1 X-13.047 Y28.848 E2.36557
G1 X-15.677 Y29.096 E2.43744
G1 X-18.305 Y28.826 E2.50931
G1 X-20.829 Y28.048 E2.58118
G1 X-23.154 Y26.793 E2.65306
G1 X-25.189 Y25.109 E2.72493
G1 X-26.856 Y23.059 E2.79680
G1 X-28.092 Y20.724 E2.86867
G1 X-28.848 Y18.193 E2.94054
G1 X-29.096 Y15.563 E3.01242
G1 X-28.826 Y12.935 E3.08429
G1 X-28.048 Y10.411 E3.15616
G1 X-26.793 Y8.086 E3.22803
G1 X-25.170 Y6.112 E3.29755
G1 X-25.109 Y6.051 E3.29991
G1 F1800.000 E2.29991
G92 E0
G1 X3.192 Y-10.411 F7800.000
G1 F1800.000 E1.00000
G1 X2.414 Y-12.935 F540.000 E1.07187
G1 X2.144 Y-15.563 E1.14374
G1 X2.392 Y-18.193 E1.21562
G1 X3.148 Y-20.724 E1.28749
G1 X4.384 Y-23.059 E1.35936
G1 X6.051 Y-25.109 E1.43123
G1 X8.086 Y-26.793 E1.50310
G1 X10.411 Y-28.048 E1.57498
G1 X12.935 Y-28.826 E1.64685
G1 X15.563 Y-29.096 E1.71872
G1 X18.193 Y-28.848 E1.79059
G1 X20.724 Y-28.092 E1.86246
G1 X23.059 Y-26.856 E1.93434
G1 X25.109 Y-25.189 E2.00621
G1 X26.856 Y-23.059 E2.08116
G1 X28.092 Y-20.724 E2.15303
G1 X28.848 Y-18.193 E2.22490
G1 X29.096 Y-15.563 E2.29677
G1 X28.826 Y-12.935 E2.36864
G1 X28.048 Y-10.411 E2.44052
G1 X26.793 Y-8.086 E2.51239
G1 X25.109 Y-6.051 E2.58426
G1 X23.059 Y-4.384 E2.65613
G1 X20.724 Y-3.148 E2.72801
G1 X18.193 Y-2.392 E2.79988
G1 X15.563 Y-2.144 E2.87175
G1 X12.935 Y-2.414 E2.94362
G1 X10.411 Y-3.192 E3.01549
G1 X8.086 Y-4.447 E3.08737
G1 X6.051 Y-6.131 E3.15924
G1 X4.447 Y-8.086 E3.22803
G1 X3.233 Y-10.334 E3.29754
G1 X3.192 Y-10.411 E3.29990
G1 F1800.000 E2.29990
G92 E0
G1 X-8.431 Y4.912 F7800.000
G1 F1800.000 E1.00000
G1 X-6.480 Y6.520 F540.000 E1.06879
G1 X-4.912 Y8.431 E1.13603
G1 X-3.715 Y10.658 E1.20482
G1 X-2.976 Y13.076 E1.27360
G1 X-2.723 Y15.592 E1.34239
G1 X-2.965 Y18.108 E1.41118
G1 X-3.694 Y20.529 E1.47996
G1 X-4.881 Y22.762 E1.54875
G1 X-6.480 Y24.720 E1.61753
G1 X-8.431 Y26.328 E1.68632
G1 X-10.658 Y27.525 E1.75511
G1 X-13.076 Y28.264 E1.82389
G1 X-15.592 Y28.517 E1.89268
G1 X-18.108 Y28.275 E1.96146
G1 X-20.529 Y27.546 E2.03025
G1 X-22.762 Y26.359 E2.09904
G1 X-24.720 Y24.760 E2.16782
G1 X-26.328 Y22.809 E2.23661
G1 X-27.525 Y20.582 E2.30539
G1 X-28.264 Y18.164 E2.37418
G1 X-28.517 Y15.648 E2.44296
G1 X-28.275 Y13.132 E2.51175
G1 X-27.546 Y10.711 E2.58054
G1 X-26.359 Y8.478 E2.64932
G1 X-24.760 Y6.520 E2.71811
G1 X-22.809 Y4.912 E2.78689
G1 X-20.582 Y3.715 E2.85568
G1 X-18.164 Y2.976 E2.92447
G1 X-15.648 Y2.723 E2.99325
G1 X-13.132 Y2.965 E3.06204
G1 X-10.711 Y3.694 E3.13082
G1 X-8.505 Y4.867 E3.19880
G1 X-8.431 Y4.912 E3.20115
G1 F1800.000 E2.20115
G92 E0
G1 X6.480 Y-6.520 F7800.000
G1 F1800.000 E1.00000
G1 X4.881 Y-8.478 F540.000 E1.06878
G1 X3.694 Y-10.711 E1.13757
G1 X2.965 Y-13.132 E1.20636
G1 X2.723 Y-15.592 E1.27360
G1 X2.965 Y-18.108 E1.34239
G1 X3.694 Y-20.529 E1.41118
G1 X4.881 Y-22.762 E1.47996
G1 X6.480 Y-24.720 E1.54875
G1 X8.431 Y-26.328 E1.61753
G1 X10.658 Y-27.525 E1.68632
G1 X13.076 Y-28.264 E1.75511
G1 X15.592 Y-28.517 E1.82389
G1 X18.108 Y-28.275 E1.89268
G1 X20.529 Y-27.546 E1.96146
G1 X22.762 Y-26.359 E2.03025
G1 X24.720 Y-24.760 E2.09903
G1 X26.328 Y-22.809 E2.16782
G1 X27.525 Y-20.582 E2.23661
G1 X28.264 Y-18.164 E2.30539
G1 X28.517 Y-15.648 E2.37418
G1 X28.275 Y-13.132 E2.44296
G1 X27.546 Y-10.711 E2.51175
G1 X26.359 Y-8.478 E2.58054
G1 X24.760 Y-6.520 E2.64932
G1 X22.809 Y-4.912 E2.71811
G1 X20.582 Y-3.715 E2.78689
G1 X18.164 Y-2.976 E2.85568
G1 X15.648 Y-2.723 E2.92447
G1 X13.132 Y-2.965 E2.99325
G1 X10.711 Y-3.694 E3.06204
G1 X8.478 Y-4.881 E3.13083
G1 X6.544 Y-6.461 E3.19880
G1 X6.480 Y-6.520 E3.20115
G1 F1800.000 E2.20115
G92 E0
G1 X-18.023 Y27.702 F7800.000
G1 F1800.000 E1.00000
G1 X-20.334 Y27.001 F540.000 E1.06570
G1 X-22.464 Y25.862 E1.13140
G1 X-24.331 Y24.331 E1.19710
G1 X-25.862 Y22.464 E1.26280
G1 X-27.001 Y20.334 E1.32850
G1 X-27.702 Y18.023 E1.39420
G1 X-27.939 Y15.620 E1.45990
G1 X-27.702 Y13.217 E1.52560
G1 X-27.001 Y10.906 E1.59130
G1 X-25.862 Y8.776 E1.65700
G1 X-24.331 Y6.909 E1.72270
G1 X-22.464 Y5.378 E1.78840
G1 X-20.334 Y4.239 E1.85410
G1 X-18.023 Y3.538 E1.91980
G1 X-15.620 Y3.301 E1.98550
G1 X-13.217 Y3.538 E2.05120
G1 X-10.906 Y4.239 E2.11690
G1 X-8.776 Y5.378 E2.18260
G1 X-6.909 Y6.909 E2.24830
G1 X-5.378 Y8.776 E2.31400
G1 X-4.239 Y10.906 E2.37970
G1 X-3.538 Y13.217 E2.44540
G1 X-3.301 Y15.620 E2.51110
G1 X-3.538 Y18.023 E2.57680
G1 X-4.239 Y20.334 E2.64250
G1 X-5.378 Y22.464 E2.70820
G1 X-6.909 Y24.331 E2.77390
G1 X-8.776 Y25.862 E2.83960
G1 X-10.906 Y27.001 E2.90531
G1 X-13.217 Y27.702 E2.97100
G1 X-15.620 Y27.939 E3.03670
G1 X-17.937 Y27.710 E3.10004
G1 X-18.023 Y27.702 E3.10240
G1 X-17.854 Y26.851 F7800.000
G1 X-20.002 Y26.200 F540.000 E3.16348
G1 X-21.982 Y25.142 E3.22456
G1 X-23.717 Y23.717 E3.28563
G1 X-25.142 Y21.982 E3.34671
G1 X-26.200 Y20.002 E3.40778
G1 X-26.851 Y17.854 E3.46886
G1 X-27.071 Y15.620 E3.52993
G1 X-26.851 Y13.386 E3.59101
G1 X-26.200 Y11.238 E3.65209
G1 X-25.142 Y9.258 E3.71316
G1 X-23.717 Y7.523 E3.77424
G1 X-21.982 Y6.098 E3.83531
G1 X-20.002 Y5.040 E3.89639
G1 X-17.854 Y4.389 E3.95746
G1 X-15.620 Y4.169 E4.01854
G1 X-13.450 Y4.382 E4.07786
G1 X-11.238 Y5.040 E4.14066
G1 X-9.258 Y6.098 E4.20173
G1 X-7.523 Y7.523 E4.26281
G1 X-6.098 Y9.258 E4.32389
G1 X-5.040 Y11.238 E4.38496
G1 X-4.389 Y13.386 E4.44604
G1 X-4.169 Y15.620 E4.50711
G1 X-4.389 Y17.854 E4.56819
G1 X-5.040 Y20.002 E4.62926
G1 X-6.098 Y21.982 E4.69034
G1 X-7.523 Y23.717 E4.75142
G1 X-9.258 Y25.142 E4.81249
G1 X-11.238 Y26.200 E4.87357
G1 X-13.386 Y26.851 E4.93464
G1 X-15.620 Y27.071 E4.99572
G1 X-17.768 Y26.860 E5.05443
G1 X-17.854 Y26.851 E5.05679
G1 X-18.250 Y27.274 F7800.000
G1 F1800.000 E4.05679
G92 E0
G1 X5.378 Y-8.776 F7800.000
G1 F1800.000 E1.00000
G1 X4.239 Y-10.906 F540.000 E1.06570
G1 X3.538 Y-13.217 E1.13140
G1 X3.301 Y-15.620 E1.19710
G1 X3.538 Y-18.023 E1.26280
G1 X4.239 Y-20.334 E1.32850
G1 X5.378 Y-22.464 E1.39420
G1 X6.909 Y-24.331 E1.45990
G1 X8.776 Y-25.862 E1.52560
G1 X10.906 Y-27.001 E1.59130
G1 X13.217 Y-27.702 E1.65700
G1 X15.620 Y-27.939 E1.72270
G1 X18.023 Y-27.702 E1.78840
G1 X20.334 Y-27.001 E1.85410
G1 X22.464 Y-25.862 E1.91980
G1 X24.331 Y-24.331 E1.98550
G1 X25.862 Y-22.464 E2.05120
G1 X27.001 Y-20.334 E2.11690
G1 X27.702 Y-18.023 E2.18260
G1 X27.939 Y-15.620 E2.24830
G1 X27.702 Y-13.217 E2.31400
G1 X27.001 Y-10.906 E2.37970
G1 X25.862 Y-8.776 E2.44540
G1 X24.331 Y-6.909 E2.51110
G1 X22.464 Y-5.378 E2.57680
G1 X20.334 Y-4.239 E2.64251
G1 X18.023 Y-3.538 E2.70820
G1 X15.620 Y-3.301 E2.77390
G1 X13.217 Y-3.538 E2.83960
G1 X10.906 Y-4.239 E2.90530
G1 X8.776 Y-5.378 E2.97101
G1 X6.909 Y-6.909 E3.03671
G1 X5.433 Y-8.709 E3.10004
G1 X5.378 Y-8.776 E3.10240
G1 X6.098 Y-9.258 F7800.000
G1 X5.040 Y-11.238 F540.000 E3.16348
G1 X4.389 Y-13.386 E3.22456
G1 X4.169 Y-15.620 E3.28563
G1 X4.389 Y-17.854 E3.34671
G1 X5.040 Y-20.002 E3.40778
G1 X6.098 Y-21.982 E3.46886
G1 X7.523 Y-23.717 E3.52993
G1 X9.258 Y-25.142 E3.59101
G1 X11.238 Y-26.200 E3.65209
G1 X13.386 Y-26.851 E3.71316
G1 X15.620 Y-27.071 E3.77424
G1 X17.854 Y-26.851 E3.83531
G1 X20.002 Y-26.200 E3.89639
G1 X21.982 Y-25.142 E3.95746
G1 X23.717 Y-23.717 E4.01854
G1 X25.142 Y-21.982 E4.07962
G1 X26.200 Y-20.002 E4.14069
G1 X26.851 Y-17.854 E4.20177
G1 X27.071 Y-15.620 E4.26284
G1 X26.851 Y-13.386 E4.32392
G1 X26.200 Y-11.238 E4.38499
G1 X25.142 Y-9.258 E4.44607
G1 X23.717 Y-7.523 E4.50715
G1 X21.982 Y-6.098 E4.56822
G1 X20.002 Y-5.040 E4.62930
G1 X17.854 Y-4.389 E4.69037
G1 X15.620 Y-4.169 E4.75145
G1 X13.386 Y-4.389 E4.81252
G1 X11.238 Y-5.040 E4.87360
G1 X9.258 Y-6.098 E4.93468
G1 X7.523 Y-7.523 E4.99575
G1 X6.154 Y-9.191 E5.05447
G1 X6.098 Y-9.258 E5.05683
G1 X5.520 Y-9.239 F7800.000
M104 S200 ; set temperature
M140 S50 ; set bed temperature
G1 F1800.000 E4.05683
G92 E0
G1 Z0.600 F7800.000
G1 X-23.752 Y23.752
G1 F1800.000 E1.00000
G1 X-25.182 Y22.009 F1192.893 E1.06939
G1 X-26.245 Y20.021 E1.13878
G1 X-26.899 Y17.864 E1.20816
G1 X-27.120 Y15.620 E1.27755
G1 X-26.899 Y13.376 E1.34694
G1 X-26.245 Y11.219 E1.41633
G1 X-25.182 Y9.231 E1.48571
G1 X-23.752 Y7.488 E1.55510
G1 X-22.009 Y6.058 E1.62449
G1 X-20.021 Y4.995 E1.69388
G1 X-17.864 Y4.341 E1.76327
G1 X-15.620 Y4.120 E1.83265
G1 X-13.376 Y4.341 E1.90204
G1 X-11.219 Y4.995 E1.97143
G1 X-9.231 Y6.058 E2.04082
G1 X-7.596 Y7.400 E2.10593
G1 X-7.488 Y7.488 E2.11020
G1 X-6.058 Y9.231 E2.17959
G1 X-4.995 Y11.219 E2.24898
G1 X-4.341 Y13.376 E2.31837
G1 X-4.120 Y15.620 E2.38775
G1 X-4.341 Y17.864 E2.45714
G1 X-4.995 Y20.021 E2.52653
G1 X-6.058 Y22.009 E2.59592
G1 X-7.488 Y23.752 E2.66531
G1 X-9.231 Y25.182 E2.73469
G1 X-11.219 Y26.245 E2.80408
G1 X-13.376 Y26.899 E2.87347
G1 X-15.620 Y27.120 E2.94286
G1 X-17.864 Y26.899 E3.01224
G1 X-20.021 Y26.245 E3.08163
G1 X-22.009 Y25.182 E3.15102
G1 X-23.676 Y23.814 E3.21739
G1 X-23.752 Y23.752 E3.22041
G1 X-24.389 Y23.900 F7800.000
G1 F1800.000 E2.22041
G92 E0
G1 X-3.586 Y18.014 F7800.000
G1 F1800.000 E1.00000
G1 X-4.284 Y20.316 F1192.893 E1.07403
G1 X-5.418 Y22.437 E1.14807
G1 X-6.944 Y24.296 E1.22210
G1 X-8.803 Y25.822 E1.29613
G1 X-10.924 Y26.956 E1.37017
G1 X-13.226 Y27.654 E1.44420
G1 X-15.620 Y27.890 E1.51823
G1 X-18.014 Y27.654 E1.59226
G1 X-20.316 Y26.956 E1.66630
G1 X-22.437 Y25.822 E1.74033
G1 X-24.296 Y24.296 E1.81436
G1 X-25.822 Y22.437 E1.88839
G1 X-26.956 Y20.316 E1.96243
G1 X-27.654 Y18.014 E2.03646
G1 X-27.890 Y15.620 E2.11049
G1 X-27.654 Y13.226 E2.18453
G1 X-26.956 Y10.924 E2.25856
G1 X-25.822 Y8.803 E2.33259
G1 X-24.296 Y6.944 E2.40663
G1 X-22.437 Y5.418 E2.48066
G1 X-20.316 Y4.284 E2.55469
G1 X-18.014 Y3.586 E2.62873
G1 X-15.620 Y3.350 E2.70276
G1 X-13.226 Y3.586 E2.77679
G1 X-10.924 Y4.284 E2.85082
G1 X-8.803 Y5.418 E2.92486
G1 X-6.944 Y6.944 E2.99889
G1 X-5.418 Y8.803 E3.07292
G1 X-4.284 Y10.924 E3.14696
G1 X-3.586 Y13.226 E3.22099
G1 X-3.350 Y15.620 E3.29502
G1 X-3.576 Y17.916 E3.36603
G1 X-3.586 Y18.014 E3.36906
G1 F1800.000 E2.36906
G92 E0
G1 X25.182 Y-22.009 F7800.000
G1 F1800.000 E1.00000
G1 X26.245 Y-20.021 F1192.893 E1.06939
G1 X26.899 Y-17.864 E1.13878
G1 X27.120 Y-15.620 E1.20816
G1 X26.899 Y-13.376 E1.27755
G1 X26.245 Y-11.219 E1.34694
G1 X25.182 Y-9.231 E1.41633
G1 X23.752 Y-7.488 E1.48571
G1 X22.009 Y-6.058 E1.55510
G1 X20.021 Y-4.995 E1.62449
G1 X17.864 Y-4.341 E1.69388
G1 X15.620 Y-4.120 E1.76327
G1 X13.376 Y-4.341 E1.83265
G1 X11.219 Y-4.995 E1.90204
G1 X9.231 Y-6.058 E1.97143
G1 X7.488 Y-7.488 E2.04082
G1 X6.058 Y-9.231 E2.11020
G1 X4.995 Y-11.219 E2.17959
G1 X4.341 Y-13.376 E2.24898
G1 X4.120 Y-15.620 E2.31837
G1 X4.341 Y-17.864 E2.38775
G1 X4.995 Y-20.021 E2.45714
G1 X6.058 Y-22.009 E2.52653
G1 X7.488 Y-23.752 E2.59592
G1 X9.231 Y-25.182 E2.66531
G1 X11.219 Y-26.245 E2.73469
G1 X13.376 Y-26.899 E2.80408
G1 X15.620 Y-27.120 E2.87347
G1 X17.864 Y-26.899 E2.94286
G1 X20.021 Y-26.245 E3.01224
G1 X22.009 Y-25.182 E3.08163
G1 X23.752 Y-23.752 E3.15102
G1 X25.120 Y-22.085 E3.21739
G1 X25.182 Y-22.009 E3.22041
G1 X25.836 Y-22.031 F7800.000
G1 F1800.000 E2.22041
G92 E0
G1 X18.014 Y-3.586 F7800.000
G1 F1800.000 E1.00000
G1 X15.620 Y-3.350 F1192.893 E1.07403
G1 X13.226 Y-3.586 E1.14807
G1 X10.924 Y-4.284 E1.22210
G1 X8.803 Y-5.418 E1.29613
G1 X6.944 Y-6.944 E1.37017
G1 X5.418 Y-8.803 E1.44420
G1 X4.284 Y-10.924 E1.51823
G1 X3.586 Y-13.226 E1.59226
G1 X3.350 Y-15.620 E1.66630
G1 X3.586 Y-18.014 E1.74033
G1 X4.284 Y-20.316 E1.81436
G1 X5.418 Y-22.437 E1.88840
G1 X6.944 Y-24.296 E1.96243
G1 X8.803 Y-25.822 E2.03646
G1 X10.924 Y-26.956 E2.11050
G1 X13.226 Y-27.654 E2.18453
G1 X15.620 Y-27.890 E2.25856
G1 X18.014 Y-27.654 E2.33259
G1 X20.316 Y-26.956 E2.40663
G1 X22.437 Y-25.822 E2.48066
G1 X24.296 Y-24.296 E2.55469
G1 X25.822 Y-22.437 E2.62873
G1 X26.956 Y-20.316 E2.70276
G1 X27.654 Y-18.014 E2.77679
G1 X27.890 Y-15.620 E2.85082
G1 X27.654 Y-13.226 E2.92486
G1 X26.956 Y-10.924 E2.99889
G1 X25.822 Y-8.803 E3.07292
G1 X24.296 Y-6.944 E3.14696
G1 X22.437 Y-5.418 E3.22099
G1 X20.316 Y-4.284 E3.29502
G1 X18.108 Y-3.614 E3.36603
G1 X18.014 Y-3.586 E3.36906
G1 F1800.000 E2.36906
G92 E0
G1 Z0.900 F7800.000
G1 X-22.009 Y25.182
G1 F1800.000 E1.00000
G1 X-23.752 Y23.752 F1193.240 E1.06939
