; generated by Slic3r 0.9.9 on 2013-05-01 at 00:11:44

; layer_height = 0.3
; perimeters = 2
; top_solid_layers = 3
; bottom_solid_layers = 3
; fill_density = 0.1
; perimeter_speed = 30
; infill_speed = 60
; travel_speed = 130
; nozzle_diameter = 0.5
; filament_diameter = 2.85
; extrusion_multiplier = 1
; perimeters extrusion width = 0.70mm
; infill extrusion width = 0.70mm
; solid infill extrusion width = 0.70mm
; top infill extrusion width = 0.70mm
; first layer extrusion width = 0.60mm

G21 ; set units to millimeters
M107
M104 S0
M83
M140 S80
G28
G1Y98F9000
M190 S80
G1X5Y98Z150F9000
M104 S210
G1X5Y98Z1F9000
G1Z0.05
M109 S210
G1Z5
G1X15
;G1E5F50
G90 ; use absolute coordinates
G92 E0
M82 ; use absolute distances for extrusion
G1 F1800.000 E-1.00000
G92 E0
G1 Z0.300 F7800.000
G1 X18.683 Y48.798
G1 F1800.000 E1.00000
G1 X15.594 Y50.068 F540.000 E1.09089
G1 X15.084 Y50.258 E1.10570
G1 X11.894 Y51.268 E1.19673
G1 X11.323 Y51.418 E1.21277
G1 X8.064 Y52.138 E1.30360
G1 X7.504 Y52.238 E1.31908
G1 X4.163 Y52.678 E1.41073
G1 X3.584 Y52.728 E1.42657
G1 X0.273 Y52.868 E1.51671
G1 X-0.287 Y52.868 E1.53194
G1 X-3.626 Y52.728 E1.62289
G1 X-4.216 Y52.678 E1.63900
G1 X-7.526 Y52.238 E1.72985
G1 X-8.076 Y52.138 E1.74506
G1 X-11.337 Y51.418 E1.83589
G1 X-11.907 Y51.268 E1.85192
G1 X-15.096 Y50.258 E1.94296
G1 X-15.616 Y50.068 E1.95802
G1 X-71.456 Y26.888 E3.60294
G1 X-71.947 Y26.658 E3.61766
G1 X-72.406 Y26.398 E3.63204
G1 X-73.066 Y25.928 E3.65408
G1 X-73.656 Y25.398 E3.67566
G1 X-74.176 Y24.788 E3.69747
G1 X-74.477 Y24.348 E3.71196
G1 X-74.867 Y23.648 E3.73376
G1 X-75.166 Y22.908 E3.75548
G1 X-75.376 Y22.138 E3.77720
G1 X-75.496 Y21.338 E3.79920
G1 X-75.516 Y20.808 E3.81363
G1 X-75.516 Y-6.932 E4.56835
G1 X-75.496 Y-7.482 E4.58332
G1 X-75.466 Y-7.762 E4.59098
G1 X-75.426 Y-8.032 E4.59841
G1 X-75.236 Y-8.842 E4.62104
G1 X-74.947 Y-9.622 E4.64368
G1 X-74.556 Y-10.352 E4.66620
G1 X-74.087 Y-11.032 E4.68869
G1 X-73.716 Y-11.452 E4.70392
G1 X-73.326 Y-11.832 E4.71873
G1 X-72.896 Y-12.182 E4.73382
G1 X-20.646 Y-51.562 E6.51390
G1 X-20.416 Y-51.732 E6.52168
G1 X-19.936 Y-52.032 E6.53708
G1 X-19.436 Y-52.292 E6.55241
G1 X-18.906 Y-52.502 E6.56792
G1 X-18.096 Y-52.742 E6.59091
G1 X-17.256 Y-52.862 E6.61399
G1 X-16.686 Y-52.892 E6.62952
G1 X16.683 Y-52.892 E7.53741
G1 X17.254 Y-52.862 E7.55294
G1 X17.814 Y-52.792 E7.56829
G1 X18.094 Y-52.742 E7.57603
G1 X18.633 Y-52.592 E7.59128
G1 X19.433 Y-52.292 E7.61452
G1 X19.933 Y-52.032 E7.62986
G1 X20.413 Y-51.732 E7.64526
G1 X72.893 Y-12.182 E9.43312
G1 X73.113 Y-12.012 E9.44068
G1 X73.523 Y-11.642 E9.45571
G1 X74.083 Y-11.032 E9.47824
G1 X74.553 Y-10.352 E9.50073
G1 X74.944 Y-9.622 E9.52324
G1 X75.233 Y-8.842 E9.54588
G1 X75.303 Y-8.572 E9.55347
G1 X75.423 Y-8.032 E9.56852
G1 X75.494 Y-7.482 E9.58361
G1 X75.513 Y-6.932 E9.59858
G1 X75.513 Y20.808 E10.35329
G1 X75.494 Y21.338 E10.36772
G1 X75.423 Y21.868 E10.38227
G1 X75.314 Y22.398 E10.39699
G1 X75.163 Y22.908 E10.41146
G1 X74.863 Y23.648 E10.43318
G1 X74.613 Y24.118 E10.44766
G1 X74.333 Y24.568 E10.46208
G1 X74.004 Y24.998 E10.47683
G1 X73.654 Y25.398 E10.49129
G1 X73.064 Y25.928 E10.51287
G1 X72.404 Y26.398 E10.53491
G1 X71.703 Y26.778 E10.55658
G1 X18.765 Y48.772 E12.11622
G1 F1800.000 E11.11622
G92 E0
G1 X16.535 Y43.514 F7800.000
G1 F1800.000 E1.00000
G1 X13.378 Y44.820 F540.000 E1.09295
G1 X10.119 Y45.846 E1.18591
G1 X6.783 Y46.584 E1.27888
G1 X3.367 Y47.029 E1.37261
G1 X-0.019 Y47.176 E1.46480
G1 X-3.432 Y47.025 E1.55776
G1 X-6.820 Y46.577 E1.65073
G1 X-10.156 Y45.836 E1.74370
G1 X-13.378 Y44.820 E1.83562
G1 X-16.535 Y43.514 E1.92857
G1 X-19.527 Y41.959 E2.02032
G1 X-65.043 Y21.676 E3.37604
G1 X-69.296 Y21.676 E3.49175
G1 X-69.804 Y21.167 E3.51131
G1 X-69.804 Y17.648 E3.60704
G1 X-69.296 Y17.140 E3.62660
G1 X-63.868 Y17.140 E3.77429
G1 X-63.868 Y14.658 E3.84180
G1 X-63.359 Y14.150 E3.86136
G1 X-56.641 Y14.150 E4.04416
G1 X-56.132 Y14.658 E4.06372
G1 X-56.132 Y17.140 E4.13124
G1 X-50.868 Y17.140 E4.27446
G1 X-50.868 Y7.648 E4.53270
G1 X-50.359 Y7.140 E4.55226
G1 X-34.921 Y7.140 E4.97228
G1 X-34.418 Y7.622 E4.99124
G1 X-34.270 Y11.006 E5.08340
G1 X-33.878 Y13.981 E5.16505
G1 X-33.229 Y16.911 E5.24670
G1 X-32.326 Y19.774 E5.32835
G1 X-31.178 Y22.546 E5.41000
G1 X-29.792 Y25.208 E5.49165
G1 X-28.180 Y27.739 E5.57330
G1 X-26.353 Y30.120 E5.65495
G1 X-24.325 Y32.333 E5.73660
G1 X-22.113 Y34.361 E5.81825
G1 X-19.732 Y36.187 E5.89990
G1 X-18.578 Y36.923 E5.93712
G1 X-17.201 Y37.800 E5.98155
G1 X-14.539 Y39.186 E6.06320
G1 X-11.766 Y40.334 E6.14485
G1 X-8.904 Y41.237 E6.22650
G1 X-5.974 Y41.886 E6.30815
G1 X-2.998 Y42.278 E6.38980
G1 X-0.000 Y42.409 E6.47145
G1 X2.998 Y42.278 E6.55310
G1 X5.974 Y41.886 E6.63475
G1 X8.904 Y41.237 E6.71640
G1 X11.766 Y40.334 E6.79805
G1 X14.539 Y39.186 E6.87970
G1 X15.752 Y38.554 E6.91693
G1 X17.201 Y37.800 E6.96135
G1 X19.732 Y36.187 E7.04300
G1 X22.113 Y34.361 E7.12465
G1 X24.325 Y32.333 E7.20630
G1 X26.353 Y30.120 E7.28795
G1 X28.180 Y27.739 E7.36960
G1 X29.792 Y25.208 E7.45125
G1 X31.178 Y22.546 E7.53290
G1 X32.326 Y19.774 E7.61455
G1 X33.229 Y16.911 E7.69620
G1 X33.878 Y13.981 E7.77785
G1 X34.270 Y11.006 E7.85950
G1 X34.418 Y7.622 E7.95166
G1 X34.921 Y7.140 E7.97062
G1 X50.359 Y7.140 E8.39064
G1 X50.868 Y7.648 E8.41020
G1 X50.868 Y17.140 E8.66844
G1 X56.132 Y17.140 E8.81166
G1 X56.132 Y14.658 E8.87918
G1 X56.641 Y14.150 E8.89874
G1 X63.359 Y14.150 E9.08154
G1 X63.868 Y14.658 E9.10110
G1 X63.868 Y17.140 E9.16861
G1 X69.296 Y17.140 E9.31630
G1 X69.804 Y17.648 E9.33586
G1 X69.804 Y21.167 E9.43159
G1 X69.296 Y21.676 E9.45115
G1 X65.043 Y21.676 E9.56686
G1 X19.527 Y41.959 E10.92258
G1 X16.613 Y43.476 E11.01197
G1 F1800.000 E10.01197
G92 E0
G1 X3.572 Y-63.847 F7800.000
G1 X13.730 Y-66.094
G1 X35.141 Y6.245
G1 F1800.000 E1.00000
G1 X34.632 Y5.736 F540.000 E1.01956
G1 X34.500 Y2.858 E1.09794
G1 X34.105 Y-0.137 E1.18013
G1 X33.451 Y-3.087 E1.26233
G1 X32.543 Y-5.968 E1.34453
G1 X31.387 Y-8.759 E1.42672
G1 X29.992 Y-11.439 E1.50892
G1 X28.368 Y-13.987 E1.59112
G1 X26.529 Y-16.384 E1.67331
G1 X24.417 Y-18.690 E1.75840
G1 X22.267 Y-20.660 E1.83774
G1 X19.870 Y-22.500 E1.91995
G1 X17.321 Y-24.124 E2.00217
G1 X14.640 Y-25.519 E2.08439
G1 X11.848 Y-26.675 E2.16661
G1 X8.966 Y-27.584 E2.24883
G1 X6.015 Y-28.239 E2.33106
G1 X3.019 Y-28.633 E2.41327
G1 X-0.000 Y-28.765 E2.49549
G1 X-3.019 Y-28.633 E2.57772
G1 X-6.015 Y-28.239 E2.65993
G1 X-8.966 Y-27.584 E2.74216
G1 X-11.848 Y-26.675 E2.82438
G1 X-14.640 Y-25.519 E2.90659
G1 X-17.321 Y-24.124 E2.98881
G1 X-19.870 Y-22.500 E3.07104
G1 X-22.267 Y-20.660 E3.15325
G1 X-24.415 Y-18.691 E3.23253
G1 X-26.529 Y-16.384 E3.31767
G1 X-28.368 Y-13.987 E3.39987
G1 X-29.992 Y-11.439 E3.48207
G1 X-31.387 Y-8.759 E3.56426
G1 X-32.543 Y-5.968 E3.64646
G1 X-33.451 Y-3.087 E3.72866
G1 X-34.105 Y-0.137 E3.81085
G1 X-34.500 Y2.858 E3.89305
G1 X-34.632 Y5.736 E3.97143
G1 X-35.141 Y6.245 E3.99099
G1 X-50.359 Y6.245 E4.40504
G1 X-50.868 Y5.736 E4.42460
G1 X-50.868 Y-3.255 E4.66923
G1 X-56.132 Y-3.255 E4.81246
G1 X-56.132 Y-0.774 E4.87998
G1 X-56.641 Y-0.265 E4.89954
G1 X-63.359 Y-0.265 E5.08234
G1 X-63.868 Y-0.774 E5.10190
G1 X-63.868 Y-3.255 E5.16941
G1 X-69.296 Y-3.255 E5.31709
G1 X-69.804 Y-3.764 E5.33665
G1 X-69.804 Y-7.283 E5.43239
G1 X-69.296 Y-7.791 E5.45195
G1 X-65.015 Y-7.791 E5.56842
G1 X-24.335 Y-25.767 E6.77842
G1 X-23.816 Y-26.444 E6.80163
G1 X-22.193 Y-28.992 E6.88383
G1 X-20.798 Y-31.672 E6.96602
G1 X-19.642 Y-34.463 E7.04821
G1 X-18.734 Y-37.345 E7.13042
G1 X-18.079 Y-40.294 E7.21260
G1 X-17.685 Y-43.289 E7.29481
G1 X-17.536 Y-46.694 E7.38752
G1 X-17.033 Y-47.176 E7.40648
G1 X17.033 Y-47.176 E8.33329
G1 X17.536 Y-46.694 E8.35225
G1 X17.685 Y-43.289 E8.44496
G1 X18.079 Y-40.294 E8.52717
G1 X18.734 Y-37.345 E8.60935
G1 X19.642 Y-34.463 E8.69156
G1 X20.798 Y-31.672 E8.77375
G1 X22.193 Y-28.992 E8.85594
G1 X23.816 Y-26.444 E8.93814
G1 X24.335 Y-25.767 E8.96135
G1 X65.015 Y-7.791 E10.17135
G1 X69.296 Y-7.791 E10.28782
G1 X69.804 Y-7.283 E10.30738
G1 X69.804 Y-3.764 E10.40312
G1 X69.296 Y-3.255 E10.42268
G1 X63.868 Y-3.255 E10.57036
G1 X63.868 Y-0.774 E10.63787
G1 X63.359 Y-0.265 E10.65743
G1 X56.641 Y-0.265 E10.84023
G1 X56.132 Y-0.774 E10.85979
G1 X56.132 Y-3.255 E10.92731
G1 X50.868 Y-3.255 E11.07054
G1 X50.868 Y5.736 E11.31517
G1 X50.359 Y6.245 E11.33473
G1 X35.227 Y6.245 E11.74642
G1 X35.154 Y7.718 F7800.000
G1 X50.120 Y7.718 F540.000 E12.15360
G1 X50.289 Y7.888 E12.16012
G1 X50.289 Y17.718 E12.42758
G1 X56.711 Y17.718 E12.60228
G1 X56.711 Y14.898 E12.67902
G1 X56.880 Y14.728 E12.68554
G1 X63.120 Y14.728 E12.85530
G1 X63.289 Y14.898 E12.86182
G1 X63.289 Y17.718 E12.93856
G1 X69.056 Y17.718 E13.09546
G1 X69.226 Y17.888 E13.10198
G1 X69.226 Y20.928 E13.18468
G1 X69.056 Y21.097 E13.19120
G1 X64.920 Y21.097 E13.30374
G1 X19.276 Y41.437 E14.66328
G1 X16.302 Y42.985 E14.75447
G1 X13.204 Y44.267 E14.84572
G1 X9.994 Y45.281 E14.93729
G1 X6.707 Y46.010 E15.02888
G1 X3.341 Y46.451 E15.12125
G1 X0.006 Y46.597 E15.21207
G1 X-3.357 Y46.450 E15.30366
G1 X-6.707 Y46.010 E15.39560
G1 X-9.994 Y45.281 E15.48719
G1 X-13.204 Y44.267 E15.57876
G1 X-16.302 Y42.985 E15.67001
G1 X-19.276 Y41.437 E15.76120
G1 X-64.920 Y21.097 E17.12074
G1 X-69.056 Y21.097 E17.23328
G1 X-69.226 Y20.928 E17.23980
G1 X-69.226 Y17.888 E17.32250
G1 X-69.056 Y17.718 E17.32902
G1 X-63.289 Y17.718 E17.48592
G1 X-63.289 Y14.898 E17.56266
G1 X-63.120 Y14.728 E17.56918
G1 X-56.880 Y14.728 E17.73894
G1 X-56.711 Y14.898 E17.74546
G1 X-56.711 Y17.718 E17.82220
G1 X-50.289 Y17.718 E17.99690
G1 X-50.289 Y7.888 E18.26436
G1 X-50.120 Y7.718 E18.27088
G1 X-35.154 Y7.718 E18.67806
G1 X-34.986 Y7.879 E18.68438
G1 X-34.847 Y11.056 E18.77091
G1 X-34.449 Y14.082 E18.85393
G1 X-33.788 Y17.061 E18.93696
G1 X-32.871 Y19.972 E19.01998
G1 X-31.703 Y22.791 E19.10301
G1 X-30.294 Y25.498 E19.18603
G1 X-28.654 Y28.072 E19.26905
G1 X-26.796 Y30.493 E19.35208
G1 X-24.735 Y32.742 E19.43510
G1 X-22.485 Y34.804 E19.51813
G1 X-20.064 Y36.662 E19.60115
G1 X-18.889 Y37.411 E19.63907
G1 X-17.490 Y38.301 E19.68418
G1 X-14.783 Y39.711 E19.76720
G1 X-11.964 Y40.878 E19.85023
G1 X-9.054 Y41.796 E19.93325
G1 X-6.074 Y42.457 E20.01628
G1 X-3.049 Y42.855 E20.09930
G1 X-0.000 Y42.988 E20.18232
G1 X3.049 Y42.855 E20.26535
G1 X6.074 Y42.457 E20.34837
G1 X9.054 Y41.796 E20.43140
G1 X11.964 Y40.878 E20.51442
G1 X14.783 Y39.711 E20.59745
G1 X16.019 Y39.067 E20.63536
G1 X17.490 Y38.301 E20.68047
G1 X20.064 Y36.662 E20.76350
G1 X22.485 Y34.804 E20.84652
G1 X24.735 Y32.742 E20.92955
G1 X26.796 Y30.493 E21.01257
G1 X28.654 Y28.072 E21.09559
G1 X30.294 Y25.498 E21.17862
G1 X31.703 Y22.791 E21.26164
G1 X32.871 Y19.972 E21.34467
G1 X33.788 Y17.061 E21.42769
G1 X34.449 Y14.082 E21.51072
G1 X34.847 Y11.056 E21.59374
G1 X34.986 Y7.879 E21.68027
G1 X35.091 Y7.778 E21.68423
G1 F1800.000 E20.68423
G92 E0
G1 X13.730 Y-66.094 F7800.000
G1 X35.380 Y5.666
G1 F1800.000 E1.00000
G1 X35.211 Y5.497 F540.000 E1.00652
G1 X35.211 Y5.408 E1.00893
G1 X35.189 Y5.388 E1.00974
G1 X35.076 Y2.808 E1.07999
G1 X34.676 Y-0.237 E1.16356
G1 X34.011 Y-3.236 E1.24713
G1 X33.087 Y-6.166 E1.33070
G1 X31.911 Y-9.004 E1.41427
G1 X30.493 Y-11.728 E1.49784
G1 X28.843 Y-14.319 E1.58142
G1 X26.973 Y-16.756 E1.66499
G1 X24.826 Y-19.099 E1.75144
G1 X22.639 Y-21.103 E1.83216
G1 X20.202 Y-22.974 E1.91574
G1 X17.610 Y-24.625 E1.99935
G1 X14.885 Y-26.044 E2.08294
G1 X12.046 Y-27.219 E2.16653
G1 X9.116 Y-28.144 E2.25012
G1 X6.116 Y-28.809 E2.33373
G1 X3.070 Y-29.210 E2.41731
G1 X-0.000 Y-29.344 E2.50091
G1 X-3.070 Y-29.210 E2.58451
G1 X-6.116 Y-28.809 E2.66809
G1 X-9.116 Y-28.144 E2.75170
G1 X-12.046 Y-27.219 E2.83529
G1 X-14.885 Y-26.044 E2.91888
G1 X-17.610 Y-24.625 E3.00247
G1 X-20.202 Y-22.974 E3.08608
G1 X-22.639 Y-21.103 E3.16967
G1 X-24.825 Y-19.101 E3.25032
G1 X-26.973 Y-16.756 E3.33683
G1 X-28.843 Y-14.319 E3.42041
G1 X-30.493 Y-11.728 E3.50398
G1 X-31.911 Y-9.004 E3.58755
G1 X-33.087 Y-6.166 E3.67112
G1 X-34.011 Y-3.236 E3.75469
G1 X-34.676 Y-0.237 E3.83826
G1 X-35.076 Y2.808 E3.92183
G1 X-35.189 Y5.386 E3.99205
G1 X-35.211 Y5.407 E3.99286
G1 X-35.211 Y5.497 E3.99530
G1 X-35.380 Y5.666 E4.00182
G1 X-50.120 Y5.666 E4.40284
G1 X-50.289 Y5.497 E4.40935
G1 X-50.289 Y-3.834 E4.66321
G1 X-56.711 Y-3.834 E4.83791
G1 X-56.711 Y-1.013 E4.91465
G1 X-56.880 Y-0.844 E4.92117
G1 X-63.120 Y-0.844 E5.09093
G1 X-63.289 Y-1.013 E5.09745
G1 X-63.289 Y-3.834 E5.17419
G1 X-69.056 Y-3.834 E5.33109
G1 X-69.226 Y-4.003 E5.33761
G1 X-69.226 Y-7.043 E5.42031
G1 X-69.056 Y-7.213 E5.42683
G1 X-64.893 Y-7.213 E5.54010
G1 X-23.966 Y-25.298 E6.75744
G1 X-23.342 Y-26.112 E6.78536
G1 X-21.691 Y-28.703 E6.86894
G1 X-20.273 Y-31.427 E6.95250
G1 X-19.098 Y-34.265 E7.03607
G1 X-18.174 Y-37.195 E7.11965
G1 X-17.509 Y-40.193 E7.20321
G1 X-17.108 Y-43.239 E7.28679
G1 X-16.968 Y-46.436 E7.37386
G1 X-16.801 Y-46.597 E7.38018
G1 X16.801 Y-46.597 E8.29436
G1 X16.968 Y-46.436 E8.30068
G1 X17.108 Y-43.239 E8.38776
G1 X17.509 Y-40.193 E8.47134
G1 X18.174 Y-37.195 E8.55490
G1 X19.098 Y-34.265 E8.63848
G1 X20.273 Y-31.427 E8.72204
G1 X21.691 Y-28.703 E8.80561
G1 X23.342 Y-26.112 E8.88918
G1 X23.966 Y-25.298 E8.91710
G1 X64.893 Y-7.213 E10.13444
G1 X69.056 Y-7.213 E10.24772
G1 X69.226 Y-7.043 E10.25424
G1 X69.226 Y-4.003 E10.33694
G1 X69.056 Y-3.834 E10.34346
G1 X63.289 Y-3.834 E10.50036
G1 X63.289 Y-1.013 E10.57709
G1 X63.120 Y-0.844 E10.58361
G1 X56.880 Y-0.844 E10.75337
G1 X56.711 Y-1.013 E10.75989
G1 X56.711 Y-3.834 E10.83663
G1 X50.289 Y-3.834 E11.01134
G1 X50.289 Y5.497 E11.26519
G1 X50.120 Y5.666 E11.27171
G1 X35.467 Y5.666 E11.67037
G1 F1800.000 E10.67037
G92 E0
G1 X35.547 Y8.297 F7800.000
G1 F1800.000 E1.00000
G1 X49.711 Y8.297 F540.000 E1.38536
G1 X49.711 Y18.297 E1.65742
G1 X57.289 Y18.297 E1.86361
G1 X57.289 Y15.307 E1.94496
G1 X62.711 Y15.307 E2.09246
G1 X62.711 Y18.297 E2.17381
G1 X68.647 Y18.297 E2.33532
G1 X68.647 Y20.518 E2.39576
G1 X64.797 Y20.518 E2.50051
G1 X19.024 Y40.916 E3.86389
G1 X16.064 Y42.457 E3.95469
G1 X13.000 Y43.726 E4.04491
G1 X9.838 Y44.723 E4.13511
G1 X6.601 Y45.441 E4.22533
G1 X3.313 Y45.873 E4.31555
G1 X0.000 Y46.018 E4.40577
G1 X-3.313 Y45.873 E4.49598
G1 X-6.601 Y45.441 E4.58621
G1 X-9.838 Y44.723 E4.67642
G1 X-13.000 Y43.726 E4.76663
G1 X-16.064 Y42.457 E4.85684
G1 X-19.024 Y40.916 E4.94765
G1 X-64.797 Y20.518 E6.31102
G1 X-68.647 Y20.518 E6.41578
G1 X-68.647 Y18.297 E6.47622
G1 X-62.711 Y18.297 E6.63773
G1 X-62.711 Y15.307 E6.71908
G1 X-57.289 Y15.307 E6.86658
G1 X-57.289 Y18.297 E6.94792
G1 X-49.711 Y18.297 E7.15411
G1 X-49.711 Y8.297 E7.42618
G1 X-35.547 Y8.297 E7.81153
G1 X-35.424 Y11.107 E7.88805
G1 X-35.019 Y14.183 E7.97245
G1 X-34.348 Y17.211 E8.05685
G1 X-33.415 Y20.170 E8.14125
G1 X-32.228 Y23.036 E8.22565
G1 X-30.765 Y25.834 E8.31156
G1 X-29.128 Y28.404 E8.39444
G1 X-27.240 Y30.865 E8.47884
G1 X-25.144 Y33.152 E8.56324
G1 X-22.857 Y35.248 E8.64764
G1 X-20.396 Y37.136 E8.73204
G1 X-17.780 Y38.803 E8.81644
G1 X-15.028 Y40.235 E8.90084
G1 X-12.109 Y41.439 E8.98675
G1 X-9.203 Y42.355 E9.06963
G1 X-6.175 Y43.027 E9.15403
G1 X-3.099 Y43.432 E9.23843
G1 X-0.000 Y43.567 E9.32283
G1 X3.099 Y43.432 E9.40723
G1 X6.175 Y43.027 E9.49162
G1 X9.203 Y42.355 E9.57602
G1 X12.162 Y41.423 E9.66042
G1 X15.028 Y40.235 E9.74482
G1 X17.780 Y38.803 E9.82922
G1 X20.396 Y37.136 E9.91362
G1 X22.857 Y35.248 E9.99802
G1 X25.144 Y33.152 E10.08242
G1 X27.240 Y30.865 E10.16682
G1 X29.128 Y28.404 E10.25122
G1 X30.795 Y25.787 E10.33562
G1 X32.228 Y23.036 E10.42001
G1 X33.415 Y20.170 E10.50441
G1 X34.348 Y17.211 E10.58881
G1 X35.019 Y14.183 E10.67321
G1 X35.424 Y11.107 E10.75761
G1 X35.543 Y8.384 E10.83177
G1 X36.043 Y8.594 F7800.000
G1 X35.728 Y8.508
G1 X49.500 Y18.508
G1 X68.437 Y18.508
G1 X68.069 Y18.876
G1 X68.069 Y19.940 F540.000 E10.86073
G1 X64.674 Y19.940 E10.95309
G1 X18.773 Y40.395 E12.32029
G1 X15.819 Y41.932 E12.41089
G1 X12.802 Y43.181 E12.49973
G1 X9.688 Y44.164 E12.58856
G1 X6.500 Y44.870 E12.67740
G1 X3.262 Y45.296 E12.76625
G1 X0.000 Y45.439 E12.85509
G1 X-3.262 Y45.296 E12.94393
G1 X-6.500 Y44.870 E13.03279
G1 X-9.688 Y44.164 E13.12163
G1 X-12.802 Y43.181 E13.21046
G1 X-15.819 Y41.932 E13.29929
