; generated by Slic3r 0.9.8 on 2013-04-24 at 21:02:11

; layer_height = 0.3
; perimeters = 2
; top_solid_layers = 3
; bottom_solid_layers = 3
; fill_density = 0.1
; perimeter_speed = 30
; infill_speed = 60
; travel_speed = 130
; scale = 1
; nozzle_diameter = 0.5
; filament_diameter = 2.85
; extrusion_multiplier = 1
; perimeters extrusion width = 0.70mm
; infill extrusion width = 0.70mm
; first layer extrusion width = 0.60mm

M107
M104 S210 ; set temperature
M104 S0
M83
M140 S80
G28
G1Y98F9000
M190 S80
G1X5Y98Z150F9000
M104 S210
G1X5Y98Z1F9000
G1Z0.05
M109 S210
G1Z5
G1X15
;G1E5F50
G90 ; use absolute coordinates
G21 ; set units to millimeters
G92 E0
M82 ; use absolute distances for extrusion
G1 F1800.000 E-1.00000
G92 E0
G1 Z0.300 F7800.000
G1 X-13.460 Y-13.280
G1 F1800.000 E1.00000
G1 X-12.890 Y-13.810 F540.000 E1.02118
G1 X-11.020 Y-15.340 E1.08691
G1 X-10.610 Y-15.650 E1.10090
G1 X-10.180 Y-15.930 E1.11486
G1 X-7.360 Y-17.420 E1.20163
G1 X-6.630 Y-17.690 E1.22281
G1 X-4.320 Y-18.390 E1.28848
G1 X-3.810 Y-18.520 E1.30279
G1 X-3.030 Y-18.640 E1.32427
G1 X-0.620 Y-18.870 E1.39013
G1 X-0.120 Y-18.900 E1.40376
G1 X0.630 Y-18.870 E1.42418
G1 X3.030 Y-18.640 E1.48978
G1 X3.550 Y-18.570 E1.50405
G1 X4.310 Y-18.390 E1.52530
G1 X6.620 Y-17.690 E1.59097
G1 X7.110 Y-17.520 E1.60508
G1 X7.810 Y-17.190 E1.62613
G1 X10.170 Y-15.930 E1.69892
G1 X10.390 Y-15.790 E1.70601
G1 X11.010 Y-15.340 E1.72686
G1 X12.880 Y-13.810 E1.79259
G1 X13.270 Y-13.460 E1.80685
G1 X13.800 Y-12.890 E1.82803
G1 X15.330 Y-11.020 E1.89376
G1 X15.640 Y-10.610 E1.90775
G1 X15.920 Y-10.180 E1.92171
G1 X17.410 Y-7.360 E2.00848
G1 X17.680 Y-6.630 E2.02966
G1 X18.380 Y-4.320 E2.09533
G1 X18.510 Y-3.810 E2.10964
G1 X18.630 Y-3.040 E2.13085
G1 X18.860 Y-0.640 E2.19644
G1 X18.890 Y-0.140 E2.21007
G1 X18.860 Y0.610 E2.23049
G1 X18.630 Y3.020 E2.29636
G1 X18.560 Y3.540 E2.31063
G1 X18.380 Y4.310 E2.33215
G1 X17.680 Y6.620 E2.39781
G1 X17.510 Y7.110 E2.41193
G1 X17.180 Y7.810 E2.43298
G1 X15.920 Y10.170 E2.50577
G1 X15.780 Y10.390 E2.51286
G1 X15.330 Y11.010 E2.53370
G1 X13.800 Y12.880 E2.59944
G1 X13.450 Y13.270 E2.61370
G1 X12.880 Y13.800 E2.63487
G1 X11.010 Y15.330 E2.70061
G1 X10.600 Y15.640 E2.71459
G1 X10.170 Y15.920 E2.72855
G1 X7.350 Y17.410 E2.81533
G1 X6.620 Y17.680 E2.83650
G1 X4.310 Y18.380 E2.90217
G1 X3.800 Y18.510 E2.91649
G1 X3.030 Y18.630 E2.93769
G1 X0.630 Y18.860 E3.00329
G1 X0.130 Y18.890 E3.01691
G1 X-0.620 Y18.860 E3.03734
G1 X-3.030 Y18.630 E3.10320
G1 X-3.550 Y18.560 E3.11748
G1 X-4.320 Y18.380 E3.13899
G1 X-6.630 Y17.680 E3.20466
G1 X-7.120 Y17.510 E3.21877
G1 X-7.820 Y17.180 E3.23983
G1 X-10.180 Y15.920 E3.31261
G1 X-10.400 Y15.780 E3.31971
G1 X-11.020 Y15.330 E3.34055
G1 X-12.890 Y13.800 E3.40628
G1 X-13.280 Y13.450 E3.42054
G1 X-13.810 Y12.880 E3.44172
G1 X-15.340 Y11.010 E3.50745
G1 X-15.650 Y10.600 E3.52144
G1 X-15.930 Y10.170 E3.53540
G1 X-17.420 Y7.350 E3.62217
G1 X-17.690 Y6.620 E3.64335
G1 X-18.390 Y4.310 E3.70902
G1 X-18.520 Y3.800 E3.72334
G1 X-18.640 Y3.020 E3.74481
G1 X-18.870 Y0.610 E3.81067
G1 X-18.900 Y0.110 E3.82430
G1 X-18.870 Y-0.640 E3.84472
G1 X-18.640 Y-3.040 E3.91032
G1 X-18.570 Y-3.560 E3.92459
G1 X-18.390 Y-4.320 E3.94584
G1 X-17.690 Y-6.630 E4.01151
G1 X-17.520 Y-7.120 E4.02562
G1 X-17.190 Y-7.820 E4.04668
G1 X-15.930 Y-10.180 E4.11946
G1 X-15.790 Y-10.400 E4.12656
G1 X-15.340 Y-11.020 E4.14740
G1 X-13.810 Y-12.890 E4.21313
G1 X-13.520 Y-13.217 E4.22503
G1 X-13.460 Y-13.280 E4.22739
G1 F1800.000 E3.22739
G92 E0
G1 X-9.569 Y-9.489 F7800.000
G1 F1800.000 E1.00000
G1 X-7.534 Y-11.173 F540.000 E1.07187
G1 X-5.209 Y-12.428 E1.14374
G1 X-2.685 Y-13.206 E1.21562
G1 X-0.057 Y-13.476 E1.28749
G1 X2.573 Y-13.228 E1.35936
G1 X5.104 Y-12.472 E1.43123
G1 X7.439 Y-11.236 E1.50311
G1 X9.489 Y-9.569 E1.57498
G1 X11.173 Y-7.534 E1.64685
G1 X12.428 Y-5.209 E1.71872
G1 X13.206 Y-2.685 E1.79059
G1 X13.476 Y-0.057 E1.86246
G1 X13.228 Y2.573 E1.93434
G1 X12.472 Y5.104 E2.00621
G1 X11.236 Y7.439 E2.07808
G1 X9.569 Y9.489 E2.14995
G1 X7.534 Y11.173 E2.22182
G1 X5.209 Y12.428 E2.29370
G1 X2.685 Y13.206 E2.36557
G1 X0.057 Y13.476 E2.43744
G1 X-2.573 Y13.228 E2.50931
G1 X-5.104 Y12.472 E2.58118
G1 X-7.439 Y11.236 E2.65306
G1 X-9.489 Y9.569 E2.72493
G1 X-11.173 Y7.534 E2.79680
G1 X-12.428 Y5.209 E2.86867
G1 X-13.206 Y2.685 E2.94054
G1 X-13.476 Y0.057 E3.01242
G1 X-13.228 Y-2.573 E3.08429
G1 X-12.472 Y-5.104 E3.15616
G1 X-11.236 Y-7.439 E3.22803
G1 X-9.624 Y-9.421 E3.29754
G1 X-9.569 Y-9.489 E3.29990
G1 X-9.140 Y-9.100 F7800.000
G1 X-7.189 Y-10.708 F540.000 E3.36869
G1 X-4.962 Y-11.905 E3.43748
G1 X-2.544 Y-12.644 E3.50626
G1 X-0.028 Y-12.897 E3.57505
G1 X2.488 Y-12.655 E3.64383
G1 X4.909 Y-11.926 E3.71262
G1 X7.142 Y-10.739 E3.78141
G1 X9.100 Y-9.140 E3.85019
G1 X10.708 Y-7.189 E3.91898
G1 X11.905 Y-4.962 E3.98776
G1 X12.644 Y-2.544 E4.05655
G1 X12.897 Y-0.028 E4.12534
G1 X12.655 Y2.488 E4.19412
G1 X11.926 Y4.909 E4.26291
G1 X10.739 Y7.142 E4.33169
G1 X9.140 Y9.100 E4.40048
G1 X7.189 Y10.708 E4.46926
G1 X4.962 Y11.905 E4.53805
G1 X2.544 Y12.644 E4.60684
G1 X0.028 Y12.897 E4.67562
G1 X-2.488 Y12.655 E4.74441
G1 X-4.909 Y11.926 E4.81319
G1 X-7.142 Y10.739 E4.88198
G1 X-9.100 Y9.140 E4.95077
G1 X-10.708 Y7.189 E5.01955
G1 X-11.905 Y4.962 E5.08834
G1 X-12.644 Y2.544 E5.15712
G1 X-12.897 Y0.028 E5.22591
G1 X-12.655 Y-2.488 E5.29470
G1 X-11.926 Y-4.909 E5.36348
G1 X-10.739 Y-7.142 E5.43227
G1 X-9.195 Y-9.032 E5.49869
G1 X-9.140 Y-9.100 E5.50105
G1 F1800.000 E4.50105
G92 E0
G1 X-10.242 Y6.844 F7800.000
G1 F1800.000 E1.00000
G1 X-11.381 Y4.714 F540.000 E1.06570
G1 X-12.082 Y2.403 E1.13140
G1 X-12.319 Y-0.000 E1.19710
G1 X-12.082 Y-2.403 E1.26280
G1 X-11.381 Y-4.714 E1.32850
G1 X-10.242 Y-6.844 E1.39420
G1 X-8.711 Y-8.711 E1.45990
G1 X-6.844 Y-10.242 E1.52560
G1 X-4.714 Y-11.381 E1.59130
G1 X-2.403 Y-12.082 E1.65700
G1 X0.000 Y-12.319 E1.72270
G1 X2.403 Y-12.082 E1.78840
G1 X4.714 Y-11.381 E1.85410
G1 X6.844 Y-10.242 E1.91980
G1 X8.711 Y-8.711 E1.98550
G1 X10.242 Y-6.844 E2.05120
G1 X11.381 Y-4.714 E2.11690
G1 X12.082 Y-2.403 E2.18260
G1 X12.319 Y-0.000 E2.24830
G1 X12.082 Y2.403 E2.31400
G1 X11.381 Y4.714 E2.37970
G1 X10.242 Y6.844 E2.44540
G1 X8.711 Y8.711 E2.51110
G1 X6.844 Y10.242 E2.57680
G1 X4.714 Y11.381 E2.64251
G1 X2.403 Y12.082 E2.70820
G1 X0.000 Y12.319 E2.77390
G1 X-2.403 Y12.082 E2.83960
G1 X-4.714 Y11.381 E2.90530
G1 X-6.844 Y10.242 E2.97101
G1 X-8.711 Y8.711 E3.03671
G1 X-10.187 Y6.911 E3.10004
G1 X-10.242 Y6.844 E3.10240
G1 X-9.522 Y6.362 F7800.000
G1 X-10.580 Y4.382 F540.000 E3.16348
G1 X-11.231 Y2.234 E3.22456
G1 X-11.451 Y0.000 E3.28563
G1 X-11.231 Y-2.234 E3.34671
G1 X-10.580 Y-4.382 E3.40778
G1 X-9.522 Y-6.362 E3.46886
G1 X-8.097 Y-8.097 E3.52993
G1 X-6.362 Y-9.522 E3.59101
G1 X-4.382 Y-10.580 E3.65209
G1 X-2.234 Y-11.231 E3.71316
G1 X0.000 Y-11.451 E3.77424
G1 X2.234 Y-11.231 E3.83531
G1 X4.382 Y-10.580 E3.89639
G1 X6.362 Y-9.522 E3.95746
G1 X8.097 Y-8.097 E4.01854
G1 X9.522 Y-6.362 E4.07962
G1 X10.580 Y-4.382 E4.14069
G1 X11.231 Y-2.234 E4.20177
G1 X11.451 Y0.000 E4.26284
G1 X11.231 Y2.234 E4.32392
G1 X10.580 Y4.382 E4.38499
G1 X9.522 Y6.362 E4.44607
G1 X8.097 Y8.097 E4.50715
G1 X6.362 Y9.522 E4.56822
G1 X4.382 Y10.580 E4.62930
G1 X2.234 Y11.231 E4.69037
G1 X-0.000 Y11.451 E4.75145
G1 X-2.234 Y11.231 E4.81252
G1 X-4.382 Y10.580 E4.87360
G1 X-6.362 Y9.522 E4.93468
G1 X-8.097 Y8.097 E4.99575
G1 X-9.466 Y6.429 E5.05447
G1 X-9.522 Y6.362 E5.05683
G1 X-10.100 Y6.381 F7800.000
M104 S200 ; set temperature
M140 S50 ; set bed temperature
G1 F1800.000 E4.05683
G92 E0
G1 Z0.600 F7800.000
G1 X-9.627 Y6.267
G1 F1800.000 E1.00000
G1 X-10.625 Y4.401 F600.000 E1.06511
G1 X-11.279 Y2.244 E1.13450
G1 X-11.500 Y0.000 E1.20389
G1 X-11.279 Y-2.244 E1.27327
G1 X-10.625 Y-4.401 E1.34266
G1 X-9.562 Y-6.389 E1.41205
G1 X-8.132 Y-8.132 E1.48144
G1 X-6.389 Y-9.562 E1.55083
G1 X-4.401 Y-10.625 E1.62021
G1 X-2.244 Y-11.279 E1.68960
G1 X-0.000 Y-11.500 E1.75899
G1 X2.244 Y-11.279 E1.82838
G1 X4.401 Y-10.625 E1.89776
G1 X6.389 Y-9.562 E1.96715
G1 X8.132 Y-8.132 E2.03654
G1 X9.562 Y-6.389 E2.10593
G1 X10.625 Y-4.401 E2.17532
G1 X11.279 Y-2.244 E2.24470
G1 X11.500 Y0.000 E2.31409
G1 X11.279 Y2.244 E2.38348
G1 X10.625 Y4.401 E2.45287
G1 X9.562 Y6.389 E2.52225
G1 X8.132 Y8.132 E2.59164
G1 X6.389 Y9.562 E2.66103
G1 X4.401 Y10.625 E2.73042
G1 X2.244 Y11.279 E2.79980
G1 X-0.000 Y11.500 E2.86919
G1 X-2.244 Y11.279 E2.93858
G1 X-4.401 Y10.625 E3.00797
G1 X-6.389 Y9.562 E3.07736
G1 X-8.132 Y8.132 E3.14674
G1 X-9.581 Y6.353 E3.21736
G1 X-9.627 Y6.267 E3.22038
G1 X-10.282 Y6.285 F7800.000
G1 F1800.000 E2.22038
G92 E0
G1 X6.817 Y10.202 F7800.000
G1 F1800.000 E1.00000
G1 X4.696 Y11.336 F600.000 E1.07403
G1 X2.394 Y12.034 E1.14807
G1 X0.000 Y12.270 E1.22210
G1 X-2.394 Y12.034 E1.29613
G1 X-4.696 Y11.336 E1.37017
G1 X-6.817 Y10.202 E1.44420
G1 X-8.676 Y8.676 E1.51823
G1 X-10.202 Y6.817 E1.59226
G1 X-11.336 Y4.696 E1.66630
G1 X-12.034 Y2.394 E1.74033
G1 X-12.270 Y-0.000 E1.81436
G1 X-12.034 Y-2.394 E1.88840
G1 X-11.336 Y-4.696 E1.96243
G1 X-10.202 Y-6.817 E2.03646
G1 X-8.676 Y-8.676 E2.11050
G1 X-6.817 Y-10.202 E2.18453
G1 X-4.696 Y-11.336 E2.25856
G1 X-2.394 Y-12.034 E2.33259
G1 X-0.000 Y-12.270 E2.40663
G1 X2.394 Y-12.034 E2.48066
G1 X4.696 Y-11.336 E2.55469
G1 X6.817 Y-10.202 E2.62873
G1 X8.676 Y-8.676 E2.70276
G1 X10.202 Y-6.817 E2.77679
G1 X11.336 Y-4.696 E2.85083
G1 X12.034 Y-2.394 E2.92486
G1 X12.270 Y-0.000 E2.99889
G1 X12.034 Y2.394 E3.07292
G1 X11.336 Y4.696 E3.14696
G1 X10.202 Y6.817 E3.22099
G1 X8.676 Y8.676 E3.29502
G1 X6.893 Y10.140 E3.36603
G1 X6.817 Y10.202 E3.36906
G1 F1800.000 E2.36906
G92 E0
G1 Z0.900 F7800.000
G1 X6.389 Y9.562
G1 F1800.000 E1.00000
G1 X4.401 Y10.625 F600.000 E1.06939
G1 X2.244 Y11.279 E1.13878
G1 X-0.000 Y11.500 E1.20816
G1 X-2.244 Y11.279 E1.27755
G1 X-4.401 Y10.625 E1.34694
G1 X-6.389 Y9.562 E1.41633
G1 X-8.132 Y8.132 E1.48571
G1 X-9.562 Y6.389 E1.55510
G1 X-10.625 Y4.401 E1.62449
G1 X-11.279 Y2.244 E1.69388
G1 X-11.500 Y0.000 E1.76326
G1 X-11.279 Y-2.244 E1.83265
G1 X-10.625 Y-4.401 E1.90204
G1 X-9.562 Y-6.389 E1.97143
G1 X-8.132 Y-8.132 E2.04082
G1 X-6.389 Y-9.562 E2.11020
G1 X-4.401 Y-10.625 E2.17959
G1 X-2.244 Y-11.279 E2.24898
G1 X-0.000 Y-11.500 E2.31837
G1 X2.244 Y-11.279 E2.38775
G1 X4.401 Y-10.625 E2.45714
G1 X6.389 Y-9.562 E2.52653
G1 X8.132 Y-8.132 E2.59592
G1 X9.562 Y-6.389 E2.66531
G1 X10.625 Y-4.401 E2.73469
G1 X11.279 Y-2.244 E2.80408
G1 X11.500 Y0.000 E2.87347
G1 X11.279 Y2.244 E2.94286
G1 X10.625 Y4.401 E3.01224
G1 X9.562 Y6.389 E3.08163
G1 X8.132 Y8.132 E3.15102
G1 X6.465 Y9.500 E3.21739
G1 X6.389 Y9.562 E3.22041
G1 X6.411 Y10.216 F7800.000
G1 F1800.000 E2.22041
G92 E0
G1 X-4.696 Y-11.336 F7800.000
G1 F1800.000 E1.00000
G1 X-2.394 Y-12.034 F600.000 E1.07403
G1 X0.220 Y-12.292 E1.15488
G1 X0.220 Y-12.248 E1.15621
G1 X2.394 Y-12.034 E1.22343
G1 X4.696 Y-11.336 E1.29747
G1 X6.817 Y-10.202 E1.37150
G1 X8.676 Y-8.676 E1.44553
G1 X10.202 Y-6.817 E1.51956
G1 X11.336 Y-4.696 E1.59360
G1 X12.034 Y-2.394 E1.66763
G1 X12.270 Y-0.000 E1.74166
G1 X12.034 Y2.394 E1.81570
G1 X11.336 Y4.696 E1.88973
G1 X10.202 Y6.817 E1.96376
G1 X8.676 Y8.676 E2.03780
G1 X6.817 Y10.202 E2.11183
G1 X6.673 Y10.279 E2.11685
G1 X4.696 Y11.336 E2.18586
G1 X2.394 Y12.034 E2.25990
G1 X-0.000 Y12.270 E2.33393
G1 X-2.394 Y12.034 E2.40796
G1 X-4.696 Y11.336 E2.48199
G1 X-6.817 Y10.202 E2.55603
G1 X-8.676 Y8.676 E2.63006
G1 X-10.202 Y6.817 E2.70409
G1 X-11.336 Y4.696 E2.77813
G1 X-12.034 Y2.394 E2.85216
G1 X-12.270 Y-0.000 E2.92619
G1 X-12.034 Y-2.394 E3.00023
G1 X-11.336 Y-4.696 E3.07426
G1 X-10.202 Y-6.817 E3.14829
G1 X-8.676 Y-8.676 E3.22232
G1 X-6.817 Y-10.202 E3.29636
G1 X-4.782 Y-11.290 E3.36737
G1 X-4.696 Y-11.336 E3.37039
G1 F1800.000 E2.37039
G92 E0
G1 Z1.200 F7800.000
G1 X-4.401 Y-10.625
G1 F1800.000 E1.00000
G1 X-2.244 Y-11.279 F600.000 E1.06939
G1 X-0.000 Y-11.500 E1.13878
G1 X2.244 Y-11.279 E1.20816
G1 X4.401 Y-10.625 E1.27755
G1 X6.389 Y-9.562 E1.34694
G1 X8.132 Y-8.132 E1.41633
G1 X9.562 Y-6.389 E1.48571
G1 X10.625 Y-4.401 E1.55510
G1 X11.279 Y-2.244 E1.62449
G1 X11.500 Y0.000 E1.69388
G1 X11.279 Y2.244 E1.76326
G1 X10.625 Y4.401 E1.83265
G1 X9.562 Y6.389 E1.90204
G1 X8.132 Y8.132 E1.97143
G1 X6.389 Y9.562 E2.04082
G1 X4.401 Y10.625 E2.11020
G1 X2.244 Y11.279 E2.17959
G1 X-0.000 Y11.500 E2.24898
G1 X-2.244 Y11.279 E2.31837
G1 X-4.401 Y10.625 E2.38775
G1 X-6.389 Y9.562 E2.45714
G1 X-8.132 Y8.132 E2.52653
G1 X-9.562 Y6.389 E2.59592
G1 X-10.625 Y4.401 E2.66531
G1 X-11.279 Y2.244 E2.73469
G1 X-11.500 Y0.000 E2.80408
G1 X-11.279 Y-2.244 E2.87347
G1 X-10.625 Y-4.401 E2.94286
G1 X-9.562 Y-6.389 E3.01224
G1 X-8.132 Y-8.132 E3.08163
G1 X-6.389 Y-9.562 E3.15102
G1 X-4.487 Y-10.578 E3.21739
G1 X-4.401 Y-10.625 E3.22041
G1 X-4.294 Y-11.270 F7800.000
G1 F1800.000 E2.22041
G92 E0
G1 X8.676 Y8.676 F7800.000
G1 F1800.000 E1.00000
G1 X6.817 Y10.202 F600.000 E1.07403
G1 X4.696 Y11.336 E1.14807
G1 X2.467 Y12.012 E1.21974
G1 X2.467 Y12.027 E1.22020
G1 X-0.000 Y12.270 E1.29650
G1 X-2.394 Y12.034 E1.37054
G1 X-4.696 Y11.336 E1.44457
G1 X-6.817 Y10.202 E1.51860
G1 X-8.676 Y8.676 E1.59264
G1 X-10.202 Y6.817 E1.66667
G1 X-11.336 Y4.696 E1.74070
G1 X-12.034 Y2.394 E1.81473
G1 X-12.270 Y-0.000 E1.88877
G1 X-12.034 Y-2.394 E1.96280
G1 X-11.336 Y-4.696 E2.03683
G1 X-10.202 Y-6.817 E2.11087
G1 X-8.830 Y-8.489 E2.17745
G1 X-8.676 Y-8.676 E2.18490
G1 X-6.817 Y-10.202 E2.25893
G1 X-4.696 Y-11.336 E2.33297
G1 X-2.394 Y-12.034 E2.40700
G1 X-0.000 Y-12.270 E2.48103
G1 X2.394 Y-12.034 E2.55506
G1 X4.696 Y-11.336 E2.62910
G1 X6.817 Y-10.202 E2.70313
G1 X8.676 Y-8.676 E2.77716
G1 X10.202 Y-6.817 E2.85120
G1 X11.336 Y-4.696 E2.92523
G1 X12.034 Y-2.394 E2.99926
G1 X12.270 Y-0.000 E3.07330
G1 X12.034 Y2.394 E3.14733
G1 X11.336 Y4.696 E3.22136
G1 X10.202 Y6.817 E3.29540
G1 X8.738 Y8.600 E3.36641
G1 X8.676 Y8.676 E3.36943
M106 S255
G1 F1800.000 E2.36943
G92 E0
G1 Z1.500 F7800.000
G1 X8.132 Y8.132
G1 F1800.000 E1.00000
G1 X6.389 Y9.562 F600.000 E1.06939
G1 X4.401 Y10.625 E1.13878
G1 X2.244 Y11.279 E1.20816
G1 X-0.000 Y11.500 E1.27755
G1 X-2.244 Y11.279 E1.34694
G1 X-4.401 Y10.625 E1.41633
G1 X-6.389 Y9.562 E1.48571
G1 X-8.132 Y8.132 E1.55510
G1 X-9.562 Y6.389 E1.62449
G1 X-10.625 Y4.401 E1.69388
G1 X-11.279 Y2.244 E1.76327
G1 X-11.500 Y0.000 E1.83265
G1 X-11.279 Y-2.244 E1.90204
G1 X-10.625 Y-4.401 E1.97143
G1 X-9.562 Y-6.389 E2.04082
G1 X-8.132 Y-8.132 E2.11020
G1 X-6.389 Y-9.562 E2.17959
G1 X-4.401 Y-10.625 E2.24898
G1 X-2.244 Y-11.279 E2.31837
G1 X-0.000 Y-11.500 E2.38775
G1 X2.244 Y-11.279 E2.45714
G1 X4.401 Y-10.625 E2.52653
G1 X6.389 Y-9.562 E2.59592
G1 X8.132 Y-8.132 E2.66531
G1 X9.562 Y-6.389 E2.73469
G1 X10.625 Y-4.401 E2.80408
G1 X11.279 Y-2.244 E2.87347
G1 X11.500 Y0.000 E2.94286
G1 X11.279 Y2.244 E3.01224
G1 X10.625 Y4.401 E3.08163
G1 X9.562 Y6.389 E3.15102
G1 X8.194 Y8.056 E3.21739
G1 X8.132 Y8.132 E3.22041
G1 X8.280 Y8.769 F7800.000
G1 F1800.000 E2.22041
G92 E0
G1 X-8.880 Y8.428 F7800.000
G1 F1800.000 E1.00000
G1 X-10.202 Y6.817 F600.000 E1.06415
G1 X-11.336 Y4.696 E1.13819
G1 X-12.034 Y2.394 E1.21222
G1 X-12.270 Y-0.000 E1.28625
G1 X-12.034 Y-2.394 E1.36029
G1 X-11.336 Y-4.696 E1.43432
G1 X-10.202 Y-6.817 E1.50835
G1 X-8.676 Y-8.676 E1.58238
G1 X-6.817 Y-10.202 E1.65642
G1 X-4.696 Y-11.336 E1.73045
G1 X-2.394 Y-12.034 E1.80448
G1 X-0.000 Y-12.270 E1.87852
G1 X2.394 Y-12.034 E1.95255
G1 X4.696 Y-11.336 E2.02658
G1 X6.817 Y-10.202 E2.10062
G1 X8.676 Y-8.676 E2.17465
G1 X10.466 Y-6.496 E2.26147
G1 X10.374 Y-6.496 E2.26430
G1 X11.336 Y-4.696 E2.32712
G1 X12.034 Y-2.394 E2.40115
G1 X12.270 Y-0.000 E2.47519
G1 X12.034 Y2.394 E2.54922
G1 X11.336 Y4.696 E2.62325
G1 X10.374 Y6.496 E2.68608
G1 X10.466 Y6.496 E2.68891
G1 X8.676 Y8.676 E2.77573
G1 X6.817 Y10.202 E2.84976
G1 X4.696 Y11.336 E2.92379
G1 X2.394 Y12.034 E2.99783
G1 X-0.000 Y12.270 E3.07186
G1 X-2.394 Y12.034 E3.14589
G1 X-4.696 Y11.336 E3.21993
G1 X-6.817 Y10.202 E3.29396
G1 X-8.676 Y8.676 E3.36799
G1 X-8.818 Y8.504 E3.37485
G1 X-8.880 Y8.428 E3.37787
G1 F1800.000 E2.37787
G92 E0
G1 Z1.800 F7800.000
G1 X-8.397 Y7.809
G1 F1800.000 E1.00000
G1 X-9.562 Y6.389 F600.000 E1.05652
G1 X-10.625 Y4.401 E1.12591
