; generated by Slic3r 0.9.9 on 2013-05-01 at 21:00:27

; layer_height = 0.3
; perimeters = 2
; top_solid_layers = 3
; bottom_solid_layers = 3
; fill_density = 0.1
; perimeter_speed = 30
; infill_speed = 60
; travel_speed = 130
; nozzle_diameter = 0.5
; filament_diameter = 2.85
; extrusion_multiplier = 1
; perimeters extrusion width = 0.70mm
; infill extrusion width = 0.70mm
; solid infill extrusion width = 0.70mm
; top infill extrusion width = 0.70mm
; first layer extrusion width = 0.60mm

G21 ; set units to millimeters
M107
M104 S0
M83
M140 S80
G28
G1Y98F9000
M190 S80
G1X5Y98Z150F9000
M104 S210
G1X5Y98Z1F9000
G1Z0.05
M109 S210
G1Z5
G1X15
;G1E5F50
G90 ; use absolute coordinates
G92 E0
M82 ; use absolute distances for extrusion
G1 F1800.000 E-1.00000
G92 E0
G1 Z0.300 F7800.000
G1 X35.907 Y-40.500
G1 F1800.000 E1.00000
G1 X35.907 Y58.500 F540.000 E3.69346
G1 X35.887 Y59.030 E3.70789
G1 X35.777 Y59.820 E3.72959
G1 X35.647 Y60.330 E3.74391
G1 X35.377 Y61.080 E3.76559
G1 X35.157 Y61.560 E3.77996
G1 X35.027 Y61.790 E3.78715
G1 X34.737 Y62.240 E3.80171
G1 X34.427 Y62.660 E3.81591
G1 X33.887 Y63.240 E3.83747
G1 X33.487 Y63.600 E3.85212
G1 X33.277 Y63.760 E3.85930
G1 X32.847 Y64.060 E3.87356
G1 X32.387 Y64.330 E3.88807
G1 X31.657 Y64.650 E3.90976
G1 X31.157 Y64.820 E3.92413
G1 X30.647 Y64.950 E3.93845
G1 X29.857 Y65.060 E3.96015
G1 X29.327 Y65.080 E3.97458
G1 X-5.673 Y65.080 E4.92681
G1 X-6.243 Y65.050 E4.94234
G1 X-6.813 Y64.980 E4.95796
G1 X-7.363 Y64.860 E4.97328
G1 X-7.913 Y64.690 E4.98894
G1 X-8.433 Y64.470 E5.00430
G1 X-8.943 Y64.210 E5.01988
G1 X-9.653 Y63.740 E5.04304
G1 X-33.533 Y45.560 E5.85959
G1 X-33.943 Y45.200 E5.87443
G1 X-34.493 Y44.580 E5.89698
G1 X-34.813 Y44.140 E5.91178
G1 X-35.103 Y43.670 E5.92681
G1 X-35.453 Y42.920 E5.94933
G1 X-35.633 Y42.400 E5.96430
G1 X-35.773 Y41.870 E5.97921
G1 X-35.893 Y41.050 E6.00176
G1 X-35.913 Y40.500 E6.01673
G1 X-35.913 Y-58.500 E8.71019
G1 X-35.893 Y-59.030 E8.72462
G1 X-35.783 Y-59.820 E8.74632
G1 X-35.653 Y-60.330 E8.76064
G1 X-35.383 Y-61.080 E8.78233
G1 X-35.163 Y-61.560 E8.79669
G1 X-35.033 Y-61.790 E8.80388
G1 X-34.743 Y-62.240 E8.81845
G1 X-34.433 Y-62.660 E8.83265
G1 X-33.893 Y-63.240 E8.85421
G1 X-33.493 Y-63.600 E8.86885
G1 X-33.283 Y-63.760 E8.87603
G1 X-32.853 Y-64.060 E8.89030
G1 X-32.393 Y-64.330 E8.90481
G1 X-31.663 Y-64.650 E8.92649
G1 X-31.163 Y-64.820 E8.94086
G1 X-30.653 Y-64.950 E8.95518
G1 X-29.863 Y-65.060 E8.97688
G1 X-29.333 Y-65.080 E8.99131
G1 X5.667 Y-65.080 E9.94354
G1 X6.237 Y-65.050 E9.95907
G1 X6.807 Y-64.980 E9.97470
G1 X7.637 Y-64.780 E9.99792
G1 X7.907 Y-64.690 E10.00567
G1 X8.687 Y-64.340 E10.02893
G1 X8.937 Y-64.210 E10.03659
G1 X9.647 Y-63.740 E10.05976
G1 X33.527 Y-45.560 E10.87631
G1 X33.937 Y-45.200 E10.89115
G1 X34.127 Y-45.000 E10.89866
G1 X34.657 Y-44.360 E10.92126
G1 X35.097 Y-43.670 E10.94353
G1 X35.337 Y-43.170 E10.95862
G1 X35.447 Y-42.920 E10.96605
G1 X35.627 Y-42.400 E10.98102
G1 X35.767 Y-41.870 E10.99593
G1 X35.887 Y-41.050 E11.01848
G1 X35.904 Y-40.587 E11.03109
G1 F1800.000 E10.03109
G92 E0
G1 X30.201 Y-40.859 F7800.000
G1 F1800.000 E1.00000
G1 X30.201 Y-38.741 F540.000 E1.05765
G1 X29.693 Y-38.232 E1.07721
G1 X28.993 Y-38.232 E1.09625
G1 X15.501 Y-24.741 E1.61536
G1 X15.501 Y42.741 E3.45129
G1 X28.993 Y56.232 E3.97040
G1 X29.693 Y56.232 E3.98944
G1 X30.201 Y56.741 E4.00900
G1 X30.201 Y58.859 E4.06665
G1 X29.693 Y59.368 E4.08621
G1 X-6.026 Y59.368 E5.05800
G1 X-6.534 Y58.859 E5.07756
G1 X-6.534 Y56.741 E5.13521
G1 X-6.026 Y56.232 E5.15477
G1 X8.166 Y56.232 E5.54087
G1 X8.166 Y-38.232 E8.11093
G1 X-6.026 Y-38.232 E8.49704
G1 X-6.534 Y-38.741 E8.51660
G1 X-6.534 Y-40.859 E8.57425
G1 X-6.026 Y-41.368 E8.59381
G1 X29.693 Y-41.368 E9.56560
G1 X30.140 Y-40.921 E9.58280
G1 F1800.000 E8.58280
G92 E0
G1 X7.667 Y-56.243 F7800.000
G1 X6.534 Y-56.741
G1 F1800.000 E1.00000
G1 X6.026 Y-56.232 F540.000 E1.01956
G1 X5.326 Y-56.232 E1.03860
G1 X-8.166 Y-42.741 E1.55771
G1 X-8.166 Y24.741 E3.39364
G1 X5.326 Y38.232 E3.91275
G1 X6.026 Y38.232 E3.93179
G1 X6.534 Y38.741 E3.95135
G1 X6.534 Y40.859 E4.00900
G1 X6.026 Y41.368 E4.02856
G1 X-29.693 Y41.368 E5.00035
G1 X-30.201 Y40.859 E5.01991
G1 X-30.201 Y38.741 E5.07756
G1 X-29.693 Y38.232 E5.09712
G1 X-15.501 Y38.232 E5.48322
G1 X-15.501 Y-56.232 E8.05328
G1 X-29.693 Y-56.232 E8.43939
G1 X-30.201 Y-56.741 E8.45895
G1 X-30.201 Y-58.859 E8.51660
G1 X-29.693 Y-59.368 E8.53616
G1 X6.026 Y-59.368 E9.50795
G1 X6.534 Y-58.859 E9.52751
G1 X6.534 Y-56.827 E9.58280
G1 F1800.000 E8.58280
G92 E0
G1 X5.167 Y-57.314 F7800.000
G1 X8.744 Y-38.811
G1 F1800.000 E1.00000
G1 X-5.786 Y-38.811 F540.000 E1.39533
G1 X-5.956 Y-38.980 E1.40185
G1 X-5.956 Y-40.620 E1.44646
G1 X-5.786 Y-40.789 E1.45298
G1 X29.453 Y-40.789 E2.41173
G1 X29.623 Y-40.620 E2.41825
G1 X29.623 Y-38.980 E2.46286
G1 X29.453 Y-38.811 E2.46938
G1 X28.753 Y-38.811 E2.48842
G1 X14.923 Y-24.980 E3.02057
G1 X14.923 Y42.980 E4.86954
G1 X28.753 Y56.811 E5.40168
G1 X29.453 Y56.811 E5.42073
G1 X29.623 Y56.980 E5.42725
G1 X29.623 Y58.620 E5.47186
G1 X29.453 Y58.789 E5.47838
G1 X-5.786 Y58.789 E6.43713
G1 X-5.956 Y58.620 E6.44365
G1 X-5.956 Y56.980 E6.48826
G1 X-5.786 Y56.811 E6.49478
G1 X8.744 Y56.811 E6.89010
G1 X8.744 Y-38.724 E9.48928
G1 F1800.000 E8.48928
G92 E0
G1 X-7.033 Y-42.243 F7800.000
G1 X-8.744 Y-42.980
G1 F1800.000 E1.00000
G1 X-8.744 Y24.980 F540.000 E2.84897
G1 X5.086 Y38.811 E3.38112
G1 X5.786 Y38.811 E3.40016
G1 X5.956 Y38.980 E3.40668
G1 X5.956 Y40.620 E3.45129
G1 X5.786 Y40.789 E3.45781
G1 X-29.453 Y40.789 E4.41656
G1 X-29.623 Y40.620 E4.42308
G1 X-29.623 Y38.980 E4.46769
G1 X-29.453 Y38.811 E4.47421
G1 X-14.923 Y38.811 E4.86954
G1 X-14.923 Y-56.811 E7.47108
G1 X-29.453 Y-56.811 E7.86640
G1 X-29.623 Y-56.980 E7.87292
G1 X-29.623 Y-58.620 E7.91753
G1 X-29.453 Y-58.789 E7.92405
G1 X5.786 Y-58.789 E8.88281
G1 X5.956 Y-58.620 E8.88932
G1 X5.956 Y-56.980 E8.93393
G1 X5.786 Y-56.811 E8.94045
G1 X5.086 Y-56.811 E8.95950
G1 X-8.683 Y-43.042 E9.48928
G1 F1800.000 E8.48928
G92 E0
G1 X-5.377 Y-40.211 F7800.000
G1 F1800.000 E1.00000
G1 X29.044 Y-40.211 F540.000 E1.93649
G1 X29.044 Y-39.389 E1.95884
G1 X28.514 Y-39.389 E1.97328
G1 X14.344 Y-25.220 E2.51846
G1 X14.344 Y43.220 E4.38047
G1 X28.514 Y57.389 E4.92566
G1 X29.044 Y57.389 E4.94009
G1 X29.044 Y58.211 E4.96244
G1 X-5.377 Y58.211 E5.89893
G1 X-5.377 Y57.389 E5.92128
G1 X9.323 Y57.389 E6.32122
G1 X9.323 Y-39.389 E8.95424
G1 X-5.377 Y-39.389 E9.35417
G1 X-5.377 Y-40.124 E9.37416
G1 X-4.876 Y-39.921 F7800.000
G1 X-5.167 Y-40.000
G1 X9.533 Y-39.600
G1 X14.133 Y43.314
G1 X28.833 Y57.314
G1 X27.938 Y57.632
G1 X9.901 Y57.632 F540.000 E9.86489
G1 X9.901 Y-39.632 E12.51113
G1 X27.938 Y-39.632 E13.00186
G1 X13.766 Y-25.459 E13.54717
G1 X13.766 Y43.459 E15.42222
G1 X27.877 Y57.571 E15.96517
G1 X10.321 Y57.213 F7800.000
G1 X10.320 Y56.394 F1080.000 E15.98748
G1 X11.140 Y57.213 E16.01904
G1 X11.959 Y57.213 E16.04135
G1 X10.320 Y55.575 E16.10445
G1 X10.320 Y54.755 E16.12676
G1 X12.778 Y57.213 E16.22141
G1 X13.597 Y57.213 E16.24372
G1 X10.320 Y53.936 E16.36992
G1 X10.320 Y53.117 E16.39223
G1 X14.416 Y57.213 E16.54998
G1 X15.235 Y57.213 E16.57229
G1 X10.320 Y52.298 E16.76159
G1 X10.320 Y51.479 E16.78389
G1 X16.054 Y57.213 E17.00474
G1 X16.873 Y57.213 E17.02705
G1 X10.320 Y50.660 E17.27944
G1 X10.320 Y49.841 E17.30175
G1 X17.692 Y57.213 E17.58569
G1 X18.511 Y57.213 E17.60800
G1 X10.320 Y49.022 E17.92349
G1 X10.320 Y48.203 E17.94580
G1 X19.330 Y57.213 E18.29284
G1 X20.149 Y57.213 E18.31515
G1 X10.320 Y47.384 E18.69374
G1 X10.320 Y46.565 E18.71605
G1 X20.968 Y57.213 E19.12618
G1 X21.788 Y57.213 E19.14849
G1 X10.320 Y45.746 E19.59018
G1 X10.320 Y44.927 E19.61249
G1 X22.607 Y57.213 E20.08572
G1 X23.426 Y57.213 E20.10803
G1 X10.320 Y44.108 E20.61281
G1 X10.320 Y43.289 E20.63512
G1 X24.245 Y57.213 E21.17145
G1 X25.064 Y57.213 E21.19376
G1 X10.320 Y42.470 E21.76163
G1 X10.320 Y41.650 E21.78394
G1 X25.883 Y57.213 E22.38337
G1 X26.702 Y57.213 E22.40568
G1 X10.320 Y40.831 E23.03665
G1 X10.320 Y40.012 E23.05896
G1 X13.346 Y43.038 E23.17551
G1 X13.346 Y42.219 E23.19781
G1 X10.320 Y39.193 E23.31436
G1 X10.320 Y38.374 E23.33667
G1 X13.346 Y41.400 E23.45321
G1 X13.346 Y40.581 E23.47552
G1 X10.320 Y37.555 E23.59206
G1 X10.320 Y36.736 E23.61437
G1 X13.346 Y39.762 E23.73091
G1 X13.346 Y38.943 E23.75322
G1 X10.320 Y35.917 E23.86977
G1 X10.320 Y35.098 E23.89208
G1 X13.346 Y38.124 E24.00862
G1 X13.346 Y37.305 E24.03093
G1 X10.320 Y34.279 E24.14747
G1 X10.320 Y33.460 E24.16978
G1 X13.346 Y36.486 E24.28632
G1 X13.346 Y35.666 E24.30863
G1 X10.320 Y32.641 E24.42518
G1 X10.320 Y31.822 E24.44748
G1 X13.346 Y34.847 E24.56403
G1 X13.346 Y34.028 E24.58634
G1 X10.320 Y31.003 E24.70288
G1 X10.320 Y30.184 E24.72519
G1 X13.346 Y33.209 E24.84173
G1 X13.346 Y32.390 E24.86404
G1 X10.320 Y29.364 E24.98059
G1 X10.320 Y28.545 E25.00289
G1 X13.346 Y31.571 E25.11944
G1 X13.346 Y30.752 E25.14175
G1 X10.320 Y27.726 E25.25829
G1 X10.320 Y26.907 E25.28060
G1 X13.346 Y29.933 E25.39714
G1 X13.346 Y29.114 E25.41945
G1 X10.320 Y26.088 E25.53600
G1 X10.320 Y25.269 E25.55830
G1 X13.346 Y28.295 E25.67485
G1 X13.346 Y27.476 E25.69716
G1 X10.320 Y24.450 E25.81370
G1 X10.320 Y23.631 E25.83601
G1 X13.346 Y26.657 E25.95255
G1 X13.346 Y25.838 E25.97486
G1 X10.320 Y22.812 E26.09141
G1 X10.320 Y21.993 E26.11371
G1 X13.346 Y25.019 E26.23026
G1 X13.346 Y24.200 E26.25257
G1 X10.320 Y21.174 E26.36911
G1 X10.320 Y20.355 E26.39142
G1 X13.346 Y23.381 E26.50796
G1 X13.346 Y22.561 E26.53027
G1 X10.320 Y19.536 E26.64682
G1 X10.320 Y18.717 E26.66912
G1 X13.346 Y21.742 E26.78567
G1 X13.346 Y20.923 E26.80798
G1 X10.320 Y17.898 E26.92452
G1 X10.320 Y17.079 E26.94683
G1 X13.346 Y20.104 E27.06337
G1 X13.346 Y19.285 E27.08568
G1 X10.320 Y16.259 E27.20222
G1 X10.320 Y15.440 E27.22453
G1 X13.346 Y18.466 E27.34108
G1 X13.346 Y17.647 E27.36339
G1 X10.320 Y14.621 E27.47993
G1 X10.320 Y13.802 E27.50224
G1 X13.346 Y16.828 E27.61878
G1 X13.346 Y16.009 E27.64109
G1 X10.320 Y12.983 E27.75763
G1 X10.320 Y12.164 E27.77994
G1 X13.346 Y15.190 E27.89649
G1 X13.346 Y14.371 E27.91879
G1 X10.320 Y11.345 E28.03534
G1 X10.320 Y10.526 E28.05765
G1 X13.346 Y13.552 E28.17419
G1 X13.346 Y12.733 E28.19650
G1 X10.320 Y9.707 E28.31304
G1 X10.320 Y8.888 E28.33535
G1 X13.346 Y11.914 E28.45190
G1 X13.346 Y11.095 E28.47420
G1 X10.320 Y8.069 E28.59075
G1 X10.320 Y7.250 E28.61306
G1 X13.346 Y10.276 E28.72960
G1 X13.346 Y9.456 E28.75191
G1 X10.320 Y6.431 E28.86845
G1 X10.320 Y5.612 E28.89076
G1 X13.346 Y8.637 E29.00731
G1 X13.346 Y7.818 E29.02961
G1 X10.320 Y4.793 E29.14616
G1 X10.320 Y3.974 E29.16847
G1 X13.346 Y6.999 E29.28501
G1 X13.346 Y6.180 E29.30732
G1 X10.320 Y3.154 E29.42386
G1 X10.320 Y2.335 E29.44617
G1 X13.346 Y5.361 E29.56272
G1 X13.346 Y4.542 E29.58502
G1 X10.320 Y1.516 E29.70157
G1 X10.320 Y0.697 E29.72388
G1 X13.346 Y3.723 E29.84042
G1 X13.346 Y2.904 E29.86273
G1 X10.320 Y-0.122 E29.97927
G1 X10.320 Y-0.941 E30.00158
G1 X13.346 Y2.085 E30.11812
G1 X13.346 Y1.266 E30.14043
G1 X10.320 Y-1.760 E30.25698
G1 X10.320 Y-2.579 E30.27929
G1 X13.346 Y0.447 E30.39583
G1 X13.346 Y-0.372 E30.41814
G1 X10.320 Y-3.398 E30.53468
G1 X10.320 Y-4.217 E30.55699
G1 X13.346 Y-1.191 E30.67353
G1 X13.346 Y-2.010 E30.69584
G1 X10.320 Y-5.036 E30.81239
G1 X10.320 Y-5.855 E30.83469
G1 X13.346 Y-2.830 E30.95124
G1 X13.346 Y-3.649 E30.97355
G1 X10.320 Y-6.674 E31.09009
G1 X10.320 Y-7.493 E31.11240
G1 X13.346 Y-4.468 E31.22894
G1 X13.346 Y-5.287 E31.25125
G1 X10.320 Y-8.312 E31.36780
G1 X10.320 Y-9.132 E31.39010
G1 X13.346 Y-6.106 E31.50665
G1 X13.346 Y-6.925 E31.52896
G1 X10.320 Y-9.951 E31.64550
G1 X10.320 Y-10.770 E31.66781
G1 X13.346 Y-7.744 E31.78435
G1 X13.346 Y-8.563 E31.80666
G1 X10.320 Y-11.589 E31.92321
G1 X10.320 Y-12.408 E31.94551
G1 X13.346 Y-9.382 E32.06206
G1 X13.346 Y-10.201 E32.08437
G1 X10.320 Y-13.227 E32.20091
G1 X10.320 Y-14.046 E32.22322
G1 X13.346 Y-11.020 E32.33976
G1 X13.346 Y-11.839 E32.36207
G1 X10.320 Y-14.865 E32.47862
G1 X10.320 Y-15.684 E32.50092
G1 X13.346 Y-12.658 E32.61747
G1 X13.346 Y-13.477 E32.63978
G1 X10.320 Y-16.503 E32.75632
G1 X10.320 Y-17.322 E32.77863
G1 X13.346 Y-14.296 E32.89517
G1 X13.346 Y-15.115 E32.91748
G1 X10.320 Y-18.141 E33.03402
G1 X10.320 Y-18.960 E33.05633
G1 X13.346 Y-15.935 E33.17288
G1 X13.346 Y-16.754 E33.19519
G1 X10.320 Y-19.779 E33.31173
G1 X10.320 Y-20.598 E33.33404
G1 X13.346 Y-17.573 E33.45058
G1 X13.346 Y-18.392 E33.47289
G1 X10.320 Y-21.417 E33.58943
G1 X10.320 Y-22.237 E33.61174
G1 X13.346 Y-19.211 E33.72829
G1 X13.346 Y-20.030 E33.75059
G1 X10.320 Y-23.056 E33.86714
G1 X10.320 Y-23.875 E33.88945
G1 X13.346 Y-20.849 E34.00599
G1 X13.346 Y-21.668 E34.02830
G1 X10.320 Y-24.694 E34.14484
G1 X10.320 Y-25.513 E34.16715
G1 X13.346 Y-22.487 E34.28370
G1 X13.346 Y-23.306 E34.30600
G1 X10.320 Y-26.332 E34.42255
G1 X10.320 Y-27.151 E34.44486
G1 X13.346 Y-24.125 E34.56140
G1 X13.346 Y-24.944 E34.58371
G1 X10.320 Y-27.970 E34.70025
G1 X10.320 Y-28.789 E34.72256
G1 X13.411 Y-25.698 E34.84161
G1 X13.821 Y-26.108 E34.85739
G1 X10.320 Y-29.608 E34.99221
G1 X10.320 Y-30.427 E35.01452
G1 X14.230 Y-26.517 E35.16512
G1 X14.640 Y-26.927 E35.18089
G1 X10.320 Y-31.246 E35.34727
G1 X10.320 Y-32.065 E35.36957
G1 X15.049 Y-27.336 E35.55172
G1 X15.459 Y-27.746 E35.56750
G1 X10.320 Y-32.884 E35.76542
G1 X10.320 Y-33.703 E35.78773
G1 X15.868 Y-28.155 E36.00142
G1 X16.278 Y-28.565 E36.01720
G1 X10.320 Y-34.522 E36.24667
G1 X10.320 Y-35.342 E36.26897
G1 X16.688 Y-28.974 E36.51422
G1 X17.097 Y-29.384 E36.52999
G1 X10.320 Y-36.161 E36.79101
G1 X10.320 Y-36.980 E36.81332
G1 X17.507 Y-29.794 E37.09011
G1 X17.916 Y-30.203 E37.10589
G1 X10.320 Y-37.799 E37.39845
G1 X10.320 Y-38.618 E37.42076
G1 X18.326 Y-30.613 E37.72910
G1 X18.735 Y-31.022 E37.74488
G1 X10.544 Y-39.213 E38.06036
G1 X11.364 Y-39.213 E38.08267
G1 X19.145 Y-31.432 E38.38239
G1 X19.554 Y-31.841 E38.39816
G1 X12.183 Y-39.213 E38.68210
G1 X13.002 Y-39.213 E38.70441
G1 X19.964 Y-32.251 E38.97257
G1 X20.373 Y-32.660 E38.98835
G1 X13.821 Y-39.213 E39.24074
G1 X14.640 Y-39.213 E39.26305
G1 X20.783 Y-33.070 E39.49966
G1 X21.192 Y-33.479 E39.51544
G1 X15.459 Y-39.213 E39.73628
G1 X16.278 Y-39.213 E39.75859
G1 X21.602 Y-33.889 E39.96365
G1 X22.011 Y-34.298 E39.97943
G1 X17.097 Y-39.213 E40.16872
G1 X17.916 Y-39.213 E40.19103
G1 X22.421 Y-34.708 E40.36455
G1 X22.831 Y-35.117 E40.38032
G1 X18.735 Y-39.213 E40.53807
G1 X19.554 Y-39.213 E40.56038
G1 X23.240 Y-35.527 E40.70235
G1 X23.650 Y-35.937 E40.71812
G1 X20.373 Y-39.213 E40.84432
G1 X21.192 Y-39.213 E40.86663
G1 X24.059 Y-36.346 E40.97705
G1 X24.469 Y-36.756 E40.99283
G1 X22.011 Y-39.213 E41.08747
G1 X22.830 Y-39.213 E41.10978
G1 X24.878 Y-37.165 E41.18866
G1 X25.288 Y-37.575 E41.20443
G1 X23.649 Y-39.213 E41.26753
G1 X24.469 Y-39.213 E41.28984
G1 X25.697 Y-37.984 E41.33717
G1 X26.107 Y-38.394 E41.35294
G1 X25.288 Y-39.213 E41.38449
G1 X26.107 Y-39.213 E41.40680
G1 X26.516 Y-38.803 E41.42258
G1 X28.833 Y-39.314 F7800.000
G1 X14.133 Y-25.314
G1 X9.533 Y57.600
G1 X-5.167 Y58.000
G1 X-4.968 Y57.802
G1 X9.492 Y57.799 F360.000 E41.62712
G1 X9.533 Y57.600 F7800.000
G1 X9.533 Y-39.600
G1 X-5.167 Y-39.600
G1 X-4.968 Y-39.798
G1 X9.492 Y-39.801 F360.000 E41.83165
G1 F1800.000 E40.83165
G92 E0
G1 X8.667 Y-46.290 F7800.000
G1 X8.667 Y-62.533
G1 X5.377 Y-57.389
G1 F1800.000 E1.00000
G1 X4.847 Y-57.389 F540.000 E1.01443
G1 X-9.323 Y-43.220 E1.55962
G1 X-9.323 Y25.220 E3.42163
G1 X4.847 Y39.389 E3.96681
G1 X5.377 Y39.389 E3.98125
G1 X5.377 Y40.211 E4.00360
G1 X-29.044 Y40.211 E4.94009
G1 X-29.044 Y39.389 E4.96244
G1 X-14.344 Y39.389 E5.36238
G1 X-14.344 Y-57.389 E7.99540
G1 X-29.044 Y-57.389 E8.39533
G1 X-29.044 Y-58.211 E8.41768
G1 X5.377 Y-58.211 E9.35417
G1 X5.377 Y-57.476 E9.37416
G1 X4.918 Y-57.655 F7800.000
G1 X5.167 Y-57.314
G1 X-9.533 Y-43.314
G1 X-9.533 Y25.314
G1 X5.167 Y39.314
G1 X4.272 Y39.632
G1 X-13.766 Y39.632 F540.000 E9.86489
G1 X-13.766 Y-57.632 E12.51113
G1 X4.272 Y-57.632 E13.00186
G1 X-9.901 Y-43.459 E13.54717
G1 X-9.901 Y25.459 E15.42222
G1 X4.210 Y39.571 E15.96517
G1 X-13.346 Y39.213 F7800.000
G1 X-13.346 Y38.394 F1080.000 E15.98748
G1 X-12.527 Y39.213 E16.01904
