; generated by Slic3r 0.9.9 on 2013-05-01 at 18:56:39

; layer_height = 0.3
; perimeters = 2
; top_solid_layers = 3
; bottom_solid_layers = 3
; fill_density = 0.1
; perimeter_speed = 30
; infill_speed = 60
; travel_speed = 130
; nozzle_diameter = 0.5
; filament_diameter = 2.85
; extrusion_multiplier = 1
; perimeters extrusion width = 0.70mm
; infill extrusion width = 0.70mm
; solid infill extrusion width = 0.70mm
; top infill extrusion width = 0.70mm
; first layer extrusion width = 0.60mm

G21 ; set units to millimeters
M107
M104 S0
M83
M140 S80
G28
G1Y98F9000
M190 S80
G1X5Y98Z150F9000
M104 S210
G1X5Y98Z1F9000
G1Z0.05
M109 S210
G1Z5
G1X15
;G1E5F50
G90 ; use absolute coordinates
G92 E0
M82 ; use absolute distances for extrusion
G1 F1800.000 E-1.00000
G92 E0
G1 Z0.300 F7800.000
G1 X11.572 Y14.290
G1 F1800.000 E1.00000
G1 X11.512 Y15.140 F540.000 E1.02318
G1 X11.292 Y16.780 E1.06820
G1 X11.222 Y17.120 E1.07765
G1 X11.022 Y17.780 E1.09641
G1 X10.402 Y19.310 E1.14132
G1 X10.102 Y19.940 E1.16031
G1 X9.742 Y20.520 E1.17888
G1 X8.752 Y21.830 E1.22355
G1 X8.302 Y22.360 E1.24247
G1 X7.812 Y22.830 E1.26094
G1 X6.502 Y23.840 E1.30595
G1 X5.932 Y24.240 E1.32489
G1 X5.322 Y24.570 E1.34376
G1 X3.462 Y25.340 E1.39853
G1 X2.442 Y25.610 E1.42724
G1 X0.802 Y25.820 E1.47222
G1 X0.132 Y25.870 E1.49050
G1 X-0.538 Y25.850 E1.50873
G1 X-2.158 Y25.640 E1.55318
G1 X-2.818 Y25.520 E1.57143
G1 X-3.138 Y25.440 E1.58040
G1 X-3.458 Y25.330 E1.58961
G1 X-4.978 Y24.730 E1.63407
G1 X-5.528 Y24.480 E1.65050
G1 X-6.048 Y24.170 E1.66698
G1 X-6.548 Y23.830 E1.68343
G1 X-7.578 Y23.030 E1.71891
G1 X-7.838 Y22.810 E1.72817
G1 X-8.328 Y22.340 E1.74665
G1 X-8.768 Y21.820 E1.76518
G1 X-9.768 Y20.500 E1.81023
G1 X-10.118 Y19.930 E1.82843
G1 X-10.398 Y19.330 E1.84645
G1 X-11.028 Y17.810 E1.89121
G1 X-11.228 Y17.140 E1.91024
G1 X-11.308 Y16.790 E1.92000
G1 X-11.528 Y15.140 E1.96529
G1 X-11.588 Y14.290 E1.98847
G1 X-11.588 Y-14.310 E2.76658
G1 X-11.528 Y-15.170 E2.79004
G1 X-11.308 Y-16.810 E2.83506
G1 X-11.138 Y-17.490 E2.85413
G1 X-10.898 Y-18.150 E2.87323
G1 X-10.268 Y-19.640 E2.91725
G1 X-10.118 Y-19.940 E2.92637
G1 X-9.768 Y-20.510 E2.94457
G1 X-8.558 Y-22.090 E2.99871
G1 X-8.328 Y-22.350 E3.00816
G1 X-7.838 Y-22.820 E3.02663
G1 X-7.578 Y-23.040 E3.03590
G1 X-6.298 Y-24.020 E3.07976
G1 X-5.788 Y-24.340 E3.09614
G1 X-5.258 Y-24.620 E3.11244
G1 X-3.768 Y-25.230 E3.15625
G1 X-3.158 Y-25.440 E3.17380
G1 X-2.208 Y-25.650 E3.20027
G1 X-0.618 Y-25.860 E3.24390
G1 X-0.008 Y-25.890 E3.26052
G1 X0.892 Y-25.830 E3.28506
G1 X2.522 Y-25.590 E3.32989
G1 X3.162 Y-25.440 E3.34777
G1 X3.472 Y-25.340 E3.35663
G1 X4.982 Y-24.730 E3.40094
G1 X5.612 Y-24.430 E3.41992
G1 X6.222 Y-24.060 E3.43933
G1 X7.812 Y-22.840 E3.49386
G1 X8.302 Y-22.370 E3.51233
G1 X8.532 Y-22.110 E3.52178
G1 X9.542 Y-20.810 E3.56657
G1 X9.932 Y-20.240 E3.58536
G1 X10.102 Y-19.950 E3.59450
G1 X10.402 Y-19.320 E3.61349
G1 X11.022 Y-17.790 E3.65840
G1 X11.222 Y-17.130 E3.67716
G1 X11.292 Y-16.800 E3.68634
G1 X11.512 Y-15.170 E3.73109
G1 X11.572 Y-14.310 E3.75454
G1 X11.572 Y14.203 E4.53029
G1 F1800.000 E3.53029
G92 E0
G1 X5.868 Y14.243 F7800.000
G1 F1800.000 E1.00000
G1 X5.868 Y14.357 F540.000 E1.00309
G1 X5.683 Y15.764 E1.04170
G1 X5.653 Y15.874 E1.04480
G1 X5.110 Y17.185 E1.08340
G1 X5.053 Y17.283 E1.08650
G1 X4.189 Y18.409 E1.12511
G1 X4.109 Y18.489 E1.12820
G1 X2.983 Y19.354 E1.16682
G1 X2.883 Y19.411 E1.16994
G1 X1.560 Y19.955 E1.20887
G1 X1.451 Y19.984 E1.21194
G1 X0.057 Y20.168 E1.25020
G1 X-0.057 Y20.168 E1.25329
G1 X-1.464 Y19.983 E1.29190
G1 X-1.574 Y19.953 E1.29500
G1 X-2.885 Y19.410 E1.33360
G1 X-2.983 Y19.353 E1.33670
G1 X-4.109 Y18.489 E1.37532
G1 X-4.190 Y18.408 E1.37844
G1 X-5.059 Y17.271 E1.41737
G1 X-5.115 Y17.173 E1.42044
G1 X-5.653 Y15.874 E1.45870
G1 X-5.683 Y15.764 E1.46179
G1 X-5.868 Y14.357 E1.50040
G1 X-5.868 Y14.243 E1.50349
G1 X-5.683 Y12.836 E1.54210
G1 X-5.653 Y12.726 E1.54520
G1 X-5.115 Y11.427 E1.58345
G1 X-5.059 Y11.329 E1.58652
G1 X-4.190 Y10.192 E1.62545
G1 X-4.109 Y10.111 E1.62857
G1 X-2.983 Y9.247 E1.66719
G1 X-2.885 Y9.190 E1.67029
G1 X-1.574 Y8.647 E1.70890
G1 X-1.464 Y8.617 E1.71199
G1 X-0.057 Y8.432 E1.75060
G1 X0.057 Y8.432 E1.75369
G1 X1.464 Y8.617 E1.79230
G1 X1.574 Y8.647 E1.79539
G1 X2.885 Y9.190 E1.83400
G1 X2.983 Y9.247 E1.83710
G1 X4.109 Y10.111 E1.87570
G1 X4.189 Y10.191 E1.87880
G1 X5.053 Y11.317 E1.91740
G1 X5.110 Y11.415 E1.92050
G1 X5.653 Y12.726 E1.95911
G1 X5.683 Y12.836 E1.96220
G1 X5.856 Y14.157 E1.99845
G1 F1800.000 E0.99845
G92 E0
G1 X1.936 Y-7.538 F7800.000
G1 X1.451 Y-8.616
G1 F1800.000 E1.00000
G1 X0.057 Y-8.432 F540.000 E1.03826
G1 X-0.057 Y-8.432 E1.04135
G1 X-1.464 Y-8.617 E1.07996
G1 X-1.574 Y-8.647 E1.08306
G1 X-2.885 Y-9.190 E1.12166
G1 X-2.983 Y-9.247 E1.12476
G1 X-4.109 Y-10.111 E1.16338
G1 X-4.190 Y-10.192 E1.16650
G1 X-5.059 Y-11.329 E1.20543
G1 X-5.115 Y-11.427 E1.20850
G1 X-5.653 Y-12.726 E1.24676
G1 X-5.683 Y-12.836 E1.24985
G1 X-5.868 Y-14.243 E1.28846
G1 X-5.868 Y-14.357 E1.29155
G1 X-5.683 Y-15.764 E1.33016
G1 X-5.653 Y-15.874 E1.33326
G1 X-5.115 Y-17.173 E1.37151
G1 X-5.059 Y-17.271 E1.37458
G1 X-4.190 Y-18.408 E1.41351
G1 X-4.109 Y-18.489 E1.41663
G1 X-2.983 Y-19.353 E1.45525
G1 X-2.885 Y-19.410 E1.45835
G1 X-1.574 Y-19.953 E1.49696
G1 X-1.464 Y-19.983 E1.50005
G1 X-0.057 Y-20.168 E1.53866
G1 X0.057 Y-20.168 E1.54175
G1 X1.464 Y-19.983 E1.58036
G1 X1.574 Y-19.953 E1.58345
G1 X2.885 Y-19.410 E1.62206
G1 X2.983 Y-19.353 E1.62516
G1 X4.109 Y-18.489 E1.66376
G1 X4.189 Y-18.409 E1.66686
G1 X5.053 Y-17.283 E1.70546
G1 X5.110 Y-17.185 E1.70856
G1 X5.653 Y-15.874 E1.74717
G1 X5.683 Y-15.764 E1.75026
G1 X5.868 Y-14.357 E1.78887
G1 X5.868 Y-14.243 E1.79196
G1 X5.683 Y-12.836 E1.83057
G1 X5.653 Y-12.726 E1.83367
G1 X5.110 Y-11.415 E1.87227
G1 X5.053 Y-11.317 E1.87537
G1 X4.189 Y-10.191 E1.91397
G1 X4.109 Y-10.111 E1.91707
G1 X2.983 Y-9.246 E1.95569
G1 X2.883 Y-9.189 E1.95881
G1 X1.535 Y-8.638 E1.99844
G1 F1800.000 E0.99844
G92 E0
G1 X1.119 Y-9.952 F7800.000
G1 X0.019 Y9.011
G1 F1800.000 E1.00000
G1 X1.387 Y9.196 F540.000 E1.03757
G1 X2.628 Y9.710 E1.07411
G1 X3.727 Y10.547 E1.11168
G1 X4.590 Y11.672 E1.15027
G1 X5.104 Y12.913 E1.18681
G1 X5.289 Y14.281 E1.22438
G1 X5.104 Y15.687 E1.26296
G1 X4.590 Y16.928 E1.29951
G1 X3.753 Y18.027 E1.33707
G1 X2.628 Y18.890 E1.37568
G1 X1.375 Y19.406 E1.41254
G1 X0.019 Y19.589 E1.44976
G1 X-1.387 Y19.404 E1.48835
G1 X-2.628 Y18.890 E1.52490
G1 X-3.727 Y18.053 E1.56247
G1 X-4.595 Y16.917 E1.60138
G1 X-5.114 Y15.651 E1.63861
G1 X-5.289 Y14.319 E1.67515
G1 X-5.104 Y12.913 E1.71374
G1 X-4.576 Y11.651 E1.75096
G1 X-3.754 Y10.574 E1.78782
G1 X-2.628 Y9.710 E1.82643
G1 X-1.387 Y9.196 E1.86297
G1 X-0.067 Y9.017 E1.89921
G1 F1800.000 E0.89921
G92 E0
G1 X-0.270 Y-7.247 F7800.000
G1 X-0.019 Y-9.011
G1 F1800.000 E1.00000
G1 X-1.387 Y-9.196 F540.000 E1.03757
G1 X-2.628 Y-9.710 E1.07411
G1 X-3.727 Y-10.547 E1.11168
G1 X-4.595 Y-11.683 E1.15059
G1 X-5.114 Y-12.949 E1.18782
G1 X-5.289 Y-14.281 E1.22436
G1 X-5.104 Y-15.687 E1.26295
G1 X-4.576 Y-16.949 E1.30017
G1 X-3.754 Y-18.026 E1.33704
G1 X-2.628 Y-18.890 E1.37564
G1 X-1.387 Y-19.404 E1.41218
G1 X-0.019 Y-19.589 E1.44975
G1 X1.387 Y-19.404 E1.48834
G1 X2.628 Y-18.890 E1.52488
G1 X3.727 Y-18.053 E1.56245
G1 X4.590 Y-16.928 E1.60104
G1 X5.104 Y-15.687 E1.63758
G1 X5.289 Y-14.319 E1.67515
G1 X5.104 Y-12.913 E1.71374
G1 X4.590 Y-11.672 E1.75028
G1 X3.753 Y-10.573 E1.78785
G1 X2.628 Y-9.710 E1.82645
G1 X1.375 Y-9.194 E1.86332
G1 X0.067 Y-9.017 E1.89921
G1 X-0.000 Y-9.592 F7800.000
G1 X-1.219 Y-9.752 F540.000 E1.93265
G1 X-2.354 Y-10.223 E1.96609
G1 X-3.329 Y-10.971 E1.99953
G1 X-4.077 Y-11.946 E2.03297
G1 X-4.548 Y-13.081 E2.06640
G1 X-4.708 Y-14.300 E2.09984
G1 X-4.548 Y-15.519 E2.13328
G1 X-4.077 Y-16.654 E2.16672
G1 X-3.329 Y-17.629 E2.20016
G1 X-2.354 Y-18.377 E2.23360
G1 X-1.219 Y-18.848 E2.26704
G1 X-0.000 Y-19.008 E2.30048
G1 X1.219 Y-18.848 E2.33392
G1 X2.354 Y-18.377 E2.36736
G1 X3.329 Y-17.629 E2.40080
G1 X4.077 Y-16.654 E2.43424
G1 X4.548 Y-15.519 E2.46768
G1 X4.708 Y-14.300 E2.50112
G1 X4.548 Y-13.081 E2.53456
G1 X4.077 Y-11.946 E2.56800
G1 X3.329 Y-10.971 E2.60144
G1 X2.354 Y-10.223 E2.63488
G1 X1.219 Y-9.752 E2.66832
G1 X0.086 Y-9.603 E2.69940
G1 X-0.267 Y-10.105 F7800.000
G1 X-3.984 Y-13.232
G1 X-4.125 Y-14.300 F540.000 E2.72869
G1 X-3.984 Y-15.368 E2.75799
G1 X-3.572 Y-16.362 E2.78728
G1 X-2.917 Y-17.217 E2.81658
G1 X-2.062 Y-17.872 E2.84587
G1 X-1.068 Y-18.284 E2.87517
G1 X-0.000 Y-18.425 E2.90446
G1 X1.068 Y-18.284 E2.93376
G1 X2.062 Y-17.872 E2.96305
G1 X2.917 Y-17.217 E2.99235
G1 X3.572 Y-16.362 E3.02164
G1 X3.984 Y-15.368 E3.05094
G1 X4.125 Y-14.300 E3.08023
G1 X3.984 Y-13.232 E3.10953
G1 X3.572 Y-12.238 E3.13882
G1 X2.917 Y-11.383 E3.16812
G1 X2.062 Y-10.728 E3.19741
G1 X1.068 Y-10.316 E3.22671
G1 X-0.000 Y-10.175 E3.25600
G1 X-1.068 Y-10.316 E3.28530
G1 X-2.062 Y-10.728 E3.31459
G1 X-2.917 Y-11.383 E3.34389
G1 X-3.572 Y-12.238 E3.37318
G1 X-3.951 Y-13.152 E3.40012
G1 X-2.617 Y-11.682 F7800.000
G1 X-3.602 Y-13.539 F1080.000 E3.46110
G1 X-0.761 Y-10.698 E3.57766
G1 X0.187 Y-10.623 E3.60525
G1 X-3.677 Y-14.487 E3.76380
G1 X-3.576 Y-15.258 E3.78636
G1 X0.958 Y-10.724 E3.97238
G1 X1.575 Y-10.980 E3.99176
G1 X-3.320 Y-15.875 E4.19261
G1 X-2.996 Y-16.424 E4.21109
G1 X2.124 Y-11.304 E4.42117
G1 X2.617 Y-11.683 E4.43923
G1 X-2.617 Y-16.917 E4.65402
G1 X-2.124 Y-17.296 E4.67207
G1 X2.996 Y-12.176 E4.88215
G1 X3.320 Y-12.725 E4.90064
G1 X-1.575 Y-17.620 E5.10149
G1 X-0.958 Y-17.876 E5.12086
G1 X3.576 Y-13.342 E5.30688
G1 X3.677 Y-14.113 E5.32944
G1 X-0.187 Y-17.977 E5.48799
G1 X0.761 Y-17.902 E5.51558
G1 X3.602 Y-15.061 E5.63214
G1 X2.617 Y-16.918 E5.69312
G1 F1800.000 E4.69312
G92 E0
G1 X9.996 Y-24.577 F7800.000
G1 X12.499 Y-21.314
G1 X14.189 Y-15.550
G1 X13.826 Y-10.452
G1 X10.277 Y-4.304
G1 X6.995 Y-1.786
G1 X3.903 Y0.506
G1 X-0.035 Y-0.018
G1 X-0.000 Y9.592
G1 F1800.000 E1.00000
G1 X1.219 Y9.752 F540.000 E1.03344
G1 X2.354 Y10.223 E1.06688
G1 X3.329 Y10.971 E1.10032
G1 X4.077 Y11.946 E1.13376
G1 X4.548 Y13.081 E1.16720
G1 X4.708 Y14.300 E1.20064
G1 X4.548 Y15.519 E1.23408
G1 X4.077 Y16.654 E1.26752
G1 X3.329 Y17.629 E1.30096
G1 X2.354 Y18.377 E1.33440
G1 X1.219 Y18.848 E1.36784
G1 X-0.000 Y19.008 E1.40127
G1 X-1.219 Y18.848 E1.43471
G1 X-2.354 Y18.377 E1.46815
G1 X-3.329 Y17.629 E1.50159
G1 X-4.077 Y16.654 E1.53503
G1 X-4.548 Y15.519 E1.56847
G1 X-4.708 Y14.300 E1.60191
G1 X-4.548 Y13.081 E1.63535
G1 X-4.077 Y11.946 E1.66879
G1 X-3.329 Y10.971 E1.70223
G1 X-2.354 Y10.223 E1.73567
G1 X-1.219 Y9.752 E1.76911
G1 X-0.086 Y9.603 E1.80019
G1 X0.267 Y10.105 F7800.000
G1 X1.068 Y10.316
G1 X2.062 Y10.728 F540.000 E1.82948
G1 X2.917 Y11.383 E1.85878
G1 X3.572 Y12.238 E1.88807
G1 X3.984 Y13.232 E1.91737
G1 X4.125 Y14.300 E1.94666
G1 X3.984 Y15.368 E1.97596
G1 X3.572 Y16.362 E2.00525
G1 X2.917 Y17.217 E2.03455
G1 X2.062 Y17.872 E2.06384
G1 X1.068 Y18.284 E2.09314
G1 X-0.000 Y18.425 E2.12243
G1 X-1.068 Y18.284 E2.15173
G1 X-2.062 Y17.872 E2.18102
G1 X-2.917 Y17.217 E2.21032
G1 X-3.572 Y16.362 E2.23962
G1 X-3.984 Y15.368 E2.26891
G1 X-4.125 Y14.300 E2.29821
G1 X-3.984 Y13.232 E2.32750
G1 X-3.572 Y12.238 E2.35680
G1 X-2.917 Y11.383 E2.38609
G1 X-2.062 Y10.728 E2.41539
G1 X-1.068 Y10.316 E2.44468
G1 X-0.000 Y10.175 E2.47398
G1 X0.982 Y10.305 E2.50091
G1 X2.617 Y11.682 F7800.000
G1 X3.602 Y13.539 F1080.000 E2.56189
G1 X0.761 Y10.698 E2.67845
G1 X-0.187 Y10.623 E2.70604
G1 X3.677 Y14.487 E2.86459
G1 X3.576 Y15.258 E2.88715
G1 X-0.958 Y10.724 E3.07317
G1 X-1.575 Y10.980 E3.09255
G1 X3.320 Y15.875 E3.29340
G1 X2.996 Y16.424 E3.31188
G1 X-2.124 Y11.304 E3.52196
G1 X-2.617 Y11.683 E3.54002
G1 X2.617 Y16.917 E3.75481
G1 X2.124 Y17.296 E3.77286
G1 X-2.996 Y12.176 E3.98294
G1 X-3.320 Y12.725 E4.00143
G1 X1.575 Y17.620 E4.20228
G1 X0.958 Y17.876 E4.22165
G1 X-3.576 Y13.342 E4.40767
G1 X-3.677 Y14.113 E4.43023
G1 X0.187 Y17.977 E4.58878
G1 X-0.761 Y17.902 E4.61637
G1 X-3.602 Y15.061 E4.73293
G1 X-2.617 Y16.918 E4.79392
M104 S200 ; set temperature
M140 S50 ; set bed temperature
G1 F1800.000 E3.79392
G92 E0
G1 Z0.600 F7800.000
G1 X-10.277 Y24.296
G1 X-13.826 Y18.148
G1 X-14.189 Y13.050
G1 X-10.277 Y-4.304
G1 X-3.473 Y-12.295
G1 F1800.000 E1.00000
G1 X-3.873 Y-13.262 F689.486 E1.03222
G1 X-4.010 Y-14.300 E1.06444
G1 X-3.873 Y-15.338 E1.09665
G1 X-3.473 Y-16.305 E1.12887
G1 X-2.835 Y-17.135 E1.16109
G1 X-2.005 Y-17.773 E1.19331
G1 X-1.038 Y-18.173 E1.22553
G1 X-0.000 Y-18.310 E1.25774
G1 X1.038 Y-18.173 E1.28996
G1 X2.005 Y-17.773 E1.32218
G1 X2.835 Y-17.135 E1.35440
G1 X3.473 Y-16.305 E1.38662
G1 X3.873 Y-15.338 E1.41883
G1 X4.010 Y-14.300 E1.45105
G1 X3.873 Y-13.262 E1.48327
G1 X3.473 Y-12.295 E1.51549
G1 X2.835 Y-11.465 E1.54771
G1 X2.005 Y-10.827 E1.57992
G1 X1.038 Y-10.427 E1.61214
G1 X0.000 Y-10.290 E1.64436
G1 X-1.038 Y-10.427 E1.67658
G1 X-2.005 Y-10.827 E1.70880
G1 X-2.835 Y-11.465 E1.74101
G1 X-3.413 Y-12.217 E1.77021
G1 X-4.044 Y-11.965 F7800.000
G1 X-4.511 Y-13.091 F689.486 E1.80773
G1 X-4.670 Y-14.300 E1.84525
G1 X-4.511 Y-15.509 E1.88278
G1 X-4.044 Y-16.635 E1.92030
G1 X-3.302 Y-17.602 E1.95782
G1 X-2.335 Y-18.344 E1.99534
G1 X-1.209 Y-18.811 E2.03287
G1 X-0.000 Y-18.970 E2.07039
G1 X1.209 Y-18.811 E2.10791
G1 X2.335 Y-18.344 E2.14543
G1 X3.302 Y-17.602 E2.18295
G1 X4.044 Y-16.635 E2.22048
G1 X4.511 Y-15.509 E2.25800
G1 X4.670 Y-14.300 E2.29552
G1 X4.511 Y-13.091 E2.33304
G1 X4.044 Y-11.965 E2.37056
G1 X3.302 Y-10.998 E2.40809
G1 X2.335 Y-10.256 E2.44561
G1 X1.209 Y-9.789 E2.48313
G1 X0.000 Y-9.630 E2.52065
G1 X-1.209 Y-9.789 E2.55818
G1 X-2.335 Y-10.256 E2.59570
G1 X-3.302 Y-10.998 E2.63322
G1 X-3.985 Y-11.887 E2.66772
G1 X-3.693 Y-12.517 F7800.000
G1 X-2.497 Y-16.796
G1 X-0.534 Y-17.761 F1378.971 E2.74037
G1 X-3.461 Y-14.834 E2.87784
G1 X-3.469 Y-13.827 E2.91128
G1 X0.473 Y-17.769 E3.09642
G1 X1.267 Y-17.565 E3.12367
G1 X-3.265 Y-13.033 E3.33652
G1 X-2.931 Y-12.368 E3.36123
G1 X1.932 Y-17.231 E3.58961
G1 X2.497 Y-16.797 E3.61327
G1 X-2.497 Y-11.803 E3.84783
G1 X-1.932 Y-11.369 E3.87148
G1 X2.931 Y-16.232 E4.09987
G1 X3.265 Y-15.567 E4.12458
G1 X-1.267 Y-11.035 E4.33743
G1 X-0.473 Y-10.831 E4.36467
G1 X3.469 Y-14.773 E4.54981
G1 X3.461 Y-13.766 E4.58325
G1 X0.534 Y-10.839 E4.72073
G1 X2.497 Y-11.804 E4.79338
G1 F1800.000 E3.79338
G92 E0
G1 X10.277 Y-4.304 F7800.000
G1 X14.189 Y13.050
G1 X13.826 Y18.148
G1 X3.873 Y15.338
G1 F1800.000 E1.00000
G1 X3.473 Y16.305 F689.486 E1.03222
G1 X2.835 Y17.135 E1.06444
G1 X2.005 Y17.773 E1.09665
G1 X1.038 Y18.173 E1.12887
G1 X0.000 Y18.310 E1.16109
G1 X-1.038 Y18.173 E1.19331
G1 X-2.005 Y17.773 E1.22553
G1 X-2.835 Y17.135 E1.25774
G1 X-3.473 Y16.305 E1.28996
G1 X-3.873 Y15.338 E1.32218
G1 X-4.010 Y14.300 E1.35440
G1 X-3.873 Y13.262 E1.38662
G1 X-3.473 Y12.295 E1.41883
G1 X-2.835 Y11.465 E1.45105
G1 X-2.005 Y10.827 E1.48327
G1 X-1.038 Y10.427 E1.51549
G1 X-0.000 Y10.290 E1.54771
G1 X1.038 Y10.427 E1.57992
G1 X2.005 Y10.827 E1.61214
G1 X2.835 Y11.465 E1.64436
G1 X3.473 Y12.295 E1.67658
G1 X3.873 Y13.262 E1.70880
G1 X4.010 Y14.300 E1.74101
G1 X3.886 Y15.240 E1.77021
G1 X4.511 Y15.509 F7800.000
G1 X4.044 Y16.635 F689.486 E1.80773
G1 X3.302 Y17.602 E1.84525
G1 X2.335 Y18.344 E1.88278
G1 X1.209 Y18.811 E1.92030
G1 X0.000 Y18.970 E1.95782
G1 X-1.209 Y18.811 E1.99534
G1 X-2.335 Y18.344 E2.03287
G1 X-3.302 Y17.602 E2.07039
G1 X-4.044 Y16.635 E2.10791
G1 X-4.511 Y15.509 E2.14543
G1 X-4.670 Y14.300 E2.18295
G1 X-4.511 Y13.091 E2.22048
G1 X-4.044 Y11.965 E2.25800
G1 X-3.302 Y10.998 E2.29552
G1 X-2.335 Y10.256 E2.33304
G1 X-1.209 Y9.789 E2.37057
G1 X-0.000 Y9.630 E2.40809
G1 X1.209 Y9.789 E2.44561
G1 X2.335 Y10.256 E2.48313
G1 X3.302 Y10.998 E2.52065
G1 X4.044 Y11.965 E2.55818
G1 X4.511 Y13.091 E2.59570
G1 X4.670 Y14.300 E2.63322
G1 X4.524 Y15.411 E2.66772
G1 X3.872 Y15.650 F7800.000
G1 X2.497 Y16.796
G1 X0.534 Y17.761 F1378.971 E2.74037
G1 X3.461 Y14.834 E2.87784
G1 X3.469 Y13.827 E2.91128
G1 X-0.473 Y17.769 E3.09643
G1 X-1.267 Y17.565 E3.12367
G1 X3.265 Y13.033 E3.33652
G1 X2.931 Y12.368 E3.36123
G1 X-1.932 Y17.231 E3.58961
G1 X-2.497 Y16.797 E3.61327
G1 X2.497 Y11.803 E3.84783
G1 X1.932 Y11.369 E3.87148
